ocio-configs/luts/eotf_shaper_gamma40_to_st2084-4000nits.spi1d
Version 1
From 0.000000 1.000000
Length 4096
Components 1
{
         7.309559e-07
         0.009012293
         0.013082893
         0.016174
         0.018747007
         0.020985706
         0.022985844
         0.024804667
         0.026479997
         0.02803785
         0.029497666
         0.03087392
         0.032177884
         0.033418592
         0.034603007
         0.035737455
         0.03682731
         0.037876047
         0.038887747
         0.039865375
         0.040812097
         0.04172953
         0.042620804
         0.043486614
         0.044329453
         0.045150667
         0.045951176
         0.046732582
         0.04749577
         0.048242044
         0.048972145
         0.049686946
         0.050386958
         0.051073268
         0.051746335
         0.05240693
         0.0530554
         0.053692147
         0.054317895
         0.054933164
         0.055538524
         0.056133777
         0.056719843
         0.057296593
         0.057865318
         0.058425095
         0.058976714
         0.059520423
         0.060056802
         0.060586147
         0.061108194
         0.06162358
         0.062132068
         0.06263403
         0.063130155
         0.06361994
         0.06410351
         0.06458252
         0.06505526
         0.065522164
         0.06598404
         0.066441044
         0.06689304
         0.06734022
         0.06778177
         0.06822021
         0.06865278
         0.069082
         0.06950678
         0.06992734
         0.07034358
         0.07075538
         0.07116403
         0.07156874
         0.071969435
         0.07236637
         0.07276016
         0.07315038
         0.07353624
         0.07392052
         0.07429992
         0.07467652
         0.075050645
         0.07542112
         0.07578862
         0.076153815
         0.076514065
         0.07687376
         0.07722949
         0.07758308
         0.07793298
         0.078281015
         0.07862601
         0.07896867
         0.07930818
         0.07964604
         0.07998223
         0.08031396
         0.0806451
         0.080972865
         0.08129919
         0.081622064
         0.081944615
         0.08226283
         0.082579866
         0.08289409
         0.08320707
         0.083517976
         0.08382718
         0.08413385
         0.084439576
         0.084741466
         0.085042775
         0.08534224
         0.08563943
         0.085935146
         0.08622894
         0.08652078
         0.08681108
         0.08709939
         0.08738694
         0.08767204
         0.087955065
         0.088237286
         0.0885174
         0.088796236
         0.089073345
         0.08934958
         0.08962362
         0.08989632
         0.09016678
         0.09043759
         0.09070482
         0.09097195
         0.0912372
         0.091501
         0.09176333
         0.09202551
         0.092285305
         0.09254403
         0.092802115
         0.09305731
         0.09331229
         0.0935657
         0.093818426
         0.09406909
         0.094319046
         0.09456828
         0.094814956
         0.09506043
         0.09530606
         0.095550016
         0.09579226
         0.096034184
         0.09627391
         0.09651376
         0.0967528
         0.09698961
         0.09722557
         0.09746069
         0.097694
         0.09792787
         0.09815992
         0.098390594
         0.0986199
         0.09885021
         0.099077225
         0.099304266
         0.09953038
         0.09975459
         0.09998026
         0.10020255
         0.100424364
         0.10064618
         0.10086653
         0.10108588
         0.101304226
         0.101521574
         0.10173839
         0.10195468
         0.102170445
         0.10238368
         0.102597356
         0.10280948
         0.10302155
         0.10323254
         0.10344196
         0.103652306
         0.10386006
         0.10406822
         0.10427477
         0.10448123
         0.10468556
         0.10488977
         0.10509489
         0.10529735
         0.10550019
         0.105700865
         0.10590191
         0.1061018
         0.106301546
         0.10649909
         0.106697
         0.10689578
         0.10709183
         0.10728719
         0.10748187
         0.10767637
         0.10787018
         0.10806329
         0.10825621
         0.10844738
         0.10863888
         0.10882967
         0.109019205
         0.10920801
         0.10939661
         0.109584995
         0.109772645
         0.109957956
         0.11014464
         0.1103295
         0.11051521
         0.11069908
         0.11088218
         0.111065045
         0.11124767
         0.11143006
         0.11161111
         0.11179192
         0.111970864
         0.11215117
         0.11232959
         0.112508826
         0.11268617
         0.11286325
         0.1130406
         0.11321659
         0.1133923
         0.11356663
         0.11374123
         0.11391664
         0.11408956
         0.114262745
         0.114435084
         0.114606574
         0.11477887
         0.11494864
         0.11511978
         0.115288936
         0.11545889
         0.11562799
         0.11579676
         0.1159641
         0.116132244
         0.11629894
         0.11646531
         0.11663248
         0.11679706
         0.116961874
         0.11712691
         0.11729049
         0.117453724
         0.11761775
         0.11778086
         0.117943056
         0.11810433
         0.118266396
         0.11842697
         0.11858718
         0.11874703
         0.118907675
         0.11906623
         0.119224995
         0.11938455
         0.119541995
         0.11969966
         0.11985694
         0.120012686
         0.120169215
         0.12032537
         0.12048172
         0.12063594
         0.120790355
         0.12094439
         0.12109861
         0.12125185
         0.12140588
         0.12155892
         0.12171039
         0.12186322
         0.1220133
         0.12216474
         0.12231518
         0.12246641
         0.12261603
         0.12276584
         0.12291524
         0.123063035
         0.12321219
         0.123360336
         0.12350866
         0.12365597
         0.12380165
         0.123948105
         0.12409533
         0.12424152
         0.12438789
         0.124532625
         0.12467753
         0.124822
         0.12496663
         0.125109
         0.12525336
         0.12539728
         0.12553954
         0.12568195
         0.12582454
         0.12596667
         0.12610713
         0.12624775
         0.12638913
         0.12652946
         0.12666932
         0.12681055
         0.12694949
         0.12708981
         0.12722783
         0.12736599
         0.12750432
         0.127644
         0.12778077
         0.12791829
         0.12805596
         0.1281913
         0.12832865
         0.12846489
         0.12860067
         0.12873533
         0.1288714
         0.12900697
         0.12914081
         0.12927541
         0.12940954
         0.1295438
         0.12967694
         0.12980959
         0.12994237
         0.13007529
         0.13020773
         0.13034092
         0.13047172
         0.13060328
         0.13073435
         0.13086554
         0.13099562
         0.13112643
         0.13125676
         0.1313872
         0.13151652
         0.13164467
         0.13177487
         0.13190392
         0.13203245
         0.13215983
         0.13228798
         0.13241625
         0.13254271
         0.13267058
         0.1327973
         0.13292477
         0.13305108
         0.13317686
         0.13330342
         0.13342816
         0.13355364
         0.1336799
         0.1338037
         0.1339289
         0.13405356
         0.13417704
         0.13430065
         0.13442501
         0.13454753
         0.13467148
         0.13479422
         0.1349171
         0.1350394
         0.13516249
         0.13528307
         0.13540637
         0.13552783
         0.13564873
         0.13576974
         0.13589087
         0.13601078
         0.13613145
         0.13625158
         0.1363718
         0.13649148
         0.1366106
         0.13673049
         0.13684915
         0.13696793
         0.1370868
         0.13720511
         0.13732351
         0.13744137
         0.13755865
         0.13767737
         0.13779353
         0.13791046
         0.13802746
         0.13814458
         0.13826047
         0.13837777
         0.13849318
         0.13860868
         0.13872428
         0.13884065
         0.13895576
         0.13906963
         0.13918427
         0.139299
         0.13941315
         0.13952807
         0.13964173
         0.13975616
         0.13986933
         0.13998191
         0.14009526
         0.1402087
         0.14032157
         0.14043316
         0.14054552
         0.14065865
         0.14077051
         0.14088178
         0.14099382
         0.14110458
         0.1412161
         0.14132704
         0.14143807
         0.14154917
         0.14165832
         0.1417689
         0.14187959
         0.141989
         0.14209916
         0.14220804
         0.14231768
         0.14242673
         0.14253516
         0.14264506
         0.14275299
         0.14286166
         0.14296974
         0.1430786
         0.14318547
         0.14329378
         0.1434008
         0.1435079
         0.14361508
         0.14372234
         0.14382967
         0.14393571
         0.1440425
         0.14414938
         0.14425495
         0.14436129
         0.14446631
         0.14457141
         0.1446766
         0.14478254
         0.14488716
         0.14499187
         0.14509666
         0.1452022
         0.14530644
         0.14541073
         0.14551371
         0.14561817
         0.14572199
         0.14582658
         0.14592984
         0.14603248
         0.1461359
         0.14623797
         0.14634152
         0.14644374
         0.14654674
         0.14664838
         0.14675081
         0.1468526
         0.14695518
         0.14705639
         0.1471584
         0.14725904
         0.14736047
         0.14746198
         0.14756355
         0.14766304
         0.14776474
         0.14786439
         0.1479648
         0.148066
         0.14816512
         0.14826503
         0.14836358
         0.1484636
         0.14856371
         0.14866316
         0.14880209
         0.14932165
         0.14983867
         0.15035239
         0.15086132
         0.15136684
         0.1518682
         0.15236606
         0.15286037
         0.15335038
         0.15383749
         0.15432093
         0.15480065
         0.15527736
         0.15575103
         0.15622085
         0.15668908
         0.15715186
         0.15761222
         0.15806934
         0.15852472
         0.15897605
         0.1594248
         0.15986943
         0.16031297
         0.16075385
         0.16118972
         0.16162445
         0.16205564
         0.16248563
         0.16291204
         0.16333562
         0.16375716
         0.16417502
         0.16459236
         0.16500598
         0.16541745
         0.16582674
         0.16623303
         0.16663711
         0.16703893
         0.16744012
         0.16783579
         0.16823158
         0.16862586
         0.16901618
         0.16940494
         0.16979133
         0.17017613
         0.1705577
         0.1709401
         0.17131759
         0.17169426
         0.17206843
         0.1724401
         0.17281172
         0.17317998
         0.17354734
         0.17391297
         0.17427517
         0.17463727
         0.17499591
         0.1753536
         0.17571032
         0.17606522
         0.17641659
         0.17676696
         0.17711715
         0.17746548
         0.17781022
         0.17815475
         0.17849739
         0.17883894
         0.1791777
         0.17951623
         0.17985193
         0.1801874
         0.18052001
         0.18085149
         0.18118183
         0.18151017
         0.18183732
         0.18216507
         0.18248902
         0.18281178
         0.18313335
         0.18345371
         0.18377198
         0.1840899
         0.18440484
         0.18472119
         0.18503363
         0.18534571
         0.18565741
         0.18596606
         0.18627432
         0.1865822
         0.18692377
         0.18737656
         0.18782774
         0.18827455
         0.18872151
         0.18916318
         0.18960403
         0.19004133
         0.1904769
         0.19090886
         0.19133721
         0.1917665
         0.19219214
         0.192615
         0.19303508
         0.19345328
         0.19386959
         0.19428305
         0.19469364
         0.19510323
         0.19551177
         0.19591554
         0.19631824
         0.19671986
         0.19711852
         0.19751418
         0.19790873
         0.1983012
         0.19869159
         0.19908081
         0.19946602
         0.19985099
         0.20023479
         0.2006145
         0.20099396
         0.20137121
         0.20174627
         0.2021201
         0.2024907
         0.20286101
         0.20322907
         0.2035968
         0.20396128
         0.20432445
         0.2046863
         0.20504485
         0.20540303
         0.20575985
         0.20611432
         0.20646642
         0.20681912
         0.20716943
         0.20751734
         0.20786484
         0.20820892
         0.20855355
         0.20889676
         0.2092375
         0.20957679
         0.20991561
         0.21025196
         0.21058682
         0.21092017
         0.21125303
         0.21158338
         0.21194166
         0.21236567
         0.21278848
         0.21320802
         0.2136243
         0.21403933
         0.21445206
         0.21486248
         0.21527267
         0.21567948
         0.21608292
         0.21648605
         0.21688578
         0.21728414
         0.2176822
         0.21807471
         0.2184679
         0.21885866
         0.21924695
         0.21963488
         0.22001927
         0.22040431
         0.2207858
         0.22116475
         0.2215433
         0.22191823
         0.22229376
         0.22266568
         0.22303714
         0.22340707
         0.22377439
         0.22414017
         0.22450545
         0.22486809
         0.22523023
         0.22558863
         0.22594652
         0.22630386
         0.22665961
         0.22701155
         0.22736403
         0.22771488
         0.22806408
         0.22841161
         0.22875638
         0.22910057
         0.22944418
         0.229785
         0.2301252
         0.2304648
         0.23080601
         0.2312119
         0.23161627
         0.23201914
         0.23241934
         0.23281913
         0.23321512
         0.23360954
         0.23400238
         0.23439363
         0.23478328
         0.23517019
         0.23555547
         0.23593912
         0.23632112
         0.23670146
         0.23708014
         0.23745716
         0.23783247
         0.2382061
         0.23857802
         0.2389471
         0.23931673
         0.23968233
         0.2400485
         0.24041405
         0.24077441
         0.24113528
         0.24149439
         0.24185172
         0.24220723
         0.24256328
         0.24291518
         0.24326876
         0.24361701
         0.24396692
         0.24431384
         0.24465889
         0.24500442
         0.24534808
         0.24568869
         0.24602978
         0.24639726
         0.24678889
         0.24718113
         0.24757044
         0.24795799
         0.24834138
         0.24872655
         0.24910754
         0.2494879
         0.24986765
         0.25024438
         0.2506193
         0.25099352
         0.2513647
         0.25173524
         0.2521039
         0.2524719
         0.252838
         0.2532022
         0.25356448
         0.25392607
         0.25428453
         0.25464225
         0.25500047
         0.25535432
         0.25570866
         0.2560598
         0.25641263
         0.25676104
         0.2571087
         0.2574556
         0.25780046
         0.2581458
         0.25848666
         0.25883043
         0.2591672
         0.25954413
         0.2599253
         0.26030707
         0.26068437
         0.26106223
         0.2614381
         0.26181203
         0.262184
         0.2625552
         0.2629244
         0.26329288
         0.26365808
         0.26402253
         0.2643862
         0.26474658
         0.2651087
         0.26546624
         0.26582426
         0.2661802
         0.26653278
         0.26688713
         0.26723683
         0.26758695
         0.26793626
         0.2682835
         0.26862982
         0.26897407
         0.26931873
         0.26965868
         0.27000034
         0.27033857
         0.2706901
         0.27106416
         0.2714374
         0.27180988
         0.27218023
         0.2725472
         0.27291593
         0.27327994
         0.27364573
         0.2740081
         0.27436963
         0.27472767
         0.2750862
         0.27544516
         0.27579802
         0.27615264
         0.27650508
         0.27685663
         0.27720597
         0.27755442
         0.27790064
         0.2782473
         0.27859303
         0.27893388
         0.27927783
         0.27961683
         0.27995622
         0.28029338
         0.28063226
         0.2810024
         0.281369
         0.2817334
         0.28209823
         0.28246084
         0.2828212
         0.28318068
         0.28353927
         0.28389558
         0.28425097
         0.28460544
         0.28495628
         0.28530753
         0.28565785
         0.28600585
         0.2863543
         0.28669906
         0.28704557
         0.28738838
         0.28772888
         0.28806975
         0.28841102
         0.28874856
         0.28908372
         0.28942066
         0.28976354
         0.29012617
         0.29048648
         0.29084587
         0.2912043
         0.29156038
         0.29191548
         0.29226822
         0.2926214
         0.2929722
         0.293322
         0.29366943
         0.29401726
         0.29436266
         0.2947043
         0.29504907
         0.29539147
         0.29573143
         0.29607037
         0.29640827
         0.29674512
         0.29708096
         0.2974143
         0.29774806
         0.2980978
         0.29845366
         0.2988085
         0.29916233
         0.29951373
         0.2998655
         0.30021486
         0.30056316
         0.30090898
         0.30125523
         0.3016004
         0.3019431
         0.30228472
         0.3026253
         0.3029648
         0.30330324
         0.30363914
         0.30397543
         0.30430916
         0.30464327
         0.30497482
         0.30530527
         0.3056521
         0.30600372
         0.30635282
         0.30670232
         0.30705073
         0.3073966
         0.30774283
         0.30808654
         0.30842915
         0.3087692
         0.3091096
         0.30944893
         0.3097871
         0.3101227
         0.3104572
         0.31079203
         0.31112427
         0.31145534
         0.31178528
         0.31211558
         0.31244922
         0.3127966
         0.3131429
         0.31348807
         0.3138321
         0.31417653
         0.31451684
         0.31485748
         0.31519702
         0.3155354
         0.31587112
         0.3162072
         0.31654212
         0.31687587
         0.31720847
         0.31753686
         0.3178671
         0.31819618
         0.31852254
         0.31885076
         0.319193
         0.31953716
         0.3198786
         0.3202204
         0.320558
         0.32089746
         0.32123578
         0.3215698
         0.32190573
         0.32223892
         0.32257092
         0.32290173
         0.3232313
         0.3235597
         0.32388842
         0.32421592
         0.32454064
         0.3248657
         0.3252019
         0.32554314
         0.3258816
         0.32621884
         0.32655647
         0.32688972
         0.32722336
         0.3275573
         0.32788846
         0.32821837
         0.32854864
         0.32887608
         0.32920226
         0.32953036
         0.32985404
         0.33017805
         0.3305008
         0.3308302
         0.33116618
         0.3315041
         0.33183762
         0.33217147
         0.33250245
         0.3328338
         0.3331639
         0.3334927
         0.33381864
         0.33414647
         0.33447307
         0.33479676
         0.33512077
         0.3354435
         0.33576173
         0.33608666
         0.3364199
         0.3367519
         0.3370858
         0.33741683
         0.33774495
         0.33807337
         0.3384005
         0.33872637
         0.3390509
         0.33937573
         0.33969766
         0.3400231
         0.340344
         0.34066358
         0.34097856
         0.34130687
         0.3416387
         0.34196764
         0.34229523
         0.34262314
         0.34294975
         0.343275
         0.34359893
         0.34392315
         0.3442444
         0.34456596
         0.34488615
         0.34520337
         0.3455225
         0.34583864
         0.34616166
         0.3464899
         0.34681848
         0.3471424
         0.34746662
         0.34779114
         0.34811598
         0.34843612
         0.34875652
         0.3490756
         0.34939495
         0.3497129
         0.35002783
         0.35034302
         0.35066018
         0.35098597
         0.3513104
         0.3516351
         0.35195675
         0.35228038
         0.35260093
         0.35292011
         0.35323957
         0.35355595
         0.3538709
         0.35418785
         0.35450166
         0.35481578
         0.35513186
         0.35545498
         0.3557784
         0.3561004
         0.356421
         0.35673848
         0.35705626
         0.3573743
         0.35768923
         0.35800612
         0.35831818
         0.3586305
         0.35894138
         0.35925597
         0.35957935
         0.3598979
         0.36021847
         0.36053413
         0.3608518
         0.36116803
         0.36148453
         0.36179614
         0.36211145
         0.36242187
         0.36273426
         0.36304176
         0.36335468
         0.36367482
         0.36399347
         0.36431068
         0.36462644
         0.36493897
         0.36525527
         0.36556658
         0.3658782
         0.3661883
         0.36649692
         0.36680758
         0.36711845
         0.36743486
         0.36774978
         0.3680632
         0.3683769
         0.36869264
         0.36900508
         0.36931783
         0.36962554
         0.36993527
         0.37024525
         0.37055022
         0.37085542
         0.3711697
         0.371486
         0.37179905
         0.37211058
         0.37242237
         0.3727291
         0.3730396
         0.37334862
         0.3736543
         0.3739656
         0.37426645
         0.37457645
         0.37488848
         0.37520078
         0.37551156
         0.3758208
         0.3761285
         0.37644002
         0.37674463
         0.37705308
         0.37736177
         0.3776653
         0.37796733
         0.37827495
         0.37858644
         0.37889457
         0.37920475
         0.37950975
         0.37981862
         0.38012594
         0.38042626
         0.38073224
         0.38103485
         0.3813395
         0.38164622
         0.38195497
         0.38226035
         0.3825678
         0.38287184
         0.38318342
         0.38348246
         0.3837872
         0.3840849
         0.3843865
         0.3846938
         0.38500133
         0.38530546
         0.38561165
         0.38591623
         0.38621742
         0.386528
         0.38682595
         0.38712227
         0.3874262
         0.387723
         0.38802925
         0.38833758
         0.38864243
         0.388942
         0.38924736
         0.38954738
         0.3898476
         0.39014438
         0.39045066
         0.39074603
         0.39104903
         0.39135042
         0.39165577
         0.3919576
