ocio-configs/luts/eotf_shaper_gamma40_to_gamma26.spi1d
Version 1
From 0.000000 1.000000
Length 4096
Components 1
{
         0.0
         0.0037040364
         0.004835663
         0.005651756
         0.0063130143
         0.006878755
         0.007378434
         0.007829119
         0.008241714
         0.00862366
         0.008980296
         0.009315602
         0.009632631
         0.00993379
         0.010221007
         0.01049586
         0.010759654
         0.011013486
         0.011258288
         0.011494856
         0.011723881
         0.011945962
         0.0121616265
         0.012371339
         0.012575513
         0.012774517
         0.012968679
         0.013158299
         0.013343645
         0.013524961
         0.013702468
         0.013876371
         0.014046854
         0.01421409
         0.014378236
         0.014539436
         0.014697827
         0.014853532
         0.01500667
         0.015157347
         0.015305663
         0.015451716
         0.0155955935
         0.015737377
         0.015877146
         0.016014973
         0.016150929
         0.016285077
         0.01641748
         0.016548196
         0.01667728
         0.016804786
         0.016930763
         0.017055256
         0.017178314
         0.017299976
         0.017420284
         0.017539278
         0.017656993
         0.017773468
         0.017888732
         0.018002821
         0.018115764
         0.018227592
         0.018338332
         0.018448014
         0.01855666
         0.0186643
         0.018770954
         0.018876648
         0.018981405
         0.019085243
         0.019188186
         0.019290252
         0.01939146
         0.019491833
         0.019591384
         0.019690132
         0.019788094
         0.019885285
         0.019981723
         0.020077422
         0.020172397
         0.020266661
         0.02036023
         0.020453114
         0.02054533
         0.020636886
         0.0207278
         0.020818079
         0.020907735
         0.020996781
         0.021085225
         0.021173082
         0.021260358
         0.021347065
         0.021433212
         0.021518808
         0.021603864
         0.021688387
         0.021772385
         0.021855868
         0.021938846
         0.022021323
         0.02210331
         0.022184812
         0.022265837
         0.022346394
         0.02242649
         0.022506129
         0.022585321
         0.02266407
         0.022742385
         0.022820272
         0.022897733
         0.022974778
         0.023051413
         0.023127642
         0.02320347
         0.023278905
         0.02335395
         0.023428611
         0.023502894
         0.023576802
         0.023650343
         0.023723518
         0.023796335
         0.023868795
         0.023940908
         0.024012674
         0.024084097
         0.024155185
         0.024225937
         0.024296362
         0.024366463
         0.02443624
         0.0245057
         0.024574848
         0.024643686
         0.024712216
         0.024780447
         0.024848375
         0.024916008
         0.024983348
         0.0250504
         0.025117166
         0.02518365
         0.025249852
         0.025315778
         0.025381433
         0.025446815
         0.02551193
         0.02557678
         0.025641369
         0.025705697
         0.025769768
         0.025833586
         0.025897155
         0.025960473
         0.026023544
         0.026086373
         0.02614896
         0.02621131
         0.026273422
         0.026335299
         0.026396947
         0.026458364
         0.026519554
         0.026580518
         0.026641259
         0.02670178
         0.026762083
         0.026822168
         0.02688204
         0.026941698
         0.027001146
         0.027060384
         0.027119417
         0.027178245
         0.02723687
         0.027295291
         0.027353516
         0.027411543
         0.027469372
         0.027527008
         0.027584452
         0.027641706
         0.02769877
         0.027755646
         0.027812338
         0.027868843
         0.027925167
         0.02798131
         0.028037272
         0.028093057
         0.028148664
         0.028204096
         0.028259356
         0.028314441
         0.028369358
         0.028424103
         0.028478682
         0.028533092
         0.028587338
         0.02864142
         0.028695337
         0.028749095
         0.028802691
         0.028856128
         0.028909408
         0.02896253
         0.029015498
         0.029068312
         0.02912097
         0.02917348
         0.029225837
         0.029278044
         0.029330105
         0.029382015
         0.029433781
         0.0294854
         0.029536877
         0.02958821
         0.0296394
         0.02969045
         0.02974136
         0.02979213
         0.029842762
         0.029893259
         0.029943617
         0.029993841
         0.030043932
         0.030093888
         0.030143714
         0.030193407
         0.030242968
         0.030292401
         0.030341705
         0.030390883
         0.030439932
         0.030488854
         0.030537652
         0.030586326
         0.030634876
         0.030683303
         0.030731607
         0.030779792
         0.030827856
         0.030875798
         0.030923624
         0.030971332
         0.03101892
         0.031066393
         0.031113751
         0.031160994
         0.03120812
         0.031255137
         0.03130204
         0.031348825
         0.031395502
         0.031442072
         0.031488527
         0.031534877
         0.031581115
         0.031627245
         0.031673267
         0.031719185
         0.031764995
         0.0318107
         0.031856302
         0.0319018
         0.031947188
         0.03199248
         0.032037668
         0.03208275
         0.032127734
         0.03217262
         0.032217402
         0.032262087
         0.032306675
         0.032351162
         0.032395553
         0.032439843
         0.03248404
         0.03252814
         0.032572147
         0.032616053
         0.03265987
         0.03270359
         0.03274722
         0.032790754
         0.0328342
         0.03287755
         0.032920808
         0.032963976
         0.033007056
         0.033050045
         0.033092946
         0.033135757
         0.03317848
         0.033221114
         0.03326366
         0.03330612
         0.033348497
         0.033390786
         0.033432987
         0.033475105
         0.033517137
         0.033559088
         0.033600952
         0.033642735
         0.033684433
         0.03372605
         0.033767585
         0.033809036
         0.03385041
         0.0338917
         0.033932913
         0.033974044
         0.034015093
         0.034056067
         0.03409696
         0.034137774
         0.03417851
         0.03421917
         0.034259755
         0.03430026
         0.034340687
         0.034381043
         0.03442132
         0.03446152
         0.03450165
         0.034541704
         0.034581684
         0.034621585
         0.03466142
         0.034701176
         0.03474086
         0.034780476
         0.034820016
         0.034859486
         0.034898885
         0.034938212
         0.03497747
         0.035016656
         0.03505577
         0.035094816
         0.035133794
         0.0351727
         0.03521154
         0.03525031
         0.035289016
         0.03532765
         0.035366215
         0.035404716
         0.03544315
         0.035481516
         0.035519816
         0.035558052
         0.03559622
         0.035634324
         0.035672363
         0.035710335
         0.035748243
         0.03578609
         0.03582387
         0.03586159
         0.03589924
         0.035936832
         0.03597436
         0.036011826
         0.03604923
         0.03608657
         0.03612385
         0.03616107
         0.036198225
         0.03623532
         0.036272354
         0.03630933
         0.036346246
         0.0363831
         0.036419895
         0.036456633
         0.03649331
         0.036529925
         0.036566485
         0.036602985
         0.03663943
         0.036675815
         0.03671214
         0.03674841
         0.036784623
         0.036820777
         0.03685688
         0.03689292
         0.036928907
         0.036964834
         0.03700071
         0.037036527
         0.037072293
         0.037108
         0.037143655
         0.03717925
         0.037214797
         0.037250288
         0.037285723
         0.037321106
         0.037356433
         0.037391707
         0.03742693
         0.0374621
         0.037497215
         0.03753228
         0.03756729
         0.03760225
         0.03763716
         0.037672013
         0.03770682
         0.03774157
         0.037776273
         0.03781092
         0.037845522
         0.037880074
         0.03791457
         0.037949022
         0.03798342
         0.03801777
         0.038052067
         0.038086317
         0.03812052
         0.038154673
         0.038188774
         0.03822283
         0.038256835
         0.038290795
         0.038324703
         0.038358565
         0.03839238
         0.038426146
         0.038459864
         0.038493536
         0.03852716
         0.038560737
         0.03859427
         0.038627755
         0.038661193
         0.038694583
         0.03872793
         0.038761232
         0.038794484
         0.038827695
         0.038860857
         0.038893975
         0.03892705
         0.038960077
         0.03899306
         0.039026
         0.039058894
         0.039091744
         0.03912455
         0.039157312
         0.03919003
         0.039222706
         0.039255336
         0.039287925
         0.03932047
         0.039352972
         0.03938543
         0.039417844
         0.03945022
         0.03948255
         0.03951484
         0.039547086
         0.03957929
         0.03961145
         0.039643575
         0.039675653
         0.03970769
         0.039739687
         0.039771643
         0.039803557
         0.03983543
         0.039867263
         0.039899055
         0.039930806
         0.03996252
         0.039994188
         0.04002582
         0.04005741
         0.040088963
         0.040120475
         0.040151946
         0.040183377
         0.04021477
         0.040246125
         0.04027744
         0.040308718
         0.040339954
         0.040371154
         0.04040231
         0.040433433
         0.040464517
         0.040495563
         0.040526573
         0.04055754
         0.040588472
         0.040619366
         0.040650222
         0.04068104
         0.040711824
         0.04074257
         0.040773276
         0.040816262
         0.040977675
         0.041138075
         0.041297484
         0.041455913
         0.04161338
         0.0417699
         0.041925482
         0.042080153
         0.042233914
         0.04238679
         0.042538784
         0.042689916
         0.042840194
         0.042989638
         0.04313825
         0.04328605
         0.043433048
         0.043579254
         0.04372468
         0.043869335
         0.044013232
         0.044156376
         0.044298787
         0.044440467
         0.04458143
         0.044721678
         0.044861227
         0.045000087
         0.045138266
         0.04527577
         0.04541261
         0.04554879
         0.045684326
         0.04581922
         0.04595348
         0.04608712
         0.046220135
         0.046352547
         0.046484355
         0.046615567
         0.04674619
         0.04687623
         0.0470057
         0.0471346
         0.047262937
         0.04739072
         0.047517955
         0.047644645
         0.047770802
         0.047896426
         0.048021525
         0.048146103
         0.04827017
         0.048393726
         0.04851678
         0.04863934
         0.048761405
         0.048882984
         0.049004078
         0.0491247
         0.049244847
         0.049364526
         0.049483746
         0.049602505
         0.049720813
         0.04983867
         0.049956083
         0.05007306
         0.0501896
         0.050305706
         0.050421387
         0.05053664
         0.05065148
         0.0507659
         0.050879914
         0.05099352
         0.05110672
         0.051219523
         0.051331926
         0.05144394
         0.051555563
         0.0516668
         0.05177766
         0.051888134
         0.05199824
         0.05210797
         0.052217335
         0.052326333
         0.052434966
         0.05254324
         0.052651163
         0.05275873
         0.05286595
         0.05297282
         0.053079348
         0.053185534
         0.053303715
         0.053460892
         0.053617336
         0.053773053
         0.053928055
         0.054082345
         0.05423593
         0.05438883
         0.05454104
         0.054692574
         0.054843437
         0.054993644
         0.055143196
         0.0552921
         0.055440366
         0.055588
         0.055735007
         0.055881403
         0.05602718
         0.05617236
         0.05631694
         0.056460924
         0.056604326
         0.05674715
         0.0568894
         0.057031084
         0.057172205
         0.05731277
         0.05745279
         0.057592265
         0.0577312
         0.057869602
         0.05800748
         0.05814483
         0.058281668
         0.058417987
         0.058553807
         0.058689117
         0.058823936
         0.058958262
         0.059092097
         0.05922545
         0.059358325
         0.059490725
         0.059622657
         0.059754122
         0.059885122
         0.06001567
         0.060145766
         0.06027541
         0.06040461
         0.06053337
         0.060661692
         0.060789585
         0.060917046
         0.061044082
         0.061170697
         0.06129689
         0.061422676
         0.061548047
         0.06167301
         0.06179757
         0.061921734
         0.062045496
         0.062168863
         0.06230239
         0.062460754
         0.06261847
         0.06277556
         0.06293202
         0.063087866
         0.06324309
         0.06339771
         0.06355173
         0.063705154
         0.063857995
         0.06401025
         0.06416192
         0.064313024
         0.06446356
         0.06461354
         0.064762965
         0.064911835
         0.06506017
         0.06520796
         0.06535521
         0.06550194
         0.065648146
         0.06579383
         0.065938994
         0.066083655
         0.06622781
         0.06637146
         0.066514626
         0.06665729
         0.06679947
         0.06694117
         0.06708239
         0.06722314
         0.06736341
         0.06750322
         0.06764257
         0.06778146
         0.067919895
         0.06805789
         0.068195425
         0.06833252
         0.06846918
         0.06860541
         0.0687412
         0.068876565
         0.06901151
         0.06914603
         0.069280125
         0.06941382
         0.06954864
         0.06970929
         0.06986936
         0.07002885
         0.070187755
         0.07034609
         0.07050386
         0.07066105
         0.0708177
         0.07097379
         0.07112934
         0.07128434
         0.071438804
         0.07159274
         0.07174614
         0.07189903
         0.07205138
         0.072203234
         0.07235458
         0.072505414
         0.072655745
         0.07280559
         0.07295494
         0.07310379
         0.07325217
         0.073400065
         0.07354749
         0.07369444
         0.07384092
         0.07398694
         0.0741325
         0.07427761
         0.074422255
         0.07456646
         0.07471022
         0.07485353
         0.07499642
         0.07513886
         0.075280875
         0.07542246
         0.075563625
         0.075704366
         0.07585664
         0.07601934
         0.076181486
         0.07634308
         0.07650413
         0.07666464
         0.07682462
         0.076984055
         0.077142976
         0.07730137
         0.077459246
         0.07761661
         0.07777347
         0.07792982
         0.07808567
         0.07824102
         0.07839588
         0.07855026
         0.07870414
         0.078857556
         0.07901049
         0.07916295
         0.07931494
         0.07946647
         0.07961754
         0.07976815
         0.07991831
         0.080068015
         0.08021728
         0.08036609
         0.08051447
         0.080662414
         0.08080992
         0.080956995
         0.08110365
         0.081249885
         0.081411764
         0.08157656
         0.081740834
         0.081904575
         0.0820678
         0.0822305
         0.0823927
         0.08255438
         0.082715556
         0.08287623
         0.08303641
         0.083196096
         0.08335529
         0.083514005
         0.08367223
         0.083829984
         0.083987266
         0.08414408
         0.08430042
         0.0844563
         0.08461172
         0.08476669
         0.08492121
         0.085075274
         0.0852289
         0.085382074
         0.08553482
         0.08568712
         0.085838996
         0.085990444
         0.08614146
         0.08629796
         0.086465165
         0.08663185
         0.08679803
         0.08696369
         0.087128855
         0.08729352
         0.08745769
         0.08762137
         0.08778456
         0.08794726
         0.088109486
         0.08827124
         0.08843251
         0.08859332
         0.08875366
         0.08891354
         0.08907296
         0.08923192
         0.089390434
         0.0895485
         0.08970612
         0.0898633
         0.09002004
         0.090176344
         0.09033222
         0.09048766
         0.090642676
         0.09079848
         0.09096784
         0.091136694
         0.09130505
         0.09147291
         0.09164028
         0.09180716
         0.09197355
         0.09213947
         0.09230491
         0.09246988
         0.09263437
         0.092798404
         0.092961974
         0.09312508
         0.093287736
         0.09344994
         0.09361169
         0.093773
         0.093933865
         0.094094284
         0.09425427
         0.09441383
         0.094572954
         0.09473165
         0.09488992
         0.095052615
         0.09522373
         0.095394365
         0.09556451
         0.095734164
         0.095903344
         0.096072055
         0.09624028
         0.09640805
         0.09657534
         0.096742176
         0.096908554
         0.09707447
         0.097239934
         0.09740495
         0.097569525
         0.097733654
         0.09789734
         0.09806059
         0.09822342
         0.098385796
         0.09854776
         0.09870929
         0.098870404
         0.09903972
         0.09921247
         0.09938474
         0.09955653
         0.099727854
         0.0998987
         0.10006909
         0.10023901
         0.10040847
         0.10057748
         0.10074603
         0.100914136
         0.101081796
         0.101249
         0.101415776
         0.10158211
         0.10174801
         0.10191348
         0.10207851
         0.102243125
         0.10240732
         0.102571085
         0.10274294
         0.10291736
         0.10309131
         0.10326478
         0.103437796
         0.10361035
         0.103782445
         0.10395408
         0.10412527
         0.104296
         0.10446629
         0.10463614
         0.104805544
         0.104974516
         0.10514305
         0.105311155
         0.10547883
         0.10564609
         0.105812915
         0.10597932
         0.10614783
         0.106324084
         0.10649987
         0.1066752
         0.106850065
         0.10702447
         0.107198425
         0.107371934
         0.10754499
         0.107717596
         0.10788977
         0.1080615
         0.108232796
         0.10840366
         0.10857409
         0.1087441
         0.10891368
         0.10908285
         0.10925159
         0.10941991
         0.10959758
         0.10977501
         0.10995197
         0.11012849
         0.11030455
         0.11048017
         0.11065533
         0.11083006
         0.111004345
         0.1111782
         0.11135161
         0.1115246
         0.11169715
         0.11186928
         0.11204099
         0.11221228
         0.11238315
         0.112553604
         0.11273115
         0.1129101
         0.11308859
         0.11326664
         0.11344425
         0.113621406
         0.11379813
         0.1139744
         0.11415025
         0.11432566
         0.11450064
         0.114675194
         0.11484932
         0.11502304
         0.11519633
         0.1153692
         0.11554167
         0.115718774
         0.115899205
         0.11607918
         0.11625872
         0.11643781
         0.116616465
         0.11679468
         0.11697246
         0.117149815
         0.11732674
         0.11750323
         0.117679305
         0.11785495
         0.11803019
         0.11820501
         0.118379414
         0.118554994
         0.1187369
         0.118918374
         0.11909939
         0.11927998
         0.11946013
         0.11963985
         0.119819134
         0.119998
         0.12017643
         0.12035444
         0.12053203
         0.1207092
         0.12088595
         0.1210623
         0.12123823
         0.12141813
         0.121601135
         0.1217837
         0.12196583
         0.12214753
         0.122328795
         0.12250963
         0.12269004
         0.12287002
         0.12304959
         0.12322873
         0.12340747
         0.12358578
         0.12376369
         0.12394119
         0.12412274
         0.12430693
         0.124490686
         0.124674015
         0.124856904
         0.12503937
         0.12522142
         0.12540303
         0.12558423
         0.12576501
         0.12594539
         0.12612534
         0.12630488
         0.126484
         0.1266645
         0.12685
         0.12703507
         0.1272197
         0.12740393
         0.1275877
         0.12777106
         0.127954
         0.12813653
         0.12831865
         0.12850034
         0.12868164
         0.12886252
         0.129043
         0.12922616
         0.12941268
         0.12959878
         0.12978445
         0.1299697
         0.13015452
         0.13033894
         0.13052292
         0.1307065
         0.13088967
         0.13107242
         0.13125478
         0.13143672
         0.13161935
         0.13180707
         0.13199437
         0.13218123
         0.13236767
         0.13255371
         0.13273932
         0.13292451
         0.1331093
         0.13329367
         0.13347764
         0.13366121
         0.13384436
         0.13402931
         0.13421799
         0.13440625
         0.13459408
         0.13478151
         0.1349685
         0.1351551
         0.13534127
         0.13552704
         0.1357124
         0.13589735
         0.13608192
         0.13626607
         0.13645564
         0.13664506
         0.13683407
         0.13702266
         0.13721082
         0.13739859
         0.13758594
         0.13777287
         0.1379594
         0.13814555
         0.13833128
         0.1385166
         0.13870722
         0.13889761
         0.13908759
         0.13927715
         0.13946629
         0.13965502
         0.13984336
         0.1400313
         0.14021881
         0.14040594
         0.14059265
         0.14078093
         0.14097251
         0.14116369
         0.14135444
         0.14154479
         0.14173473
         0.14192426
         0.14211339
         0.14230211
         0.14249043
         0.14267837
         0.14286625
         0.14305887
         0.14325106
         0.14344285
         0.14363423
         0.1438252
         0.14401577
         0.14420594
         0.14439571
         0.14458507
         0.14477403
         0.14496318
         0.14515667
         0.14534973
         0.14554238
         0.14573464
