ocio-configs/luts/eotf_shaper_gamma40_to_dcdm.spi1d
Version 1
From 0.000000 1.000000
Length 4096
Components 1
{
         0.0
         0.0035819612
         0.004676292
         0.0054654893
         0.006104954
         0.00665205
         0.0071352604
         0.007571093
         0.007970089
         0.008339447
         0.008684329
         0.009008584
         0.009315166
         0.009606399
         0.009884151
         0.010149945
         0.010405045
         0.010650511
         0.010887246
         0.011116017
         0.011337494
         0.011552255
         0.011760811
         0.011963612
         0.012161058
         0.012353502
         0.012541266
         0.012724637
         0.012903874
         0.013079214
         0.013250872
         0.013419042
         0.013583908
         0.013745632
         0.013904368
         0.014060256
         0.014213426
         0.0143639995
         0.01451209
         0.014657801
         0.01480123
         0.014942469
         0.015081604
         0.015218715
         0.015353877
         0.015487162
         0.015618636
         0.015748365
         0.015876403
         0.016002811
         0.016127642
         0.016250946
         0.01637277
         0.01649316
         0.016612163
         0.016729815
         0.01684616
         0.01696123
         0.017075067
         0.017187702
         0.017299168
         0.017409496
         0.017518718
         0.01762686
         0.01773395
         0.017840017
         0.017945083
         0.018049175
         0.018152313
         0.018254524
         0.018355828
         0.018456245
         0.018555794
         0.018654495
         0.01875237
         0.018849432
         0.018945703
         0.019041197
         0.019135932
         0.01922992
         0.01932318
         0.019415725
         0.019507568
         0.019598726
         0.019689212
         0.019779034
         0.01986821
         0.01995675
         0.020044666
         0.02013197
         0.020218672
         0.020304782
         0.020390313
         0.020475274
         0.020559674
         0.020643523
         0.02072683
         0.020809606
         0.020891858
         0.020973595
         0.021054825
         0.021135557
         0.0212158
         0.021295559
         0.021374842
         0.02145366
         0.021532014
         0.021609917
         0.021687372
         0.021764388
         0.02184097
         0.021917123
         0.021992857
         0.022068176
         0.022143085
         0.02221759
         0.0222917
         0.022365417
         0.022438746
         0.022511695
         0.022584265
         0.022656467
         0.022728302
         0.022799773
         0.02287089
         0.022941655
         0.023012072
         0.023082145
         0.02315188
         0.02322128
         0.023290351
         0.023359094
         0.023427516
         0.02349562
         0.02356341
         0.023630887
         0.023698058
         0.023764927
         0.023831496
         0.023897767
         0.02396375
         0.02402944
         0.024094842
         0.024159964
         0.024224807
         0.024289371
         0.024353663
         0.024417685
         0.024481438
         0.024544928
         0.024608156
         0.024671124
         0.024733838
         0.024796296
         0.024858505
         0.024920467
         0.024982182
         0.025043653
         0.025104886
         0.025165878
         0.025226636
         0.02528716
         0.025347454
         0.025407521
         0.025467359
         0.025526974
         0.025586367
         0.02564554
         0.025704496
         0.025763234
         0.02582176
         0.025880076
         0.025938181
         0.02599608
         0.026053771
         0.02611126
         0.026168548
         0.026225634
         0.026282523
         0.026339214
         0.026395712
         0.026452018
         0.02650813
         0.026564056
         0.026619792
         0.026675342
         0.026730709
         0.026785892
         0.026840895
         0.026895717
         0.026950361
         0.027004829
         0.02705912
         0.027113238
         0.027167184
         0.027220959
         0.027274566
         0.027328003
         0.027381275
         0.027434379
         0.02748732
         0.0275401
         0.027592719
         0.027645176
         0.027697476
         0.027749617
         0.027801601
         0.027853431
         0.027905108
         0.027956631
         0.028008003
         0.028059226
         0.028110297
         0.028161222
         0.028212
         0.028262632
         0.028313119
         0.028363463
         0.028413663
         0.028463721
         0.028513642
         0.028563421
         0.028613063
         0.028662566
         0.028711934
         0.028761165
         0.028810263
         0.028859226
         0.028908057
         0.028956756
         0.029005324
         0.029053764
         0.029102074
         0.029150257
         0.029198313
         0.029246243
         0.029294046
         0.029341724
         0.02938928
         0.029436713
         0.029484024
         0.029531213
         0.029578282
         0.029625231
         0.029672062
         0.029718775
         0.029765371
         0.029811852
         0.029858215
         0.029904464
         0.029950598
         0.029996619
         0.030042527
         0.030088324
         0.03013401
         0.030179584
         0.03022505
         0.030270405
         0.030315652
         0.030360792
         0.030405825
         0.03045075
         0.030495571
         0.030540286
         0.030584896
         0.030629402
         0.030673806
         0.030718107
         0.030762305
         0.030806404
         0.0308504
         0.030894296
         0.030938093
         0.03098179
         0.031025391
         0.031068891
         0.031112297
         0.031155605
         0.031198816
         0.031241931
         0.031284954
         0.03132788
         0.031370714
         0.031413455
         0.031456098
         0.031498656
         0.031541117
         0.031583488
         0.031625766
         0.03166796
         0.03171006
         0.031752072
         0.031793993
         0.031835828
         0.031877574
         0.031919234
         0.031960804
         0.032002293
         0.03204369
         0.032085005
         0.032126237
         0.032167383
         0.032208443
         0.03224942
         0.032290313
         0.032331128
         0.032371856
         0.032412503
         0.032453068
         0.032493554
         0.032533962
         0.032574285
         0.03261453
         0.032654695
         0.032694783
         0.03273479
         0.03277472
         0.032814573
         0.03285435
         0.032894045
         0.03293367
         0.032973215
         0.033012684
         0.03305208
         0.0330914
         0.033130642
         0.033169813
         0.03320891
         0.033247937
         0.033286884
         0.03332576
         0.033364568
         0.0334033
         0.03344196
         0.03348055
         0.03351907
         0.03355752
         0.033595897
         0.033634204
         0.03367244
         0.03371061
         0.03374871
         0.033786744
         0.033824705
         0.0338626
         0.03390043
         0.033938184
         0.033975877
         0.034013502
         0.034051064
         0.034088556
         0.034125984
         0.034163345
         0.034200642
         0.034237873
         0.03427504
         0.03431214
         0.03434918
         0.034386154
         0.034423064
         0.03445991
         0.034496695
         0.03453342
         0.03457008
         0.034606677
         0.03464321
         0.034679685
         0.0347161
         0.03475245
         0.034788743
         0.03482497
         0.034861144
         0.034897253
         0.034933306
         0.034969296
         0.035005227
         0.0350411
         0.035076916
         0.03511267
         0.03514837
         0.03518401
         0.035219595
         0.03525512
         0.035290588
         0.035325997
         0.035361353
         0.03539665
         0.03543189
         0.035467077
         0.035502207
         0.03553728
         0.035572298
         0.035607263
         0.035642173
         0.035677027
         0.03571183
         0.035746574
         0.035781264
         0.035815902
         0.035850488
         0.03588502
         0.0359195
         0.035953924
         0.035988297
         0.03602262
         0.036056884
         0.0360911
         0.036125265
         0.036159378
         0.036193438
         0.03622745
         0.03626141
         0.036295317
         0.036329173
         0.03636298
         0.03639674
         0.036430445
         0.036464103
         0.03649771
         0.036531266
         0.036564775
         0.036598235
         0.036631647
         0.036665007
         0.036698323
         0.03673159
         0.036764804
         0.036797974
         0.036831096
         0.03686417
         0.036897197
         0.036930177
         0.03696311
         0.036995992
         0.03702883
         0.037061624
         0.03709437
         0.03712707
         0.037159722
         0.03719233
         0.037224893
         0.03725741
         0.03728988
         0.037322305
         0.03735469
         0.037387025
         0.037419315
         0.03745156
         0.037483763
         0.037515923
         0.037548035
         0.037580106
         0.037612133
         0.037644118
         0.037676055
         0.03770795
         0.037739806
         0.037771616
         0.037803385
         0.03783511
         0.03786679
         0.037898432
         0.03793003
         0.037961584
         0.0379931
         0.03802457
         0.038056
         0.03808739
         0.03811874
         0.038150046
         0.038181312
         0.038212534
         0.03824372
         0.038274862
         0.038305964
         0.038337026
         0.03836805
         0.03839903
         0.03842997
         0.038460877
         0.038491737
         0.03852256
         0.038553346
         0.03858409
         0.038614795
         0.03864546
         0.038676087
         0.038706675
         0.038737226
         0.038767736
         0.03879821
         0.038828645
         0.03885904
         0.0388894
         0.03891972
         0.038950004
         0.03898025
         0.039010458
         0.03904063
         0.039070763
         0.039100856
         0.039130915
         0.039160937
         0.039190922
         0.039220873
         0.039250784
         0.03928066
         0.0393105
         0.039340302
         0.03937007
         0.039399803
         0.039429497
         0.039471067
         0.03962716
         0.039782275
         0.039936427
         0.04008964
         0.040241916
         0.040393274
         0.04054373
         0.0406933
         0.040841997
         0.040989835
         0.04113682
         0.04128297
         0.041428298
         0.041572813
         0.04171653
         0.04185946
         0.042001612
         0.042143
         0.04228363
         0.04242352
         0.04256267
         0.0427011
         0.042838816
         0.042975828
         0.043112144
         0.04324777
         0.043382723
         0.043517005
         0.04365063
         0.0437836
         0.04391593
         0.044047624
         0.044178694
         0.04430914
         0.044438977
         0.04456821
         0.044696845
         0.04482489
         0.04495235
         0.045079242
         0.04520556
         0.045331314
         0.045456517
         0.04558117
         0.045705277
         0.04582885
         0.04595189
         0.046074405
         0.0461964
         0.046317887
         0.04643886
         0.046559334
         0.046679314
         0.046798795
         0.046917796
         0.047036316
         0.04715436
         0.04727193
         0.047389034
         0.04750568
         0.04762187
         0.047737606
         0.047852896
         0.04796774
         0.048082147
         0.048196122
         0.048309665
         0.048422787
         0.048535485
         0.048647765
         0.04875963
         0.04887109
         0.048982143
         0.049092796
         0.04920305
         0.04931291
         0.04942238
         0.049531464
         0.049640164
         0.049748484
         0.04985643
         0.049964
         0.050071206
         0.050178044
         0.050284516
         0.05039063
         0.05049639
         0.050601795
         0.05070685
         0.05081156
         0.050915923
         0.051019944
         0.05112363
         0.051226977
         0.051329996
         0.05143268
         0.05154697
         0.051698968
         0.051850256
         0.05200084
         0.05215073
         0.052299935
         0.05244846
         0.05259632
         0.052743513
         0.052890055
         0.053035945
         0.0531812
         0.053325824
         0.05346982
         0.0536132
         0.05375597
         0.053898133
         0.0540397
         0.054180678
         0.05432107
         0.054460883
         0.054600123
         0.0547388
         0.054876916
         0.055014476
         0.05515149
         0.055287965
         0.055423897
         0.0555593
         0.055694178
         0.055828534
         0.055962376
         0.05609571
         0.05622853
         0.05636086
         0.05649269
         0.05662403
         0.056754883
         0.056885257
         0.057015155
         0.05714458
         0.05727354
         0.057402033
         0.05753007
         0.05765765
         0.057784785
         0.05791147
         0.058037713
         0.058163524
         0.058288895
         0.058413837
         0.05853835
         0.058662448
         0.058786124
         0.058909383
         0.05903223
         0.059154674
         0.05927671
         0.05939835
         0.05951959
         0.059640434
         0.05976089
         0.059880957
         0.060000643
         0.06011994
         0.060249068
         0.060402215
         0.060554735
         0.06070665
         0.06085795
         0.061008655
         0.06115877
         0.061308295
         0.06145724
         0.061605606
         0.061753403
         0.06190064
         0.062047318
         0.062193442
         0.06233902
         0.062484052
         0.06262855
         0.06277252
         0.06291596
         0.063058876
         0.06320128
         0.063343175
         0.06348456
         0.06362544
         0.063765824
         0.063905716
         0.064045124
         0.06418404
         0.06432248
         0.06446045
         0.06459794
         0.06473497
         0.064871535
         0.06500764
         0.065143295
         0.0652785
         0.06541325
         0.06554757
         0.06568144
         0.06581488
         0.06594789
         0.066080466
         0.066212624
         0.06634436
         0.066475675
         0.06660658
         0.06673707
         0.06686716
         0.06699684
         0.067126125
         0.067256495
         0.06741186
         0.067566656
         0.06772089
         0.06787456
         0.068027675
         0.06818024
         0.068332255
         0.06848374
         0.06863469
         0.06878511
         0.068935
         0.069084376
         0.06923323
         0.06938158
         0.06952943
         0.069676764
         0.06982361
         0.06996997
         0.07011583
         0.07026121
         0.07040611
         0.07055054
         0.070694484
         0.070837975
         0.070980996
         0.071123555
         0.07126567
         0.07140732
         0.07154853
         0.07168929
         0.07182962
         0.071969494
         0.07210895
         0.07224797
         0.07238656
         0.072524734
         0.07266249
         0.07279982
         0.072936736
         0.07307325
         0.07320935
         0.073356606
         0.07351395
         0.07367075
         0.07382702
         0.07398276
         0.07413798
         0.07429269
         0.07444687
         0.074600555
         0.074753724
         0.074906394
         0.07505857
         0.07521026
         0.07536146
         0.07551217
         0.075662404
         0.07581216
         0.07596145
         0.076110266
         0.07625862
         0.076406516
         0.07655395
         0.07670093
         0.07684747
         0.076993555
         0.077139206
         0.07728442
         0.07742918
         0.07757353
         0.07771744
         0.07786093
         0.078003995
         0.078146644
         0.078288876
         0.07843069
         0.0785721
         0.078728646
         0.07888802
         0.079046875
         0.07920522
         0.07936306
         0.079520404
         0.079677254
         0.07983361
         0.07998947
         0.08014485
         0.08029975
         0.08045417
         0.08060812
         0.080761604
         0.080914624
         0.081067175
         0.08121927
         0.08137092
         0.08152211
         0.081672855
         0.08182315
         0.08197301
         0.08212243
         0.08227142
         0.08241998
         0.08256811
         0.08271582
         0.08286311
         0.08300997
         0.08315643
         0.08330247
         0.08345381
         0.083615504
         0.0837767
         0.08393739
         0.0840976
         0.08425732
         0.08441656
         0.08457532
         0.0847336
         0.084891416
         0.08504875
         0.08520563
         0.085362054
         0.08551801
         0.08567352
         0.08582858
         0.08598319
         0.086137354
         0.086291075
         0.08644437
         0.08659722
         0.08674965
         0.08690165
         0.08705322
         0.087204374
         0.08735511
         0.08750542
         0.087655336
         0.08780601
         0.08796979
         0.088133074
         0.08829588
         0.0884582
         0.08862006
         0.08878144
         0.08894235
         0.0891028
         0.08926279
         0.089422315
         0.08958139
         0.089740016
         0.0898982
         0.090055935
         0.090213224
         0.09037008
         0.0905265
         0.09068249
         0.09083805
         0.09099319
         0.09114791
         0.0913022
         0.09145608
         0.091609545
         0.0917626
         0.09191993
         0.09208541
         0.09225043
         0.09241495
         0.09257902
         0.09274263
         0.092905775
         0.093068466
         0.093230695
         0.09339248
         0.09355381
         0.09371471
         0.09387516
         0.09403517
         0.09419475
         0.09435389
         0.09451261
         0.09467091
         0.09482878
         0.09498623
         0.095143266
         0.09529989
         0.0954561
         0.0956119
         0.095775634
         0.09594269
         0.096109286
         0.09627541
         0.09644109
         0.096606314
         0.09677108
         0.0969354
         0.09709928
         0.09726271
         0.097425714
         0.09758828
         0.09775041
         0.09791211
         0.098073386
         0.098234236
         0.09839467
         0.09855468
         0.098714285
         0.098873466
         0.099032246
         0.099190615
         0.09935681
         0.099525474
         0.09969369
         0.09986145
         0.10002877
         0.10019563
         0.10036205
         0.10052803
         0.100693576
         0.10085868
         0.10102336
         0.10118761
         0.10135143
         0.10151484
         0.10167781
         0.101840384
         0.10200253
         0.102164276
         0.1023256
         0.10248653
         0.10264949
         0.10281993
         0.10298992
         0.10315947
         0.10332857
         0.10349723
         0.10366545
         0.10383324
         0.10400059
         0.10416751
         0.10433401
         0.104500085
         0.104665734
         0.104830965
         0.10499578
         0.10516019
         0.10532418
         0.10548777
         0.10565095
         0.10581373
         0.10598554
         0.10615711
         0.10632825
         0.10649895
         0.10666921
         0.10683904
         0.10700843
         0.1071774
         0.10734594
         0.10751406
         0.10768176
         0.10784905
         0.10801591
         0.10818237
         0.10834842
         0.10851406
         0.1086793
         0.10884414
         0.10901583
         0.109188884
         0.1093615
         0.10953368
         0.109705426
         0.10987675
         0.110047646
         0.11021811
         0.11038816
         0.11055779
         0.110727005
         0.110895805
         0.111064196
         0.111232184
         0.11139976
         0.111566946
         0.11173372
         0.11190499
         0.11207948
         0.112253524
         0.112427145
         0.112600334
         0.1127731
         0.112945445
         0.11311737
         0.11328887
         0.11345996
         0.11363064
         0.113800906
         0.11397077
         0.114140235
         0.11430929
         0.11447795
         0.11464774
         0.114823654
         0.11499914
         0.1151742
         0.11534884
         0.11552304
         0.11569685
         0.11587022
         0.11604318
         0.116215736
         0.116387874
         0.11655962
         0.11673095
         0.116901875
         0.11707241
         0.117242545
         0.117416516
         0.11759349
         0.11777004
         0.11794616
         0.11812187
         0.11829717
         0.11847204
         0.1186465
         0.118820556
         0.1189942
         0.11916744
         0.119340286
         0.11951273
         0.11968477
         0.11985642
         0.12003199
         0.1202101
         0.12038781
         0.12056509
         0.120741956
         0.120918415
         0.12109445
         0.12127008
         0.12144531
         0.12162013
         0.12179456
         0.12196858
         0.12214221
         0.12231544
         0.122489974
         0.12266936
         0.12284834
         0.123026885
         0.12320503
         0.123382755
         0.12356008
         0.12373699
         0.1239135
         0.12408961
         0.12426531
         0.12444064
         0.12461555
         0.12479008
         0.12496721
         0.12514758
         0.12532756
         0.1255071
         0.12568624
         0.12586498
         0.1260433
         0.12622124
         0.12639877
         0.1265759
         0.12675263
         0.12692897
         0.12710491
         0.12728152
         0.12746306
         0.12764418
         0.12782489
         0.12800519
         0.1281851
         0.12836458
         0.12854367
         0.12872237
         0.12890068
         0.12907858
         0.12925608
         0.12943321
         0.12961207
         0.12979454
         0.12997659
         0.13015823
         0.13033947
         0.1305203
         0.13070075
         0.13088079
         0.13106044
         0.13123968
         0.13141854
         0.13159701
         0.1317751
         0.13195843
         0.1321416
         0.13232438
         0.13250676
         0.13268872
         0.13287029
         0.13305147
         0.13323225
         0.13341263
         0.13359264
         0.13377224
         0.13395147
         0.1341358
         0.13431992
         0.13450363
         0.13468693
         0.13486986
         0.13505237
         0.13523449
         0.13541622
         0.13559757
         0.13577853
         0.13595909
         0.13614117
         0.13632645
         0.13651131
         0.13669577
         0.13687985
         0.13706353
         0.13724682
         0.13742971
         0.13761221
         0.13779433
         0.13797607
         0.13815777
         0.13834402
         0.1385299
         0.13871536
         0.13890043
         0.13908511
         0.1392694
         0.13945329
         0.13963681
         0.13981993
         0.14000267
         0.14018558
         0.1403727
         0.14055939
         0.1407457
