ocio-configs/luts/eotf_shaper_gamma40_to_bt1886.spi1d
Version 1
From 0.000000 1.000000
Length 4096
Components 1
{
         0.0
         0.002323084
         0.0031009454
         0.0036716855
         0.0041392655
         0.0045425785
         0.004901112
         0.0052262372
         0.005525256
         0.0058031795
         0.006063615
         0.006309262
         0.0065421993
         0.0067640683
         0.0069761896
         0.007179645
         0.007375332
         0.007564008
         0.007746315
         0.007922805
         0.008093955
         0.008260182
         0.008421854
         0.008579293
         0.008732788
         0.008882596
         0.009028948
         0.009172051
         0.009312096
         0.009449252
         0.009583676
         0.0097155105
         0.009844887
         0.009971926
         0.010096739
         0.010219429
         0.01034009
         0.010458811
         0.010575675
         0.010690759
         0.0108041335
         0.010915866
         0.011026021
         0.011134655
         0.011241826
         0.011347585
         0.011451983
         0.0115550645
         0.011656874
         0.011757454
         0.011856844
         0.011955081
         0.0120522
         0.012148235
         0.01224322
         0.012337184
         0.012430157
         0.012522166
         0.012613238
         0.012703399
         0.012792672
         0.0128810825
         0.012968651
         0.013055399
         0.013141348
         0.013226517
         0.013310925
         0.01339459
         0.013477529
         0.013559761
         0.013641301
         0.013722164
         0.013802364
         0.013881917
         0.013960838
         0.014039138
         0.014116833
         0.0141939325
         0.014270451
         0.014346398
         0.014421787
         0.014496629
         0.014570933
         0.01464471
         0.014717972
         0.014790726
         0.014862982
         0.014934749
         0.015006037
         0.015076855
         0.015147209
         0.01521711
         0.015286563
         0.015355578
         0.01542416
         0.015492319
         0.01556006
         0.015627392
         0.015694318
         0.015760848
         0.015826987
         0.015892742
         0.015958117
         0.01602312
         0.016087756
         0.01615203
         0.016215948
         0.016279517
         0.016342739
         0.01640562
         0.016468165
         0.01653038
         0.016592268
         0.016653836
         0.016715085
         0.016776023
         0.016836653
         0.016896978
         0.016957004
         0.017016731
         0.017076168
         0.017135318
         0.017194182
         0.017252766
         0.017311072
         0.017369105
         0.017426867
         0.017484363
         0.017541595
         0.017598568
         0.017655281
         0.017711742
         0.017767953
         0.017823914
         0.017879631
         0.017935108
         0.017990343
         0.018045343
         0.018100109
         0.018154645
         0.018208953
         0.018263033
         0.018316891
         0.018370528
         0.018423945
         0.018477147
         0.018530136
         0.018582914
         0.018635483
         0.018687844
         0.018740002
         0.018791957
         0.01884371
         0.018895267
         0.018946627
         0.018997792
         0.019048765
         0.019099548
         0.019150143
         0.019200552
         0.019250777
         0.019300818
         0.019350678
         0.019400358
         0.019449862
         0.01949919
         0.019548343
         0.019597325
         0.019646134
         0.019694775
         0.01974325
         0.019791557
         0.0198397
         0.01988768
         0.019935498
         0.019983158
         0.020030657
         0.020078
         0.020125186
         0.02017222
         0.020219099
         0.020265827
         0.020312404
         0.020358833
         0.020405114
         0.020451248
         0.020497236
         0.020543082
         0.020588784
         0.020634344
         0.020679764
         0.020725045
         0.020770188
         0.020815194
         0.020860065
         0.0209048
         0.020949401
         0.02099387
         0.021038208
         0.021082416
         0.021126494
         0.021170443
         0.021214265
         0.021257961
         0.02130153
         0.021344976
         0.0213883
         0.0214315
         0.021474577
         0.021517536
         0.021560375
         0.021603093
         0.021645695
         0.021688178
         0.021730546
         0.0217728
         0.021814937
         0.021856962
         0.021898873
         0.021940675
         0.021982362
         0.02202394
         0.022065409
         0.022106769
         0.02214802
         0.022189165
         0.022230202
         0.022271136
         0.022311961
         0.022352684
         0.022393305
         0.02243382
         0.022474235
         0.022514548
         0.022554759
         0.022594871
         0.022634882
         0.022674797
         0.022714611
         0.02275433
         0.02279395
         0.022833476
         0.022872904
         0.02291224
         0.02295148
         0.022990625
         0.02302968
         0.02306864
         0.023107508
         0.023146287
         0.023184972
         0.02322357
         0.023262076
         0.023300495
         0.023338825
         0.023377065
         0.023415219
         0.023453288
         0.023491267
         0.023529163
         0.023566972
         0.023604698
         0.023642339
         0.023679897
         0.023717372
         0.023754762
         0.023792071
         0.0238293
         0.023866445
         0.023903511
         0.023940496
         0.0239774
         0.024014227
         0.024050975
         0.024087643
         0.024124235
         0.024160746
         0.024197184
         0.024233542
         0.024269827
         0.024306035
         0.024342166
         0.024378223
         0.024414206
         0.024450116
         0.02448595
         0.024521712
         0.0245574
         0.024593016
         0.024628561
         0.024664033
         0.024699435
         0.024734765
         0.024770025
         0.024805214
         0.024840334
         0.024875386
         0.024910366
         0.02494528
         0.024980124
         0.025014902
         0.02504961
         0.025084252
         0.025118828
         0.025153335
         0.025187777
         0.025222154
         0.025256466
         0.025290713
         0.025324894
         0.02535901
         0.025393063
         0.02542705
         0.025460977
         0.02549484
         0.025528638
         0.025562376
         0.02559605
         0.025629662
         0.025663214
         0.025696704
         0.025730133
         0.0257635
         0.025796808
         0.025830057
         0.025863243
         0.025896372
         0.025929442
         0.025962451
         0.025995402
         0.026028296
         0.02606113
         0.026093908
         0.026126627
         0.02615929
         0.026191896
         0.026224444
         0.026256936
         0.026289372
         0.026321752
         0.026354076
         0.026386345
         0.02641856
         0.026450718
         0.026482822
         0.026514873
         0.026546868
         0.02657881
         0.026610699
         0.026642533
         0.026674315
         0.026706044
         0.02673772
         0.026769344
         0.026800914
         0.026832433
         0.026863901
         0.026895318
         0.026926681
         0.026957996
         0.026989259
         0.027020471
         0.027051633
         0.027082745
         0.027113806
         0.02714482
         0.02717578
         0.027206695
         0.027237559
         0.027268374
         0.02729914
         0.027329858
         0.027360529
         0.02739115
         0.027421724
         0.02745225
         0.02748273
         0.02751316
         0.027543545
         0.027573882
         0.027604174
         0.027634418
         0.027664617
         0.02769477
         0.027724875
         0.027754935
         0.027784951
         0.027814921
         0.027844844
         0.027874725
         0.027904559
         0.02793435
         0.027964095
         0.027993796
         0.028023455
         0.028053068
         0.028082639
         0.028112166
         0.028141648
         0.028171089
         0.028200485
         0.028229838
         0.02825915
         0.028288418
         0.028317645
         0.028346831
         0.028375972
         0.028405074
         0.028434133
         0.02846315
         0.028492127
         0.028521061
         0.028549954
         0.028578807
         0.02860762
         0.02863639
         0.028665122
         0.028693814
         0.028722463
         0.028751075
         0.028779646
         0.028808178
         0.02883667
         0.028865121
         0.028893536
         0.02892191
         0.028950244
         0.028978541
         0.0290068
         0.029035019
         0.0290632
         0.029091343
         0.029119449
         0.029147515
         0.029175544
         0.029203536
         0.029231489
         0.029259406
         0.029287286
         0.029315127
         0.029342933
         0.029370701
         0.029398434
         0.029426128
         0.029453788
         0.02948141
         0.029508997
         0.029536545
         0.02956406
         0.029591538
         0.029618982
         0.02964639
         0.02967376
         0.029701097
         0.029728398
         0.029755665
         0.029782897
         0.029810093
         0.029837254
         0.029864382
         0.029891474
         0.029918533
         0.029945558
         0.029972548
         0.029999504
         0.030026427
         0.030053316
         0.03008017
         0.030106992
         0.03013378
         0.030160533
         0.030187255
         0.030213945
         0.030240599
         0.030267222
         0.030293811
         0.030320369
         0.030346893
         0.030373385
         0.030399846
         0.030426273
         0.030452669
         0.030479033
         0.030505365
         0.030531665
         0.030557932
         0.03058417
         0.030610375
         0.030636549
         0.030662691
         0.030688804
         0.030714883
         0.030740933
         0.03076695
         0.030792939
         0.030818896
         0.030844823
         0.030870719
         0.030896585
         0.03092242
         0.030948225
         0.030974
         0.030999746
         0.03102546
         0.031051146
         0.031076802
         0.031102428
         0.031128025
         0.031153591
         0.03117913
         0.031204639
         0.031230118
         0.031265788
         0.03139976
         0.031532932
         0.031665325
         0.031796947
         0.031927813
         0.032057926
         0.03218731
         0.032315966
         0.03244391
         0.03257115
         0.032697704
         0.03282357
         0.032948762
         0.033073295
         0.033197176
         0.033320412
         0.033443015
         0.03356499
         0.033686347
         0.033807095
         0.033927243
         0.0340468
         0.03416577
         0.034284163
         0.034401987
         0.034519248
         0.034635954
         0.034752112
         0.03486773
         0.03498281
         0.035097368
         0.035211403
         0.035324924
         0.035437934
         0.03555044
         0.035662457
         0.035773978
         0.035885014
         0.035995573
         0.03610566
         0.036215276
         0.03632443
         0.03643313
         0.036541373
         0.03664917
         0.036756527
         0.036863446
         0.036969934
         0.037075993
         0.03718163
         0.037286848
         0.037391648
         0.037496045
         0.03760003
         0.03770362
         0.03780681
         0.037909605
         0.038012017
         0.038114037
         0.038215682
         0.03831695
         0.038417842
         0.038518365
         0.03861852
         0.038718317
         0.038817752
         0.038916834
         0.03901556
         0.039113943
         0.039211977
         0.03930967
         0.039407022
         0.039504044
         0.03960073
         0.03969709
         0.03979312
         0.039888825
         0.03998421
         0.04007928
         0.040174037
         0.04026848
         0.04036261
         0.04045644
         0.040549964
         0.040643185
         0.04073611
         0.04082874
         0.040921077
         0.041013118
         0.041104876
         0.041196346
         0.041287534
         0.04137844
         0.041469064
         0.041559417
         0.041649494
         0.04174976
         0.041883145
         0.04201594
         0.042148147
         0.04227978
         0.04241084
         0.042541333
         0.04267127
         0.042800654
         0.042929497
         0.043057796
         0.043185566
         0.043312807
         0.043439526
         0.04356573
         0.043691423
         0.04381661
         0.043941308
         0.044065505
         0.044189215
         0.04431244
         0.044435192
         0.044557467
         0.044679273
         0.04480062
         0.044921506
         0.04504194
         0.045161925
         0.045281462
         0.04540056
         0.045519225
         0.04563746
         0.045755263
         0.04587264
         0.045989603
         0.046106152
         0.04622229
         0.046338018
         0.046453346
         0.04656827
         0.0466828
         0.04679694
         0.04691069
         0.047024056
         0.04713704
         0.04724965
         0.047361877
         0.04747374
         0.047585234
         0.04769636
         0.047807127
         0.047917537
         0.04802759
         0.048137292
         0.04824665
         0.048355654
         0.048464317
         0.04857264
         0.04868063
         0.04878828
         0.048895605
         0.049002595
         0.049109265
         0.049215607
         0.049321625
         0.049436398
         0.049572542
         0.049708165
         0.04984327
         0.049977865
         0.050111957
         0.050245546
         0.05037864
         0.050511245
         0.050643362
         0.050775
         0.050906163
         0.05103685
         0.051167075
         0.051296834
         0.051426135
         0.051554985
         0.051683385
         0.05181134
         0.051938854
         0.05206593
         0.052192576
         0.052318793
         0.05244458
         0.05256995
         0.052694906
         0.052819446
         0.052943572
         0.053067297
         0.05319062
         0.05331354
         0.053436067
         0.0535582
         0.053679943
         0.053801306
         0.053922284
         0.054042883
         0.054163106
         0.054282956
         0.05440244
         0.054521553
         0.054640308
         0.0547587
         0.054876734
         0.054994415
         0.055111747
         0.055228725
         0.05534536
         0.055461653
         0.055577602
         0.05569455
         0.055833943
         0.055972848
         0.056111276
         0.056249224
         0.0563867
         0.05652371
         0.056660254
         0.056796342
         0.056931973
         0.057067156
         0.05720189
         0.05733618
         0.05747003
         0.05760345
         0.057736438
         0.05786899
         0.058001127
         0.058132842
         0.05826414
         0.058395024
         0.058525503
         0.05865557
         0.058785237
         0.05891451
         0.059043378
         0.05917186
         0.05929995
         0.059427653
         0.059554975
         0.05968192
         0.05980848
         0.05993467
         0.06006049
         0.06018594
         0.060311027
         0.060435753
         0.06056012
         0.060684126
         0.06080778
         0.060931083
         0.06105404
         0.06118709
         0.061329275
         0.061471
         0.061612274
         0.06175309
         0.06189346
         0.06203339
         0.06217287
         0.06231192
         0.06245054
         0.06258872
         0.06272648
         0.06286383
         0.063000746
         0.06313725
         0.06327334
         0.06340902
         0.0635443
         0.06367917
         0.06381366
         0.06394774
         0.06408143
         0.06421473
         0.06434764
         0.06448017
         0.06461232
         0.0647441
         0.0648755
         0.065006524
         0.065137185
         0.06526747
         0.065397404
         0.06552698
         0.065656185
         0.06578504
         0.06591355
         0.06605583
         0.066200696
         0.066345125
         0.066489115
         0.06663267
         0.0667758
         0.06691849
         0.06706077
         0.06720261
         0.06734405
         0.067485064
         0.06762567
         0.06776587
         0.06790566
         0.06804505
         0.06818404
         0.068322636
         0.068460844
         0.06859866
         0.068736084
         0.06887313
         0.069009796
         0.06914608
         0.06928199
         0.06941753
         0.0695527
         0.0696875
         0.06982194
         0.06995602
         0.070089735
         0.07022309
         0.070361316
         0.07050902
         0.07065628
         0.07080311
         0.070949525
         0.07109552
         0.07124109
         0.07138625
         0.07153099
         0.07167532
         0.07181925
         0.07196278
         0.07210591
         0.07224864
         0.07239097
         0.07253292
         0.07267448
         0.07281566
         0.07295644
         0.07309686
         0.07323689
         0.07337655
         0.07351585
         0.07365476
         0.07379332
         0.073931515
         0.07406934
         0.074206814
         0.074345015
         0.07449525
         0.074645065
         0.07479446
         0.07494343
         0.075091995
         0.07524015
         0.07538789
         0.07553523
         0.07568217
         0.075828716
         0.07597486
         0.07612061
         0.076265976
         0.07641096
         0.07655554
         0.076699756
         0.07684359
         0.07698705
         0.07713013
         0.07727285
         0.07741519
         0.07755717
         0.07769879
         0.077840045
         0.07798094
         0.07812579
         0.07827818
         0.078430146
         0.07858169
         0.07873284
         0.07888358
         0.07903392
         0.07918386
         0.07933341
         0.079482555
         0.07963131
         0.079779685
         0.079927675
         0.08007527
         0.080222495
         0.08036934
         0.08051582
         0.080661915
         0.08080764
         0.08095301
         0.081098005
         0.08124264
         0.08138692
         0.08153084
         0.0816821
         0.081836455
         0.08199041
         0.082143955
         0.0822971
         0.08244985
         0.0826022
         0.08275417
         0.08290574
         0.08305693
         0.08320773
         0.083358146
         0.083508186
         0.08365785
         0.08380714
         0.083956055
         0.08410461
         0.08425279
         0.08440061
         0.08454807
         0.08469517
         0.08484191
         0.08499591
         0.08515223
         0.085308164
         0.08546369
         0.085618824
         0.08577356
         0.08592791
         0.08608187
         0.08623545
         0.08638865
         0.08654147
         0.086693905
         0.086845964
         0.08699766
         0.08714898
         0.08729994
         0.087450534
         0.08760077
         0.087750636
         0.08790015
         0.08805157
         0.08820997
         0.08836797
         0.088525586
         0.0886828
         0.08883963
         0.08899607
         0.08915213
         0.0893078
         0.08946309
         0.08961802
         0.08977256
         0.089926735
         0.090080544
         0.09023398
         0.090387054
         0.09053977
         0.09069212
         0.09084411
         0.09099575
         0.09115582
         0.0913157
         0.09147519
         0.091634296
         0.09179301
         0.09195134
         0.092109285
         0.09226686
         0.09242406
         0.09258088
         0.09273733
         0.092893414
         0.09304913
         0.09320448
         0.09335948
         0.09351411
         0.09366838
         0.0938223
         0.09398264
         0.09414427
         0.094305515
         0.09446637
         0.09462685
         0.09478695
         0.09494667
         0.09510601
         0.095264986
         0.09542359
         0.095581815
         0.095739685
         0.09589718
         0.09605433
         0.09621111
         0.09636754
         0.09652361
         0.096683905
         0.09684723
         0.097010165
         0.09717272
         0.0973349
         0.097496696
         0.09765812
         0.09781917
         0.09797985
         0.098140165
         0.09830011
         0.09845969
         0.09861892
         0.09877778
         0.09893628
         0.09909443
         0.09925366
         0.099418655
         0.099583276
         0.09974751
         0.09991137
         0.10007485
         0.100237966
         0.1004007
         0.10056307
         0.10072508
         0.10088672
         0.101048
         0.10120892
         0.10136948
         0.10152969
         0.10168953
         0.10185301
         0.10201933
         0.10218527
         0.10235084
         0.10251603
         0.10268085
         0.102845296
         0.10300938
         0.10317309
         0.10333645
         0.10349944
         0.10366208
         0.10382436
         0.103986286
         0.10414786
         0.104313135
         0.10448084
         0.10464817
         0.104815125
         0.10498171
         0.105147935
         0.10531378
         0.10547926
         0.10564438
         0.105809145
         0.10597355
         0.106137596
         0.106301285
         0.10646462
         0.10662921
         0.106798396
         0.1069672
         0.10713564
         0.10730371
         0.10747141
         0.10763874
         0.107805714
         0.107972324
         0.108138576
         0.10830446
         0.10847001
         0.10863519
         0.108800024
         0.10896734
         0.109137736
         0.10930777
         0.10947743
         0.10964672
         0.10981566
         0.10998422
         0.11015242
         0.11032027
         0.11048777
         0.1106549
         0.11082169
         0.11098811
         0.11115519
         0.11132695
         0.111498326
         0.11166935
         0.111839995
         0.112010285
         0.11218021
         0.11234977
         0.11251898
         0.11268784
         0.112856336
         0.11302448
         0.11319228
         0.11336174
         0.11353463
         0.11370716
         0.113879316
         0.11405112
         0.11422255
         0.11439363
         0.114564344
         0.11473471
         0.11490472
         0.115074374
         0.11524369
         0.115412645
         0.1155866
         0.11576044
         0.1159339
         0.11610701
         0.11627975
         0.11645214
         0.11662417
         0.116795845
         0.116967164
         0.11713814
         0.11730876
         0.117479034
         0.117654175
         0.11782914
         0.11800373
         0.11817797
         0.118351854
         0.11852537
         0.11869854
         0.11887135
         0.11904381
         0.11921593
         0.11938769
         0.119560905
         0.11973718
         0.119913094
         0.12008865
         0.120263845
         0.12043869
         0.12061317
         0.1207873
         0.120961085
         0.12113451
         0.1213076
         0.121480666
         0.1216581
         0.12183519
         0.12201191
         0.12218826
         0.122364275
         0.12253992
         0.12271523
