ocio-configs/luts/eotf_shaper_gamma40_to_st2084-1000nits.spi1d
Version 1
From 0.000000 1.000000
Length 4096
Components 1
{
         7.309559e-07
         0.0041418704
         0.006138461
         0.007694179
         0.009012293
         0.010174667
         0.011224463
         0.012188105
         0.013082893
         0.0139208175
         0.0147110615
         0.015460308
         0.016174
         0.016856259
         0.017510785
         0.018140094
         0.018747007
         0.019333323
         0.019901041
         0.020451259
         0.020985706
         0.021505484
         0.02201146
         0.022504538
         0.022985844
         0.023455797
         0.023915196
         0.024364743
         0.024804667
         0.0252359
         0.02565836
         0.02607304
         0.026479997
         0.0268796
         0.027272271
         0.027658226
         0.02803785
         0.02841144
         0.028779048
         0.029141039
         0.029497666
         0.029849065
         0.030195547
         0.030537149
         0.03087392
         0.031206388
         0.031534184
         0.031858183
         0.032177884
         0.032493737
         0.032805566
         0.033113685
         0.033418592
         0.03371982
         0.03401722
         0.034311824
         0.034603007
         0.034891322
         0.03517632
         0.035458397
         0.035737455
         0.036014087
         0.036287855
         0.03655866
         0.03682731
         0.037093
         0.037356555
         0.03761735
         0.037876047
         0.038132392
         0.038386315
         0.03863812
         0.038887747
         0.039135516
         0.039380796
         0.039624292
         0.039865375
         0.04010496
         0.040342413
         0.04057847
         0.040812097
         0.04104404
         0.041274253
         0.041503105
         0.04172953
         0.04195492
         0.042178415
         0.042400178
         0.042620804
         0.04283942
         0.04305661
         0.043272566
         0.043486614
         0.043699354
         0.043910973
         0.044120803
         0.044329453
         0.0445369
         0.04474268
         0.044947207
         0.045150667
         0.045352373
         0.045553192
         0.045752876
         0.045951176
         0.046148073
         0.046344217
         0.046539135
         0.046732582
         0.046924986
         0.047116563
         0.0473066
         0.04749577
         0.04768406
         0.04787098
         0.04805698
         0.048242044
         0.048426155
         0.048609063
         0.048791222
         0.048972145
         0.049152285
         0.049331397
         0.049509462
         0.049686946
         0.049863115
         0.05003843
         0.050213374
         0.050386958
         0.050559897
         0.05073194
         0.050903317
         0.051073268
         0.051242534
         0.05141135
         0.0515792
         0.051746335
         0.051912732
         0.052078135
         0.052242786
         0.05240693
         0.052570038
         0.052732624
         0.052894413
         0.0530554
         0.05321557
         0.05337518
         0.053534213
         0.053692147
         0.053849753
         0.0540065
         0.054162372
         0.054317895
         0.054473065
         0.054627072
         0.054780442
         0.054933164
         0.055085503
         0.05523718
         0.05538819
         0.055538524
         0.055687904
         0.055837408
         0.05598567
         0.056133777
         0.056280896
         0.056428123
         0.056574073
         0.056719843
         0.056864876
         0.057009723
         0.05715326
         0.057296593
         0.057439726
         0.057581805
         0.05772395
         0.057865318
         0.05800589
         0.058145955
         0.0582855
         0.058425095
         0.05856359
         0.058701836
         0.058839545
         0.058976714
         0.05911333
         0.059249397
         0.059385482
         0.059520423
         0.05965538
         0.059789766
         0.059923865
         0.060056802
         0.06019032
         0.06032266
         0.060454704
         0.060586147
         0.060717277
         0.0608481
         0.06097831
         0.061108194
         0.06123776
         0.0613667
         0.061495308
         0.06162358
         0.06175122
         0.061878514
         0.062005468
         0.062132068
         0.06225832
         0.062383916
         0.062509455
         0.06263403
         0.062758535
         0.06288298
         0.06300645
         0.063130155
         0.063252866
         0.06337551
         0.06349807
         0.06361994
         0.06374142
         0.06386282
         0.06398383
         0.06410351
         0.06422371
         0.064343825
         0.06446353
         0.06458252
         0.064701095
         0.06481893
         0.06493699
         0.06505526
         0.06517184
         0.06528894
         0.06540561
         0.065522164
         0.065637656
         0.06575398
         0.065868594
         0.06598404
         0.06609937
         0.0662136
         0.06632771
         0.066441044
         0.0665549
         0.06666699
         0.06678025
         0.06689304
         0.06700505
         0.067116916
         0.067228965
         0.06734022
         0.06745099
         0.06756163
         0.06767243
         0.06778177
         0.06789195
         0.06800197
         0.06811051
         0.06822021
         0.068329096
         0.06843716
         0.068545386
         0.06865278
         0.06876134
         0.06886806
         0.06897562
         0.069082
         0.06918854
         0.069294915
         0.06940111
         0.06950678
         0.069611944
         0.069716915
         0.06982239
         0.06992734
         0.070032105
         0.070136
         0.07024006
         0.07034358
         0.07044656
         0.07055004
         0.07065332
         0.07075538
         0.07085861
         0.070959926
         0.07106242
         0.07116403
         0.07126577
         0.07136627
         0.0714683
         0.07156874
         0.07166932
         0.071769334
         0.07186844
         0.071969435
         0.07206917
         0.072168335
         0.07226764
         0.07236637
         0.07246523
         0.07256388
         0.07266196
         0.07276016
         0.07285779
         0.07295483
         0.073053434
         0.07315038
         0.07324675
         0.07334395
         0.07344057
         0.07353624
         0.073633105
         0.07372938
         0.07382471
         0.07392052
         0.07401609
         0.074110694
         0.07420543
         0.07429992
         0.07439489
         0.07448925
         0.07458301
         0.07467652
         0.07477015
         0.07486426
         0.07495776
         0.075050645
         0.07514291
         0.07523602
         0.07532888
         0.07542112
         0.07551274
         0.07560594
         0.075697035
         0.07578862
         0.0758792
         0.075971
         0.07606291
         0.076153815
         0.07624335
         0.0763341
         0.076424584
         0.076514065
         0.07660439
         0.07669482
         0.07678386
         0.07687376
         0.076963
         0.07705198
         0.07714068
         0.07722949
         0.07731802
         0.07740628
         0.07749463
         0.07758308
         0.077670135
         0.07775878
         0.07784527
         0.07793298
         0.078020416
         0.078107946
         0.07819406
         0.078281015
         0.078366935
         0.078453705
         0.07853981
         0.07862601
         0.0787123
         0.078797534
         0.078883246
         0.07896867
         0.07905341
         0.07913863
         0.079224706
         0.07930818
         0.07939329
         0.079477325
         0.07956145
         0.07964604
         0.07972996
         0.07981435
         0.07989844
         0.07998223
         0.08006455
         0.08014773
         0.080230996
         0.08031396
         0.08039701
         0.08047975
         0.08056258
         0.0806451
         0.080726914
         0.08080843
         0.080890805
         0.080972865
         0.081055015
         0.081135675
         0.08121759
         0.08129919
         0.0813793
         0.081461065
         0.081541725
         0.081622064
         0.08170288
         0.08178378
         0.08186276
         0.081944615
         0.082023755
         0.08210377
         0.08218306
         0.08226283
         0.08234188
         0.0824214
         0.082500994
         0.082579866
         0.082659215
         0.082738236
         0.08281653
         0.08289409
         0.08297333
         0.083051436
         0.08312922
         0.08320707
         0.08328499
         0.08336298
         0.08344105
         0.083517976
         0.083596185
         0.083672844
         0.08375079
         0.08382718
         0.08390446
         0.08398017
         0.084057584
         0.08413385
         0.08420977
         0.08428657
         0.084363036
         0.084439576
         0.084514536
         0.08458997
         0.084666714
         0.084741466
         0.084817514
         0.08489281
         0.08496858
         0.085042775
         0.085117854
         0.08519258
         0.08526738
         0.08534224
         0.08541676
         0.08549133
         0.08556514
         0.08563943
         0.0857142
         0.08578779
         0.08586102
         0.085935146
         0.0860085
         0.0860815
         0.08615581
         0.08622894
         0.0863017
         0.08637536
         0.08644825
         0.08652078
         0.086593375
         0.08666644
         0.086738735
         0.08681108
         0.08688391
         0.08695638
         0.08702765
         0.08709939
         0.087170765
         0.08724347
         0.08731496
         0.08738694
         0.08745771
         0.0875298
         0.08760068
         0.08767204
         0.08774345
         0.08781365
         0.08788433
         0.087955065
         0.088026285
         0.08809713
         0.08816675
         0.088237286
         0.08830787
         0.08837809
         0.08844835
         0.0885174
         0.08858863
         0.08865649
         0.08872784
         0.088796236
         0.088865966
         0.08893576
         0.08900517
         0.089073345
         0.089142434
         0.08921244
         0.08928034
         0.08934958
         0.08941888
         0.08948607
         0.08955547
         0.08965099
         0.09001008
         0.09036752
         0.090722844
         0.09107425
         0.09142435
         0.09177222
         0.09211649
         0.09245934
         0.09279897
         0.09313666
         0.09347285
         0.09380571
         0.09413881
         0.09446714
         0.094794765
         0.09511982
         0.09544275
         0.095764436
         0.09608348
         0.09640123
         0.09671675
         0.09702952
         0.09734141
         0.09765146
         0.09795915
         0.09826544
         0.09856885
         0.09887127
         0.099172205
         0.09947115
         0.09976955
         0.10006447
         0.10035879
         0.10065105
         0.100942194
         0.10123172
         0.101519115
         0.10180584
         0.10209041
         0.10237328
         0.10265544
         0.10293587
         0.10321557
         0.10349201
         0.10376817
         0.10404255
         0.10431613
         0.104588404
         0.10485884
         0.10512742
         0.10539515
         0.105662026
         0.10592803
         0.10619213
         0.10645328
         0.10671557
         0.10697592
         0.10723482
         0.10749278
         0.10775083
         0.10800479
         0.1082604
         0.10851293
         0.10876498
         0.10901604
         0.10926609
         0.10951564
         0.109762564
         0.11000845
         0.11025381
         0.11049865
         0.11074135
         0.1109835
         0.1112251
         0.11146506
         0.111704454
         0.111942194
         0.112180434
         0.11241645
         0.11265188
         0.11288561
         0.113119274
         0.11335177
         0.11358309
         0.11381323
         0.11404273
         0.11427158
         0.11449867
         0.11472621
         0.11495197
         0.115178175
         0.11540203
         0.11562464
         0.115846545
         0.11606832
         0.11628939
         0.116535634
         0.116860814
         0.11718632
         0.11750989
         0.11783035
         0.118148826
         0.118465856
         0.11878259
         0.119096704
         0.11940876
         0.119719304
         0.12002833
         0.120335825
         0.12064176
         0.12094614
         0.12124892
         0.12155012
         0.12185028
         0.12214764
         0.12244572
         0.122740366
         0.12303453
         0.123326406
         0.123618975
         0.12390684
         0.124194175
         0.124482766
         0.1247678
         0.12505107
         0.12533498
         0.12561648
         0.12589557
         0.12617528
         0.12645318
         0.12672982
         0.12700401
         0.12727816
         0.12755045
         0.12782268
         0.12809241
         0.12836146
         0.12862921
         0.12889625
         0.12916137
         0.12942576
         0.12969069
         0.1299524
         0.13021213
         0.13047235
         0.13073184
         0.13098992
         0.13124663
         0.13150193
         0.13175644
         0.13201016
         0.13226311
         0.1325146
         0.1327653
         0.13301517
         0.13326293
         0.13351052
         0.13375726
         0.13400187
         0.13424757
         0.13449241
         0.1347546
         0.1350674
         0.13537766
         0.13568732
         0.1359957
         0.1363015
         0.13660732
         0.13690984
         0.13721238
         0.1375116
         0.1378108
         0.13810864
         0.13840578
         0.13870156
         0.1389946
         0.13928759
         0.13957715
         0.13986664
         0.14015536
         0.14044331
         0.14072914
         0.14101283
         0.14129573
         0.14157781
         0.1418584
         0.14213887
         0.14241643
         0.14269386
         0.14296974
         0.14324616
         0.14351827
         0.14379159
         0.14406262
         0.14433278
         0.14460275
         0.14487043
         0.14513789
         0.14540304
         0.14566937
         0.14593196
         0.14619431
         0.14645714
         0.14671761
         0.1469764
         0.14723565
         0.14749321
         0.14774981
         0.14800471
         0.14826074
         0.14851293
         0.14876913
         0.14907312
         0.149377
         0.14967717
         0.14997867
         0.15027714
         0.15057474
         0.15087076
         0.15116735
         0.15146013
         0.15175349
         0.152043
         0.1523338
         0.15262221
         0.15290968
         0.15319622
         0.15348032
         0.15376422
         0.15404715
         0.15432835
         0.15460858
         0.15488783
         0.15516533
         0.15544257
         0.15571806
         0.15599327
         0.15626672
         0.15653913
         0.15680973
         0.15708005
         0.15734857
         0.15761752
         0.15788467
         0.15815073
         0.1584157
         0.15867884
         0.15894164
         0.15920487
         0.15946622
         0.15972646
         0.15998481
         0.16024281
         0.16052206
         0.16081958
         0.1611161
         0.1614116
         0.1617053
         0.16199797
         0.1622904
         0.16258019
         0.16286974
         0.16315743
         0.16344483
         0.1637296
         0.16401564
         0.16429743
         0.16458048
         0.16486086
         0.16514091
         0.16541904
         0.16569683
         0.1659735
         0.16624902
         0.16652338
         0.1667974
         0.16706945
         0.16734034
         0.16761084
         0.16788018
         0.16814831
         0.16841444
         0.1686818
         0.16894795
         0.16921207
         0.16947499
         0.16973665
         0.16999874
         0.17025794
         0.1705454
         0.17083909
         0.17113163
         0.17142136
         0.17170994
         0.171999
         0.17228603
         0.1725719
         0.17285573
         0.17314087
         0.17342314
         0.17370503
         0.17398486
         0.17426512
         0.17454165
         0.1748186
         0.17509516
         0.1753713
         0.1756428
         0.17591812
         0.1761896
         0.17646067
         0.1767296
         0.17699893
         0.17726612
         0.1775337
         0.17779997
         0.17806406
         0.1783277
         0.17859171
         0.17885354
         0.1791252
         0.17941453
         0.1797043
         0.1799902
         0.18027656
         0.1805625
         0.18084715
         0.18113051
         0.18141168
         0.18169242
         0.18197185
         0.18225081
         0.18252845
         0.1828065
         0.18308058
         0.18335596
         0.18362908
         0.18390173
         0.184173
         0.1844438
         0.1847132
         0.18498123
         0.18525052
         0.18551664
         0.18578224
         0.18604644
         0.18631099
         0.18657413
         0.18683764
         0.18712398
         0.18740985
         0.18769524
         0.18797836
         0.188261
         0.18854225
         0.18882209
         0.18910235
         0.18938029
         0.18965864
         0.18993375
         0.19020833
         0.19048421
         0.19075684
         0.19102801
         0.19130048
         0.19157058
         0.19184014
         0.19210915
         0.19237669
         0.19264181
         0.1929073
         0.19317316
         0.19343565
         0.1936985
         0.19396915
         0.1942523
         0.19453584
         0.19481793
         0.19509761
         0.1953777
         0.19565628
         0.1959334
         0.19620901
         0.19648501
         0.1967595
         0.19703344
         0.19730584
         0.19757767
         0.19784702
         0.1981177
         0.19838683
         0.19865346
         0.19892046
         0.19918685
         0.19945167
         0.19971588
         0.19997853
         0.2002415
         0.20051734
         0.20079835
         0.20107783
         0.20135769
         0.20163503
         0.20191179
         0.20218796
         0.20246157
         0.20273653
         0.20300893
         0.2032817
         0.2035519
         0.20382245
         0.20409141
         0.20435973
         0.20462742
         0.20489252
         0.20515892
         0.20542371
         0.20568784
         0.20594935
         0.20621218
         0.20648623
         0.20676658
         0.20704234
         0.20731947
         0.20759496
         0.20786983
         0.20814306
         0.20841563
         0.20868857
         0.20895885
         0.20922847
         0.20949744
         0.20976575
         0.21003337
         0.21029831
         0.2105636
         0.2108292
         0.2110921
         0.21135533
         0.21161684
         0.21188276
         0.21215916
         0.21243489
         0.21270996
         0.2129854
         0.21325707
         0.21353014
         0.21380046
         0.21407112
         0.21434212
         0.21460934
         0.21487588
         0.21514376
         0.2154099
         0.21567534
         0.215938
         0.21620098
         0.21646427
         0.2167258
         0.2169866
         0.21726125
         0.21753624
         0.21780948
         0.21807992
         0.21835281
         0.21862286
         0.21889327
         0.21916294
         0.21942979
         0.21969697
         0.21996236
         0.22022806
         0.22049302
         0.22075619
         0.2210186
         0.22128132
         0.22154117
         0.22180344
         0.22207347
         0.22234595
         0.2226177
         0.2228887
         0.22315896
         0.22342634
         0.22369403
         0.22396311
         0.22422929
         0.22449362
         0.22475936
         0.22502431
         0.22528741
         0.22554974
         0.22580913
         0.22607099
         0.22632988
         0.22659667
         0.22686811
         0.2271366
         0.22740759
         0.22767672
         0.22794399
         0.22821046
         0.22847724
         0.22874105
         0.22900516
         0.22926956
         0.22953208
         0.22979379
         0.23005359
         0.23031479
         0.23057406
         0.23083474
         0.23110455
         0.23137356
         0.23164178
         0.2319092
         0.2321747
         0.23244049
         0.23270659
         0.23296852
         0.23323187
         0.23349439
         0.2337572
         0.23401694
         0.23427585
         0.23453616
         0.23479563
         0.23505877
         0.23532669
         0.2355938
         0.23586008
         0.23612551
         0.23639013
         0.23665501
         0.23691908
         0.23718001
         0.23744237
         0.23770161
         0.23796226
         0.23822093
         0.23847985
         0.23873565
         0.2389997
         0.23926634
         0.23953098
         0.23979706
         0.24006113
         0.24032433
         0.24058783
         0.2408493
         0.24111106
         0.24137078
         0.24162847
         0.24188875
         0.24214582
         0.242402
         0.24266078
         0.2429268
         0.24319196
         0.24345621
         0.24371727
         0.2439821
         0.24424255
         0.24450326
         0.24476425
         0.24502318
         0.24528119
         0.2455383
         0.24579568
         0.24605097
         0.24631123
         0.24657531
         0.24683848
         0.24710076
         0.2473633
         0.24762374
         0.24788447
         0.24814308
         0.24840316
         0.24865992
         0.24891697
         0.24917307
         0.24942824
         0.24968606
         0.24994774
         0.25021088
         0.2504719
         0.25073317
         0.25099233
         0.25125295
         0.25151023
         0.25176656
         0.25202313
         0.2522812
         0.25253588
         0.25278962
         0.25304726
         0.25330997
         0.25357056
         0.2538314
         0.25408882
         0.25434896
         0.25460693
         0.25486395
         0.25512
         0.2553751
         0.2556304
         0.25588354
         0.2561394
         0.25639793
         0.2566604
         0.25691822
         0.25717753
         0.25743467
         0.257692
         0.2579484
         0.2582038
         0.25845945
         0.25871414
         0.25896657
         0.25921926
         0.25947836
         0.25973776
         0.25999615
         0.2602548
         0.26051122
         0.26076788
         0.26102355
         0.26127696
         0.2615306
         0.2617845
         0.26203614
         0.26229054
         0.26255018
         0.26280758
         0.26306394
         0.2633193
         0.26357493
         0.26383078
         0.26408312
         0.2643382
         0.26458973
         0.26484275
         0.2650935
         0.26535207
         0.26560837
         0.2658649
         0.2661204
         0.2663749
         0.26662835
         0.26688203
         0.26713467
         0.26738754
         0.26763812
         0.2678889
         0.26814505
         0.26840144
         0.2686568
         0.2689111
         0.26916435
         0.26941654
         0.26967028
         0.26992166
         0.27017328
         0.27042255
         0.2706759
         0.27093208
         0.27118462
         0.27144
         0.2716943
         0.27194625
         0.27219844
         0.27244824
         0.27269825
         0.27294853
         0.2731977
         0.27345234
         0.27370718
