ocio-configs/luts/eotf_shaper_gamma40_to_st2084-2000nits.spi1d
Version 1
From 0.000000 1.000000
Length 4096
Components 1
{
         7.309559e-07
         0.006138461
         0.009012293
         0.011224463
         0.013082893
         0.0147110615
         0.016174
         0.017510785
         0.018747007
         0.019901041
         0.020985706
         0.02201146
         0.022985844
         0.023915196
         0.024804667
         0.02565836
         0.026479997
         0.027272271
         0.02803785
         0.028779048
         0.029497666
         0.030195547
         0.03087392
         0.031534184
         0.032177884
         0.032805566
         0.033418592
         0.03401722
         0.034603007
         0.03517632
         0.035737455
         0.036287855
         0.03682731
         0.037356555
         0.037876047
         0.038386315
         0.038887747
         0.039380796
         0.039865375
         0.040342413
         0.040812097
         0.041274253
         0.04172953
         0.042178415
         0.042620804
         0.04305661
         0.043486614
         0.043910973
         0.044329453
         0.04474268
         0.045150667
         0.045553192
         0.045951176
         0.046344217
         0.046732582
         0.047116563
         0.04749577
         0.04787098
         0.048242044
         0.048609063
         0.048972145
         0.049331397
         0.049686946
         0.05003843
         0.050386958
         0.05073194
         0.051073268
         0.05141135
         0.051746335
         0.052078135
         0.05240693
         0.052732624
         0.0530554
         0.05337518
         0.053692147
         0.0540065
         0.054317895
         0.054627072
         0.054933164
         0.05523718
         0.055538524
         0.055837408
         0.056133777
         0.056428123
         0.056719843
         0.057009723
         0.057296593
         0.057581805
         0.057865318
         0.058145955
         0.058425095
         0.058701836
         0.058976714
         0.059249397
         0.059520423
         0.059789766
         0.060056802
         0.06032266
         0.060586147
         0.0608481
         0.061108194
         0.0613667
         0.06162358
         0.061878514
         0.062132068
         0.062383916
         0.06263403
         0.06288298
         0.063130155
         0.06337551
         0.06361994
         0.06386282
         0.06410351
         0.064343825
         0.06458252
         0.06481893
         0.06505526
         0.06528894
         0.065522164
         0.06575398
         0.06598404
         0.0662136
         0.066441044
         0.06666699
         0.06689304
         0.067116916
         0.06734022
         0.06756163
         0.06778177
         0.06800197
         0.06822021
         0.06843716
         0.06865278
         0.06886806
         0.069082
         0.069294915
         0.06950678
         0.069716915
         0.06992734
         0.070136
         0.07034358
         0.07055004
         0.07075538
         0.070959926
         0.07116403
         0.07136627
         0.07156874
         0.071769334
         0.071969435
         0.072168335
         0.07236637
         0.07256388
         0.07276016
         0.07295483
         0.07315038
         0.07334395
         0.07353624
         0.07372938
         0.07392052
         0.074110694
         0.07429992
         0.07448925
         0.07467652
         0.07486426
         0.075050645
         0.07523602
         0.07542112
         0.07560594
         0.07578862
         0.075971
         0.076153815
         0.0763341
         0.076514065
         0.07669482
         0.07687376
         0.07705198
         0.07722949
         0.07740628
         0.07758308
         0.07775878
         0.07793298
         0.078107946
         0.078281015
         0.078453705
         0.07862601
         0.078797534
         0.07896867
         0.07913863
         0.07930818
         0.079477325
         0.07964604
         0.07981435
         0.07998223
         0.08014773
         0.08031396
         0.08047975
         0.0806451
         0.08080843
         0.080972865
         0.081135675
         0.08129919
         0.081461065
         0.081622064
         0.08178378
         0.081944615
         0.08210377
         0.08226283
         0.0824214
         0.082579866
         0.082738236
         0.08289409
         0.083051436
         0.08320707
         0.08336298
         0.083517976
         0.083672844
         0.08382718
         0.08398017
         0.08413385
         0.08428657
         0.084439576
         0.08458997
         0.084741466
         0.08489281
         0.085042775
         0.08519258
         0.08534224
         0.08549133
         0.08563943
         0.08578779
         0.085935146
         0.0860815
         0.08622894
         0.08637536
         0.08652078
         0.08666644
         0.08681108
         0.08695638
         0.08709939
         0.08724347
         0.08738694
         0.0875298
         0.08767204
         0.08781365
         0.087955065
         0.08809713
         0.088237286
         0.08837809
         0.0885174
         0.08865649
         0.088796236
         0.08893576
         0.089073345
         0.08921244
         0.08934958
         0.08948607
         0.08962362
         0.089759655
         0.08989632
         0.090031885
         0.09016678
         0.09030274
         0.09043759
         0.09057133
         0.09070482
         0.09083807
         0.09097195
         0.0911047
         0.0912372
         0.09136945
         0.091501
         0.091633186
         0.09176333
         0.09189455
         0.09202551
         0.092156656
         0.092285305
         0.09241502
         0.09254403
         0.0926723
         0.092802115
         0.09292985
         0.09305731
         0.093184486
         0.09331229
         0.09343846
         0.0935657
         0.093692206
         0.093818426
         0.09394345
         0.09406909
         0.09419399
         0.094319046
         0.09444336
         0.09456828
         0.09469017
         0.094814956
         0.09493715
         0.09506043
         0.095183395
         0.09530606
         0.09542796
         0.095550016
         0.09567129
         0.09579226
         0.095914304
         0.096034184
         0.09615467
         0.09627391
         0.096393764
         0.09651376
         0.09663344
         0.0967528
         0.09687043
         0.09698961
         0.09710752
         0.09722557
         0.09734424
         0.09746069
         0.09757775
         0.097694
         0.09781134
         0.09792787
         0.09804454
         0.09815992
         0.09827542
         0.098390594
         0.09850542
         0.0986199
         0.09873451
         0.09885021
         0.09896318
         0.099077225
         0.099190444
         0.099304266
         0.09941678
         0.09953038
         0.099641696
         0.09975459
         0.09986663
         0.09998026
         0.10009013
         0.10020255
         0.10031316
         0.100424364
         0.100535214
         0.10064618
         0.10075678
         0.10086653
         0.10097589
         0.10108588
         0.10119499
         0.101304226
         0.101413086
         0.101521574
         0.10163116
         0.10173839
         0.10184673
         0.10195468
         0.102062754
         0.102170445
         0.10227726
         0.10238368
         0.10249022
         0.102597356
         0.102703616
         0.10280948
         0.10291497
         0.10302155
         0.10312624
         0.10323254
         0.10333795
         0.10344196
         0.10354758
         0.103652306
         0.10375613
         0.10386006
         0.10396358
         0.10406822
         0.10417145
         0.10427477
         0.1043782
         0.10448123
         0.10458284
         0.10468556
         0.104788885
         0.10488977
         0.10499228
         0.10509489
         0.105196066
         0.10529735
         0.10539923
         0.10550019
         0.10560074
         0.105700865
         0.10580108
         0.10590191
         0.10600181
         0.1061018
         0.10620189
         0.106301546
         0.10639976
         0.10649909
         0.10659903
         0.106697
         0.10679712
         0.10689578
         0.106993504
         0.10709183
         0.10718921
         0.10728719
         0.10738474
         0.10748187
         0.10757855
         0.10767637
         0.10777271
         0.10787018
         0.10796669
         0.10806329
         0.10816049
         0.10825621
         0.10835149
         0.10844738
         0.10854283
         0.10863888
         0.108733974
         0.10882967
         0.10892387
         0.109019205
         0.10911304
         0.10920801
         0.10930306
         0.10939661
         0.10949129
         0.109584995
         0.10967825
         0.109772645
         0.109864995
         0.109957956
         0.11005206
         0.11014464
         0.1102373
         0.1103295
         0.110421784
         0.11051521
         0.110606566
         0.11069908
         0.11079006
         0.11088218
         0.11097438
         0.111065045
         0.11115686
         0.11124767
         0.11133909
         0.11143006
         0.11152001
         0.11161111
         0.11170121
         0.11179192
         0.11188217
         0.111970864
         0.11206179
         0.11215117
         0.11224116
         0.11232959
         0.11241863
         0.112508826
         0.112597466
         0.11268617
         0.1127755
         0.11286325
         0.112952165
         0.1130406
         0.113128565
         0.11321659
         0.11330414
         0.1133923
         0.11347998
         0.11356663
         0.1136539
         0.11374123
         0.113829724
         0.11391664
         0.11400307
         0.11408956
         0.11417557
         0.114262745
         0.11434778
         0.114435084
         0.114520244
         0.114606574
         0.11469241
         0.11477887
         0.11486372
         0.11494864
         0.11503418
         0.11511978
         0.11520432
         0.115288936
         0.115373604
         0.11545889
         0.11554313
         0.11562799
         0.1157129
         0.11579676
         0.11588068
         0.1159641
         0.11604758
         0.116132244
         0.11621472
         0.11629894
         0.11638209
         0.11649906
         0.11693646
         0.11736981
         0.117801905
         0.118229285
         0.11865419
         0.11907543
         0.11949526
         0.11991076
         0.12032305
         0.12073265
         0.121140115
         0.12154366
         0.121946186
         0.1223453
         0.12274096
         0.1231361
         0.12352654
         0.123914614
         0.12430029
         0.12468475
         0.12506676
         0.12544508
         0.12582211
         0.12619537
         0.12656853
         0.12693724
         0.12730457
         0.12766987
         0.12803312
         0.12839428
         0.12875211
         0.12910905
         0.12946385
         0.12981647
         0.13016754
         0.13051577
         0.1308624
         0.13120803
         0.13154949
         0.13189183
         0.13222995
         0.13256828
         0.13290298
         0.13323659
         0.13356845
         0.13389856
         0.13422622
         0.13455403
         0.13487937
         0.13520224
         0.13552456
         0.13584436
         0.1361623
         0.13647965
         0.13679509
         0.13710794
         0.1374215
         0.13773179
         0.13804144
         0.13834843
         0.13865544
         0.13896045
         0.1392641
         0.13956505
         0.13986528
         0.14016548
         0.14046226
         0.14075898
         0.1410536
         0.14134747
         0.1416392
         0.14193018
         0.14222105
         0.14250839
         0.14279562
         0.14308274
         0.14336696
         0.14365037
         0.14393155
         0.14421327
         0.14449206
         0.14477208
         0.14504914
         0.14532463
         0.14559993
         0.14587364
         0.14614645
         0.14641906
         0.14668864
         0.14695871
         0.14722644
         0.14749393
         0.14775977
         0.14802536
         0.14828931
         0.14855227
         0.14884506
         0.14923325
         0.14961953
         0.15000466
         0.1503857
         0.15076694
         0.15114406
         0.1515192
         0.15189232
         0.15226416
         0.15263322
         0.15300097
         0.15336588
         0.1537287
         0.15409014
         0.1544502
         0.1548081
         0.1551631
         0.15551664
         0.15586948
         0.15621936
         0.1565685
         0.1569154
         0.15725927
         0.15760237
         0.15794392
         0.15828393
         0.1586216
         0.15895922
         0.15929373
         0.15962662
         0.15995789
         0.16028906
         0.16061783
         0.16094416
         0.16127037
         0.16159257
         0.1619154
         0.16223733
         0.16255596
         0.16287287
         0.16319117
         0.16350615
         0.16381937
         0.16413082
         0.16444206
         0.1647515
         0.16505994
         0.16536656
         0.16567214
         0.16597669
         0.1662802
         0.16658024
         0.16688082
         0.16718033
         0.16747795
         0.16777448
         0.16806911
         0.16836426
         0.16865586
         0.16894713
         0.16923729
         0.16952631
         0.16981499
         0.17010172
         0.17041184
         0.17077997
         0.1711456
         0.17150953
         0.17187257
         0.17223306
         0.17259097
         0.1729463
         0.17330152
         0.17365494
         0.17400658
         0.17435642
         0.17470357
         0.17505057
         0.1753949
         0.17573734
         0.17607877
         0.17641914
         0.17675677
         0.17709334
         0.17742883
         0.17776239
         0.17809401
         0.17842452
         0.17875478
         0.1790822
         0.17940849
         0.1797319
         0.18005592
         0.18037789
         0.1806987
         0.1810166
         0.18133591
         0.18164968
         0.18196574
         0.1822797
         0.18259157
         0.18290222
         0.18321338
         0.18352066
         0.18382758
         0.18413411
         0.1844376
         0.18474069
         0.18504341
         0.18534482
         0.18564405
         0.18594374
         0.18624124
         0.18653563
         0.18683405
         0.18718956
         0.18754303
         0.18789446
         0.18824564
         0.18859383
         0.18894176
         0.1892867
         0.18962951
         0.18997203
         0.19031334
         0.19065158
         0.19098951
         0.19132435
         0.1916607
         0.19199395
         0.19232592
         0.19265568
         0.19298415
         0.19331224
         0.1936381
         0.19396171
         0.19428585
         0.19460586
         0.19492732
         0.19524743
         0.19556431
         0.1958817
         0.19619678
         0.19651046
         0.19682275
         0.19713365
         0.19744408
         0.19775404
         0.19806163
         0.1983678
         0.19867252
         0.19897771
         0.19927953
         0.19957991
         0.19988263
         0.200181
         0.20050387
         0.20085037
         0.20119359
         0.20153643
         0.20187694
         0.20221607
         0.20255382
         0.2028902
         0.2032242
         0.20355678
         0.2038899
         0.20421965
         0.20454894
         0.20487778
         0.20520516
         0.20552912
         0.2058526
         0.2061756
         0.20649712
         0.20681615
         0.20713468
         0.20745268
         0.2077672
         0.20808318
         0.20839565
         0.20870858
         0.20901896
         0.2093288
         0.20963708
         0.2099448
         0.21025196
         0.21055654
         0.21085952
         0.21116091
         0.21146476
         0.21176499
         0.21209612
         0.21243387
         0.21277113
         0.21310587
         0.21343908
         0.21377075
         0.21410292
         0.21443252
         0.21475954
         0.21508603
         0.21541093
         0.21573633
         0.21605806
         0.21637924
         0.2166988
         0.21701883
         0.21733621
         0.217653
         0.21796711
         0.21828273
         0.2185946
         0.21890585
         0.21921755
         0.21952549
         0.2198349
         0.22013946
         0.22044656
         0.22074984
         0.22105354
         0.2213566
         0.22165793
         0.22196925
         0.22230229
         0.22263369
         0.22296344
         0.22329155
         0.22361904
         0.22394487
         0.22426902
         0.22459257
         0.22491656
         0.22523671
         0.22555622
         0.22587511
         0.2261901
         0.2265077
         0.22682357
         0.22713551
         0.22744897
         0.2277596
         0.22806844
         0.22837771
         0.2286852
         0.228992
         0.22929701
         0.22960243
         0.22990493
         0.23020674
         0.23050784
         0.23081042
         0.23113774
         0.23146552
         0.23179044
         0.23211357
         0.23243827
         0.23276007
         0.23308007
         0.23340052
         0.23371692
         0.23403375
         0.23434876
         0.2346653
         0.23497778
         0.23529066
         0.23560058
         0.23590976
         0.23621935
         0.23652706
         0.23683292
         0.23713802
         0.23744237
         0.23774485
         0.23804769
         0.2383475
         0.23864654
         0.2389551
         0.23927894
         0.23960091
         0.23992102
         0.24024156
         0.2405602
         0.24087812
         0.24119414
         0.24150941
         0.24182278
         0.24213655
         0.24244724
         0.24275833
         0.24306633
         0.24337587
         0.24368346
         0.24398793
         0.24429162
         0.24459685
         0.24489778
         0.24520141
         0.24550071
         0.24580155
         0.24609923
         0.2464114
         0.24673106
         0.24704993
         0.24736685
         0.2476818
         0.24799713
         0.24831049
         0.24862188
         0.24893363
         0.24924459
         0.24955235
         0.24986048
         0.2501654
         0.2504719
         0.25077754
         0.25108117
         0.25138155
         0.2516859
         0.25198337
         0.2522836
         0.25258058
         0.2528791
         0.25318888
         0.25350627
         0.25382045
         0.254135
         0.25444752
         0.25475675
         0.25506878
         0.2553763
         0.25568542
         0.25599125
         0.2562974
         0.2566015
         0.25690717
         0.2572083
         0.257511
         0.25781155
         0.25811002
         0.2584088
         0.25870672
         0.25900248
         0.25930104
         0.2596161
         0.2599278
         0.26023862
         0.26054856
         0.26085764
         0.26116458
         0.26147187
         0.261777
         0.26208124
         0.26238456
         0.26268825
         0.26298976
         0.26328912
         0.2635888
         0.26388755
         0.2641841
         0.26448098
         0.26477566
         0.26507068
         0.26538125
         0.2656909
         0.26599962
         0.2663087
         0.26661304
         0.26691774
         0.26722404
         0.26752558
         0.26782873
         0.26812968
         0.26842967
         0.2687287
         0.26902804
         0.2693239
         0.26962003
         0.2699165
         0.27020943
         0.27050266
         0.27080786
         0.27111468
         0.27142054
         0.27172548
         0.27202943
         0.2723324
         0.27263573
         0.27293548
         0.27323556
         0.27353466
         0.27383274
         0.27412856
         0.27442467
         0.27472112
         0.27501523
         0.27530706
         0.27559915
         0.27589816
         0.27620408
         0.2765077
         0.27681166
         0.2771133
         0.2774139
         0.27771354
         0.27801216
         0.2783111
         0.2786077
         0.2789046
         0.2791978
         0.2794913
         0.27978513
         0.2800766
         0.2803697
         0.28066173
         0.28096482
         0.2812669
         0.2815666
         0.2818666
         0.2821656
         0.2824649
         0.2827618
         0.28305766
         0.2833525
         0.2836476
         0.28393897
         0.28423196
         0.28452393
         0.28481343
         0.28510463
         0.28540018
         0.28570014
         0.28599903
         0.28629687
         0.2865964
         0.28689212
         0.28718814
         0.2874817
         0.28777558
         0.28806975
         0.28836146
         0.28865346
         0.28894162
         0.28923145
         0.28951877
         0.28981334
         0.29011095
         0.29040885
         0.29070705
         0.2910014
         0.29129606
         0.2915896
         0.29188204
         0.2921748
         0.292465
         0.2927555
         0.29304352
         0.2933318
         0.29361898
         0.29390922
         0.29420537
         0.29450038
         0.29479572
         0.29508993
         0.29538444
         0.29567638
         0.29596582
         0.29625693
         0.2965455
         0.29683578
         0.2971235
         0.29741007
         0.2976955
         0.29798543
         0.29827994
         0.29857332
         0.29886553
         0.29915804
         0.2994494
         0.29973963
         0.3000301
         0.30031657
         0.30060333
         0.30089176
         0.30117762
         0.3014623
         0.30174723
         0.30203962
         0.30233377
         0.3026253
         0.3029142
         0.30320483
         0.30349287
         0.30378115
         0.30406824
         0.30435562
         0.30464035
         0.3049239
         0.3052077
         0.3054932
         0.30578628
         0.30607527
         0.3063645
         0.30665404
         0.30694088
         0.30722946
         0.30751392
         0.30780157
         0.30808508
         0.30836883
         0.3086514
         0.30893272
         0.30922168
         0.30951238
         0.30980042
         0.3100887
         0.3103743
         0.3106616
         0.31094623
         0.3112311
         0.31151327
         0.31179422
         0.3120769
         0.31235683
         0.31264597
         0.3129324
         0.31322056
         0.313506
         0.3137917
         0.31407467
         0.31435788
         0.31463984
         0.31492355
         0.315203
         0.31548423
         0.3157672
         0.31605193
         0.3163399
         0.31662363
         0.3169091
         0.31719184
         0.31747478
         0.31775647
         0.3180369
         0.31831607
         0.31859848
         0.3188751
         0.31916258
         0.31944424
         0.31972918
         0.32001284
         0.32029524
         0.32057634
         0.32085615
         0.32113776
         0.321415
         0.32169402
         0.32197174
         0.32225582
         0.32254016
         0.32282323
         0.32310346
         0.32338545
         0.32366616
         0.32394555
         0.3242221
         0.3245004
         0.32477587
         0.32505623
         0.32533836
         0.32562074
         0.32590336
         0.32618153
         0.32646152
         0.32673863
         0.32701752
         0.3272951
         0.32756978
         0.3278478
         0.32812765
         0.32840773
         0.32868803
         0.32896855
         0.3292462
         0.32952407
         0.3298006
         0.3300758
