ocio-configs/luts/eotf_shaper_gamma40_to_st2084-108nits.spi1d
Version 1
From 0.000000 1.000000
Length 4096
Components 1
{
         7.309559e-07
         0.00112779
         0.0016968369
         0.002153146
         0.002547753
         0.0029014559
         0.0032253335
         0.0035260785
         0.0038082607
         0.004074905
         0.0043285117
         0.0045707715
         0.004803142
         0.005026841
         0.0052426187
         0.005451392
         0.0056536826
         0.0058501908
         0.0060413107
         0.006227471
         0.0064090085
         0.0065863617
         0.006759617
         0.0069291466
         0.0070951995
         0.007258024
         0.007417559
         0.007574343
         0.0077282144
         0.00787946
         0.008028131
         0.008174505
         0.0083185285
         0.008460281
         0.008599997
         0.0087376265
         0.008873446
         0.009007439
         0.009139508
         0.009269835
         0.009398623
         0.009525805
         0.009651366
         0.009775442
         0.009898134
         0.010019349
         0.010139354
         0.010257863
         0.0103753125
         0.010491373
         0.010606285
         0.010720039
         0.010832678
         0.010944252
         0.011054651
         0.011164148
         0.011272474
         0.011379969
         0.0114864195
         0.01159195
         0.011696518
         0.0118002
         0.01190319
         0.012005099
         0.012106244
         0.012206714
         0.012306111
         0.012404951
         0.012502961
         0.012600169
         0.012696736
         0.012792509
         0.012887714
         0.012982202
         0.013076009
         0.013169047
         0.013261356
         0.01335331
         0.013444559
         0.013535012
         0.013624916
         0.013714389
         0.013803278
         0.013891564
         0.013979298
         0.014066323
         0.014152969
         0.014239013
         0.01432465
         0.014409723
         0.014494145
         0.014578188
         0.014661694
         0.014744796
         0.014827553
         0.014909513
         0.014991325
         0.015072386
         0.015153203
         0.015233618
         0.015313543
         0.0153929675
         0.015471955
         0.015550572
         0.015628887
         0.015706735
         0.015784107
         0.015861226
         0.01593777
         0.016014202
         0.01608996
         0.016165592
         0.01624069
         0.016315566
         0.016390055
         0.016464062
         0.016537992
         0.01661118
         0.016684357
         0.016757105
         0.0168295
         0.016901704
         0.016973373
         0.01704475
         0.017116
         0.017186694
         0.017257165
         0.017327577
         0.017397327
         0.017466921
         0.017536357
         0.01760537
         0.017674038
         0.017742444
         0.017810846
         0.017878713
         0.017946215
         0.018013611
         0.01808072
         0.01814754
         0.018214062
         0.018280463
         0.018346468
         0.018412255
         0.018477725
         0.018543242
         0.01860816
         0.018672934
         0.018737374
         0.018801847
         0.018865887
         0.01892977
         0.018993301
         0.019056762
         0.019119864
         0.019182699
         0.019245356
         0.019307932
         0.019370131
         0.019432243
         0.019494068
         0.019555606
         0.01961714
         0.019678283
         0.01973942
         0.019800156
         0.019860586
         0.019921102
         0.019981304
         0.020041192
         0.02010106
         0.020160405
         0.020219926
         0.020279117
         0.02033818
         0.020397108
         0.0204556
         0.020514056
         0.02057227
         0.020630443
         0.02068837
         0.020746049
         0.020803578
         0.020860955
         0.020918077
         0.020975247
         0.021031952
         0.0210887
         0.021145081
         0.021201504
         0.021257764
         0.021313747
         0.021369562
         0.021425202
         0.021480775
         0.021536063
         0.021591282
         0.021646423
         0.021701278
         0.021756055
         0.021810537
         0.021864938
         0.021919258
         0.021973493
         0.022027317
         0.022081163
         0.02213492
         0.022188371
         0.022241728
         0.022294993
         0.022348162
         0.022401124
         0.02245399
         0.022506647
         0.022559091
         0.022611432
         0.022663783
         0.022715917
         0.022767719
         0.022819638
         0.022871338
         0.022923037
         0.022974288
         0.023025764
         0.0230769
         0.023127919
         0.023178937
         0.02322972
         0.023280386
         0.023330813
         0.02338135
         0.02343165
         0.023481822
         0.023531754
         0.023581907
         0.023631467
         0.023681363
         0.023730895
         0.023780411
         0.023829678
         0.02387881
         0.023927925
         0.023976903
         0.024025861
         0.024074681
         0.024123242
         0.024171662
         0.024220059
         0.024268432
         0.02431654
         0.024364622
         0.024412679
         0.024460468
         0.024508348
         0.024555838
         0.024603419
         0.024650848
         0.024698121
         0.024745487
         0.024792332
         0.024839507
         0.024886528
         0.024933144
         0.024979971
         0.025026513
         0.025073143
         0.025119362
         0.025165666
         0.025211928
         0.025258029
         0.025303962
         0.025349852
         0.025395574
         0.025441254
         0.02548714
         0.025532478
         0.02557777
         0.02562327
         0.025668468
         0.025713492
         0.025758594
         0.025803521
         0.025848525
         0.025893096
         0.02593787
         0.025982594
         0.026027009
         0.026071372
         0.026115552
         0.026159804
         0.026204132
         0.026248017
         0.026291974
         0.026336005
         0.026379587
         0.026423503
         0.0264671
         0.026510505
         0.026553983
         0.0265974
         0.026640624
         0.026683785
         0.026727017
         0.026769921
         0.026813027
         0.026855804
         0.026898649
         0.026941428
         0.026983878
         0.027026393
         0.02706884
         0.027111353
         0.027153665
         0.027195908
         0.02723795
         0.027280053
         0.027321953
         0.027363917
         0.027405676
         0.02744763
         0.027489243
         0.02753092
         0.027572386
         0.02761378
         0.027655233
         0.027696611
         0.027737644
         0.027779007
         0.027820023
         0.027861098
         0.027901957
         0.02794274
         0.02798358
         0.028024342
         0.028065162
         0.028105764
         0.02814601
         0.02818659
         0.02822695
         0.028267227
         0.028307423
         0.028347535
         0.028387703
         0.028427929
         0.02846779
         0.028507566
         0.028547397
         0.028587142
         0.028626941
         0.028666515
         0.028706001
         0.02874554
         0.028784992
         0.028824355
         0.02886363
         0.028902816
         0.028942054
         0.02898106
         0.029020118
         0.029059084
         0.029098103
         0.029136887
         0.029175434
         0.029214175
         0.029252825
         0.029291525
         0.02933013
         0.029368497
         0.029406914
         0.029445237
         0.029483609
         0.029521884
         0.029559918
         0.029598
         0.029636132
         0.029674018
         0.0297121
         0.029749792
         0.029787676
         0.029825462
         0.029863149
         0.029900735
         0.029938221
         0.029975902
         0.030013334
         0.03005081
         0.030087892
         0.030125462
         0.030162485
         0.030199701
         0.030236816
         0.030273825
         0.030310731
         0.03034783
         0.030384675
         0.030421715
         0.030458199
         0.030495027
         0.03053175
         0.030568214
         0.030604873
         0.030641275
         0.030677717
         0.030714205
         0.030750582
         0.0307867
         0.030823013
         0.030859064
         0.030895308
         0.03093129
         0.030967467
         0.031003533
         0.031039486
         0.03107533
         0.031111062
         0.031146832
         0.031182645
         0.031218344
         0.031253777
         0.031289402
         0.031325072
         0.03136047
         0.031395752
         0.03143123
         0.03146644
         0.03150184
         0.03153697
         0.03157214
         0.031607196
         0.031642288
         0.031677417
         0.03171243
         0.03174717
         0.0317821
         0.03181692
         0.031851772
         0.031886347
         0.03192112
         0.03195577
         0.03199046
         0.03202487
         0.03205932
         0.03209396
         0.032128327
         0.032162566
         0.032196846
         0.03223132
         0.03226535
         0.03229974
         0.032333683
         0.032367986
         0.03240184
         0.032435894
         0.032469984
         0.032503627
         0.032537624
         0.032571338
         0.032605246
         0.03263887
         0.032672524
         0.032706216
         0.03273978
         0.03277338
         0.032807015
         0.032840196
         0.032873735
         0.032906987
         0.032940432
         0.032973748
         0.033006936
         0.033040155
         0.03307341
         0.033106536
         0.03313953
         0.033172555
         0.033205453
         0.033238545
         0.033271506
         0.033304337
         0.0333372
         0.033370093
         0.033402856
         0.033435322
         0.033468146
         0.03350084
         0.033533398
         0.03356599
         0.03359845
         0.033630937
         0.03366329
         0.033695675
         0.033728093
         0.03376021
         0.033792686
         0.033824697
         0.033857066
         0.033889305
         0.033921406
         0.03395337
         0.03398536
         0.03401722
         0.034049273
         0.034081023
         0.034113135
         0.03414494
         0.034176946
         0.034208644
         0.034240372
         0.03427196
         0.034303747
         0.034335393
         0.03436673
         0.03441109
         0.03457722
         0.0347421
         0.03490587
         0.035068855
         0.03523104
         0.035392225
         0.035552222
         0.035711534
         0.035869617
         0.036027156
         0.036183424
         0.036339115
         0.036494035
         0.036647994
         0.03680097
         0.036952946
         0.037104633
         0.03725511
         0.037404723
         0.037553642
         0.037702035
         0.037849527
         0.03799647
         0.038142294
         0.03828736
         0.03843184
         0.038575914
         0.038718812
         0.038861096
         0.039002936
         0.03914395
         0.039283928
         0.039423626
         0.03956265
         0.039700996
         0.039838843
         0.039975595
         0.04011203
         0.04024774
         0.04038311
         0.040517744
         0.04065182
         0.04078514
         0.040917892
         0.041050065
         0.041181654
         0.041312646
         0.04144324
         0.041573018
         0.041702587
         0.04183133
         0.04195964
         0.04208731
         0.04221454
         0.042341523
         0.04246764
         0.042593293
         0.042718478
         0.04284298
         0.04296742
         0.04309095
         0.043213986
         0.043336947
         0.04345919
         0.04358092
         0.04370213
         0.043822818
         0.04394319
         0.044063244
         0.04418254
         0.044301722
         0.044420134
         0.044538423
         0.044656154
         0.044773314
         0.044890117
         0.045006346
         0.045122426
         0.04523814
         0.04535326
         0.045467783
         0.04558214
         0.045696117
         0.045809705
         0.045922894
         0.046035685
         0.04614785
         0.046259828
         0.046371624
         0.046483006
         0.04659374
         0.04670405
         0.046814162
         0.04692407
         0.047033314
         0.04714212
         0.047263872
         0.047425065
         0.04758564
         0.047745585
         0.04790466
         0.04806261
         0.04822014
         0.048377227
         0.048533164
         0.048688646
         0.048843186
         0.04899702
         0.049150366
         0.049302984
         0.049454864
         0.049606238
         0.049756613
         0.04990646
         0.05005553
         0.050204307
         0.05035254
         0.050499476
         0.05064659
         0.05079239
         0.050938107
         0.05108299
         0.051227033
         0.05137072
         0.051514056
         0.051656526
         0.05179837
         0.05193984
         0.05208068
         0.052221127
         0.052360673
         0.052499816
         0.052638557
         0.05277637
         0.052913766
         0.05305126
         0.053187545
         0.053323656
         0.05345907
         0.053594038
         0.053728558
         0.05386236
         0.053995963
         0.05412884
         0.05426151
         0.054393437
         0.054524884
         0.054655846
         0.054786585
         0.05491656
         0.055046573
         0.055175547
         0.055304546
         0.05543303
         0.05556073
         0.055688176
         0.055815365
         0.055941753
         0.056067873
         0.056193728
         0.056318764
         0.05645453
         0.05661545
         0.056775156
         0.05693448
         0.057093408
         0.05725138
         0.057408664
         0.057565253
         0.0577217
         0.057876877
         0.058031898
         0.058185913
         0.05833948
         0.05849259
         0.058644954
         0.058796566
         0.05894799
         0.05909836
         0.059248243
         0.05939763
         0.059546523
         0.059694327
         0.059842207
         0.059989274
         0.060135823
         0.060282137
         0.06042733
         0.06057228
         0.06071669
         0.060860544
         0.061003845
         0.061146587
         0.061288767
         0.06143067
         0.061571702
         0.06171245
         0.061852913
         0.06199249
         0.062131766
         0.062270444
         0.062408824
         0.062546894
         0.062684044
         0.06282119
         0.062957406
         0.0630933
         0.063229166
         0.06336379
         0.06349807
         0.06363264
         0.063767485
         0.06392843
         0.06408916
         0.064249024
         0.06440867
         0.06456681
         0.06472503
         0.06488204
         0.06503912
         0.06519499
         0.065350905
         0.065505914
         0.06566065
         0.065814145
         0.06596735
         0.066119626
         0.06627192
         0.066423595
         0.066574
         0.06672538
         0.06687515
         0.06702428
         0.06717308
         0.067321554
         0.06746871
         0.067616515
         0.06776365
         0.06790978
         0.06805489
         0.06820065
         0.06834505
         0.06848908
         0.06863309
         0.068776384
         0.06891864
         0.06906118
         0.06920335
         0.069344446
         0.069485836
         0.069625475
         0.06976573
         0.06990525
         0.07005628
         0.070217185
         0.07037812
         0.07053804
         0.07069763
         0.070855856
         0.071014434
         0.07117233
         0.07132918
         0.071484976
         0.07164077
         0.071796894
         0.071951605
         0.072105594
         0.07225991
         0.07241315
         0.07256459
         0.072717756
         0.072869115
         0.07302008
         0.07316993
         0.07332044
         0.07346947
         0.07361844
         0.07376736
         0.07391549
         0.07406391
         0.074210115
         0.07435696
         0.07450373
         0.07464933
         0.07479303
         0.0749381
         0.07508273
         0.07522616
         0.075369865
         0.07552814
         0.07568969
         0.07585084
         0.07600974
         0.07617009
         0.07632928
         0.07648732
         0.07664568
         0.07680325
         0.07696001
         0.077115975
         0.07727149
         0.07742732
         0.07758233
         0.07773614
         0.07789063
         0.07804352
         0.07819595
         0.07834792
         0.078499794
         0.07865082
         0.07880174
         0.07895104
         0.07910138
         0.07925124
         0.07939945
         0.07954717
         0.079694375
         0.07984224
         0.0799896
         0.08013606
         0.080287464
         0.08044969
         0.08061145
         0.080771975
         0.080931626
         0.0810916
         0.081251085
         0.0814101
         0.08156784
         0.08172548
         0.081882626
         0.08203967
         0.08219502
         0.082350664
         0.0825054
         0.08266001
         0.08281411
         0.082967296
         0.08312075
         0.08327328
         0.08342527
         0.083576724
         0.083728045
         0.08387842
         0.084029056
         0.08417792
         0.08432746
         0.084475614
         0.08462526
         0.084787086
         0.084949635
         0.085110836
         0.08527193
         0.08543208
         0.08559128
         0.08575077
         0.0859089
         0.08606773
         0.086225174
         0.086382486
         0.086538404
         0.0866946
         0.086850226
         0.08700571
         0.0871602
         0.087314546
         0.087467454
         0.08762106
         0.0877745
         0.08792651
         0.08807792
         0.08822959
         0.0883798
         0.088530265
         0.08868485
         0.08884745
         0.089009486
         0.089170516
         0.089331836
         0.0894917
         0.08965142
         0.089811854
         0.08996996
         0.09012877
         0.09028611
         0.09044373
         0.09060074
         0.09075713
         0.09091247
         0.091068074
         0.091222614
         0.091376975
         0.09153159
         0.091684245
         0.09183759
         0.09198941
         0.09214193
         0.092293344
         0.09245308
         0.09261532
         0.09277785
         0.0929393
         0.09309968
         0.09326034
         0.09342081
         0.093578845
         0.0937385
         0.09389615
         0.09405543
         0.09421314
         0.094368845
         0.09452479
         0.09468237
         0.094836995
         0.09499233
         0.09514746
         0.09530099
         0.0954543
         0.09560739
         0.095760725
         0.09592173
         0.09608394
         0.096246414
         0.096407294
         0.09656844
         0.09672892
         0.09688966
         0.09704925
         0.097208165
         0.097366385
         0.09752487
         0.097682655
         0.09783975
         0.09799662
         0.09815231
         0.09830825
         0.098463476
         0.09861895
         0.098773226
         0.09892678
         0.09908394
         0.09924614
         0.0994086
         0.099571325
         0.0997319
         0.09989321
         0.10005333
         0.10021274
         0.10037287
         0.10053181
         0.100691475
         0.10084896
         0.10100619
         0.10116366
         0.10132089
         0.10147591
         0.10163165
         0.10178812
         0.101943344
         0.102097325
         0.10226043
         0.10242232
         0.10258545
         0.102746844
         0.10290749
         0.103068896
         0.103229046
         0.10338894
         0.10354758
         0.10370797
         0.10386558
         0.104023434
         0.10418152
         0.10433783
         0.10449437
         0.10465063
         0.10480662
         0.10496182
         0.10512335
         0.105287164
         0.105449185
         0.10561044
         0.10577244
         0.105933666
         0.106092565
         0.10625273
         0.10641262
         0.10657223
         0.10673105
         0.10688906
         0.1070468
         0.107204236
         0.10736087
         0.10751668
         0.10767325
         0.10783316
         0.10799592
         0.1081584
         0.108320594
         0.10848146
         0.108643085
         0.1088039
         0.108963884
         0.10912464
         0.109283514
         0.109441556
         0.10960036
         0.10975779
         0.109916516
         0.11007173
         0.11022878
         0.1103871
         0.11055046
         0.11071245
         0.11087575
         0.111038215
         0.111198224
         0.11135793
         0.11151947
         0.11167855
         0.11184001
         0.11199846
         0.112157665
         0.112315476
         0.11247295
         0.11263011
         0.112787485
         0.112948895
         0.11311053
         0.11327349
         0.11343504
         0.11359681
         0.11375716
         0.11391994
         0.11407965
         0.114239566
         0.114398606
         0.11455842
         0.11471679
         0.11487371
         0.1150314
         0.11518874
         0.1153502
         0.115513
         0.115675464
         0.1158376
         0.11599995
         0.11616085
         0.116321966
         0.11648274
         0.116641484
         0.116801575
         0.11695962
         0.11711787
         0.11727633
         0.11743444
         0.117593326
         0.117756404
         0.11792028
         0.118081525
         0.11824356
         0.11840467
         0.118566
         0.118726395
         0.11888643
         0.119046114
         0.11920543
         0.11936437
         0.11952295
         0.11968058
         0.11984016
         0.12000342
         0.120165735
         0.12032827
         0.12049045
         0.12065166
         0.12081193
         0.12097241
         0.121132515
         0.12129224
         0.12145218
         0.12160939
         0.121767975
         0.12192617
         0.12209106
         0.12225204
         0.12241499
         0.12257758
         0.12273859
         0.12289863
         0.12305947
         0.12322052
         0.12337879
         0.123538464
         0.12369834
         0.12385663
         0.12401691
         0.12417919
         0.124342285
         0.12450379
         0.1246661
         0.12482681
         0.12498773
         0.12514764
         0.12530836
         0.12546748
         0.1256274
         0.1257857
         0.12594539
         0.12610713
         0.12626968
         0.12643182
         0.12659356
         0.1267555
         0.12691581
         0.12707816
         0.12723704
         0.12739733
         0.1275566
         0.12771545
         0.12787387
         0.12803559
         0.12819873
         0.12836207
         0.12852316
         0.12868506
         0.12884529
         0.12900572
         0.12916635
         0.1293253
         0.12948446
         0.1296438
         0.12980458
         0.12996745
         0.13012926
         0.1302919
         0.13045284
         0.13061462
         0.13077533
         0.13093562
         0.13109545
         0.13125485
         0.13141318
         0.13157296
         0.13173611
         0.13189882
         0.13206047
         0.13222165
         0.13238305
         0.13254464
         0.13270514
         0.13286455
         0.13302414
