ocio-configs/luts/eotf_shaper_gamma40_to_srgb.spi1d
Version 1
From 0.000000 1.000000
Length 4096
Components 1
{
         0.0
         6.164902e-06
         1.2329804e-05
         1.8494706e-05
         2.4659608e-05
         3.082451e-05
         3.698941e-05
         4.3154312e-05
         4.9319216e-05
         5.548412e-05
         6.164902e-05
         6.7813926e-05
         7.397882e-05
         8.014373e-05
         8.6308624e-05
         9.247353e-05
         9.863843e-05
         0.00010480333
         0.00011096824
         0.000117133146
         0.00012329804
         0.00012946295
         0.00013562785
         0.00014179274
         0.00014795765
         0.00015412255
         0.00016028745
         0.00016645234
         0.00017261725
         0.00017878215
         0.00018494706
         0.00019111196
         0.00019727687
         0.00020344177
         0.00020960666
         0.0002157716
         0.00022193648
         0.00022810139
         0.00023426629
         0.0002404312
         0.0002465961
         0.000252761
         0.0002589259
         0.00026509078
         0.0002712557
         0.0002774206
         0.00028358548
         0.0002897504
         0.0002959153
         0.00030208018
         0.0003082451
         0.00031441
         0.0003205749
         0.0003267398
         0.0003329047
         0.0003390696
         0.0003452345
         0.0003513994
         0.0003575643
         0.00036372922
         0.00036989411
         0.00037605903
         0.00038222392
         0.0003883888
         0.00039455373
         0.00040071862
         0.00040688354
         0.00041304843
         0.00041921332
         0.00042537824
         0.0004315432
         0.00043770808
         0.00044387297
         0.0004500379
         0.00045620278
         0.0004623677
         0.00046853258
         0.00047469747
         0.0004808624
         0.00048702728
         0.0004931922
         0.00049935706
         0.000505522
         0.0005116869
         0.0005178518
         0.0005240167
         0.00053018157
         0.00053634646
         0.0005425114
         0.0005486763
         0.0005548412
         0.0005610061
         0.00056717097
         0.0005733359
         0.0005795008
         0.0005856657
         0.0005918306
         0.0005979955
         0.00060416036
         0.0006103253
         0.0006164902
         0.0006226551
         0.00062882
         0.00063498487
         0.0006411498
         0.0006473147
         0.0006534796
         0.0006596445
         0.0006658094
         0.0006719743
         0.0006781392
         0.0006843041
         0.000690469
         0.0006966339
         0.0007027988
         0.0007089637
         0.0007151286
         0.00072129356
         0.00072745845
         0.00073362334
         0.00073978823
         0.0007459532
         0.00075211807
         0.00075828296
         0.00076444785
         0.00077061274
         0.0007767776
         0.0007829426
         0.00078910746
         0.00079527235
         0.00080143724
         0.00080760213
         0.0008137671
         0.000819932
         0.00082609686
         0.00083226175
         0.00083842664
         0.00084459153
         0.0008507565
         0.00085692137
         0.0008630864
         0.00086925126
         0.00087541615
         0.00088158104
         0.00088774593
         0.0008939109
         0.0009000758
         0.00090624066
         0.00091240555
         0.00091857044
         0.0009247354
         0.0009309003
         0.00093706517
         0.00094323006
         0.00094939495
         0.00095555984
         0.0009617248
         0.0009678897
         0.00097405456
         0.0009802195
         0.0009863843
         0.0009925492
         0.0009987141
         0.001004879
         0.001011044
         0.0010172089
         0.0010233738
         0.0010295387
         0.0010357036
         0.0010418685
         0.0010480334
         0.0010541982
         0.0010603631
         0.001066528
         0.0010726929
         0.0010788579
         0.0010850228
         0.0010911877
         0.0010973526
         0.0011035175
         0.0011096824
         0.0011158473
         0.0011220122
         0.001128177
         0.0011343419
         0.0011405068
         0.0011466718
         0.0011528367
         0.0011590016
         0.0011651665
         0.0011713314
         0.0011774963
         0.0011836612
         0.001189826
         0.001195991
         0.0012021558
         0.0012083207
         0.0012144857
         0.0012206506
         0.0012268155
         0.0012329804
         0.0012391453
         0.0012453102
         0.0012514751
         0.00125764
         0.0012638049
         0.0012699697
         0.0012761347
         0.0012822996
         0.0012884645
         0.0012946294
         0.0013007943
         0.0013069592
         0.0013131241
         0.001319289
         0.0013254539
         0.0013316188
         0.0013377836
         0.0013439487
         0.0013501135
         0.0013562784
         0.0013624433
         0.0013686082
         0.0013747731
         0.001380938
         0.0013871029
         0.0013932678
         0.0013994327
         0.0014055975
         0.0014117626
         0.0014179274
         0.0014240923
         0.0014302572
         0.0014364222
         0.0014425871
         0.001448752
         0.0014549169
         0.0014610818
         0.0014672467
         0.0014734116
         0.0014795765
         0.0014857413
         0.0014919064
         0.0014980712
         0.0015042361
         0.001510401
         0.0015165659
         0.0015227308
         0.0015288957
         0.0015350606
         0.0015412255
         0.0015473904
         0.0015535553
         0.0015597203
         0.0015658851
         0.00157205
         0.0015782149
         0.0015843798
         0.0015905447
         0.0015967096
         0.0016028745
         0.0016090394
         0.0016152043
         0.0016213692
         0.0016275342
         0.001633699
         0.001639864
         0.0016460288
         0.0016521937
         0.0016583586
         0.0016645235
         0.0016706884
         0.0016768533
         0.0016830182
         0.0016891831
         0.0016953481
         0.001701513
         0.0017076778
         0.0017138427
         0.0017200076
         0.0017261727
         0.0017323376
         0.0017385025
         0.0017446674
         0.0017508323
         0.0017569972
         0.0017631621
         0.001769327
         0.0017754919
         0.0017816568
         0.0017878218
         0.0017939867
         0.0018001515
         0.0018063164
         0.0018124813
         0.0018186462
         0.0018248111
         0.001830976
         0.0018371409
         0.0018433058
         0.0018494708
         0.0018556357
         0.0018618006
         0.0018679654
         0.0018741303
         0.0018802952
         0.0018864601
         0.001892625
         0.0018987899
         0.0019049548
         0.0019111197
         0.0019172847
         0.0019234496
         0.0019296145
         0.0019357793
         0.0019419442
         0.0019481091
         0.001954274
         0.001960439
         0.0019666038
         0.0019727687
         0.0019789336
         0.0019850985
         0.0019912634
         0.0019974282
         0.0020035931
         0.002009758
         0.002015923
         0.002022088
         0.002028253
         0.0020344178
         0.0020405827
         0.0020467476
         0.0020529125
         0.0020590774
         0.0020652423
         0.0020714072
         0.002077572
         0.002083737
         0.0020899018
         0.0020960667
         0.0021022316
         0.0021083965
         0.0021145614
         0.0021207263
         0.0021268912
         0.002133056
         0.002139221
         0.0021453858
         0.002151551
         0.0021577158
         0.0021638807
         0.0021700456
         0.0021762105
         0.0021823754
         0.0021885403
         0.0021947052
         0.00220087
         0.002207035
         0.0022131999
         0.0022193647
         0.0022255296
         0.0022316945
         0.0022378594
         0.0022440243
         0.0022501892
         0.002256354
         0.002262519
         0.0022686839
         0.0022748488
         0.0022810136
         0.0022871788
         0.0022933437
         0.0022995085
         0.0023056734
         0.0023118383
         0.0023180032
         0.002324168
         0.002330333
         0.002336498
         0.0023426628
         0.0023488277
         0.0023549926
         0.0023611574
         0.0023673223
         0.0023734872
         0.002379652
         0.002385817
         0.002391982
         0.0023981468
         0.0024043117
         0.0024104766
         0.0024166415
         0.0024228066
         0.0024289715
         0.0024351364
         0.0024413012
         0.0024474661
         0.002453631
         0.002459796
         0.0024659608
         0.0024721257
         0.0024782906
         0.0024844555
         0.0024906204
         0.0024967853
         0.0025029501
         0.002509115
         0.00251528
         0.0025214448
         0.0025276097
         0.0025337746
         0.0025399395
         0.0025461044
         0.0025522695
         0.0025584344
         0.0025645993
         0.0025707642
         0.002576929
         0.002583094
         0.0025892588
         0.0025954237
         0.0026015886
         0.0026077535
         0.0026139184
         0.0026200833
         0.0026262482
         0.002632413
         0.002638578
         0.0026447428
         0.0026509077
         0.0026570726
         0.0026632375
         0.0026694024
         0.0026755673
         0.0026817322
         0.0026878973
         0.0026940622
         0.002700227
         0.002706392
         0.0027125569
         0.0027187217
         0.0027248866
         0.0027310515
         0.0027372164
         0.0027433813
         0.0027495462
         0.002755711
         0.002761876
         0.0027680409
         0.0027742058
         0.0027803706
         0.0027865355
         0.0027927004
         0.0027988653
         0.0028050302
         0.002811195
         0.00281736
         0.002823525
         0.00282969
         0.002835855
         0.0028420198
         0.0028481847
         0.0028543496
         0.0028605144
         0.0028666793
         0.0028728445
         0.0028790093
         0.0028851742
         0.0028913391
         0.002897504
         0.002903669
         0.0029098338
         0.0029159987
         0.0029221636
         0.0029283285
         0.0029344934
         0.0029406582
         0.0029468231
         0.002952988
         0.002959153
         0.0029653178
         0.0029714827
         0.0029776476
         0.0029838127
         0.0029899776
         0.0029961425
         0.0030023074
         0.0030084723
         0.0030146372
         0.003020802
         0.003026967
         0.0030331318
         0.0030392967
         0.0030454616
         0.0030516265
         0.0030577914
         0.0030639563
         0.0030701212
         0.003076286
         0.003082451
         0.0030886158
         0.0030947807
         0.0031009456
         0.0031071105
         0.0031132756
         0.0031194405
         0.0031256054
         0.0031317703
         0.0031379352
         0.0031441
         0.003150265
         0.0031589076
         0.0031914904
         0.003224073
         0.0032566558
         0.003289239
         0.0033218218
         0.0033544046
         0.0033869871
         0.00341957
         0.003452153
         0.003484736
         0.003517319
         0.0035499013
         0.0035824843
         0.003615067
         0.00364765
         0.0036802327
         0.0037128155
         0.0037453985
         0.0037779813
         0.003810564
         0.0038431468
         0.0038757294
         0.0039083124
         0.0039408957
         0.0039734785
         0.0040060612
         0.0040386436
         0.0040712263
         0.004103809
         0.0041363924
         0.004168975
         0.004201558
         0.004234141
         0.0042667235
         0.0042993063
         0.0043318896
         0.004364472
         0.004397055
         0.0044296375
         0.0044622207
         0.0044948035
         0.004527386
         0.0045599695
         0.004592552
         0.0046251346
         0.0046577174
         0.0046903
         0.0047228835
         0.0047554662
         0.004788049
         0.004820632
         0.004853214
         0.0048857974
         0.0049183797
         0.004950963
         0.0049835457
         0.0050161285
         0.005048712
         0.005081294
         0.005113877
         0.0051464597
         0.0051790425
         0.0052116257
         0.0052442085
         0.0052767913
         0.005309374
         0.0053419564
         0.00537454
         0.0054071224
         0.005439705
         0.005472288
         0.005504871
         0.005537454
         0.0055700364
         0.0056026196
         0.0056352024
         0.0056677847
         0.005700368
         0.0057329508
         0.0057655335
         0.005798117
         0.005830699
         0.0058632824
         0.0058958647
         0.0059284475
         0.0059610303
         0.005993613
         0.0060261963
         0.006058779
         0.006091362
         0.0061239447
         0.0061565274
         0.00618911
         0.006221693
         0.006254276
         0.0062868586
         0.006323244
         0.0063718376
         0.0064204307
         0.006469024
         0.006517618
         0.0065662116
         0.006614804
         0.006663398
         0.0067119915
         0.0067605856
         0.006809178
         0.006857772
         0.0069063655
         0.0069549587
         0.0070035527
         0.0070521454
         0.0071007386
         0.0071493327
         0.007197926
         0.007246519
         0.0072951126
         0.0073437067
         0.0073923
         0.007440893
         0.0074894866
         0.0075380797
         0.007586674
         0.007635267
         0.0076838606
         0.0077324538
         0.007781047
         0.007829641
         0.007878235
         0.007926827
         0.007975421
         0.0080240145
         0.008072608
         0.008121201
         0.008169794
         0.008218388
         0.008266982
         0.008315575
         0.008364168
         0.008412763
         0.008461355
         0.00850995
         0.0085585425
         0.008607135
         0.00865573
         0.008704322
         0.008752916
         0.00880151
         0.008850102
         0.008898697
         0.00894729
         0.008995883
         0.009044477
         0.0090930695
         0.009141664
         0.009190257
         0.00923885
         0.009287444
         0.009336038
         0.009384631
         0.009433224
         0.009485992
         0.00954881
         0.009611628
         0.009674446
         0.009737263
         0.00980008
         0.009862899
         0.009925717
         0.009988534
         0.010051351
         0.010114169
         0.010176987
         0.010239804
         0.010302623
         0.01036544
         0.010428257
         0.010491076
         0.010553893
         0.010616711
         0.010679528
         0.010742345
         0.010805164
         0.010867981
         0.010930799
         0.010993617
         0.011056434
         0.011119252
         0.01118207
         0.011244887
         0.011307705
         0.011370522
         0.011433341
         0.011496158
         0.011558975
         0.011621793
         0.011684611
         0.011747429
         0.011810246
         0.011873064
         0.011935881
         0.011998699
         0.012061518
         0.012124334
         0.012187152
         0.01224997
         0.012312788
         0.012375606
         0.012438423
         0.012501241
         0.012564058
         0.012627603
         0.012703585
         0.012779568
         0.012855552
         0.012931535
         0.013007518
         0.013083503
         0.013159484
         0.013235467
         0.01331145
         0.013387433
         0.013463416
         0.0135394
         0.013615383
         0.013691366
         0.01376735
         0.0138433315
         0.013919314
         0.013995298
         0.014071281
         0.014147264
         0.014223248
         0.014299231
         0.014375212
         0.014451196
         0.014527179
         0.014603162
         0.014679146
         0.014755129
         0.014831112
         0.014907096
         0.014983078
         0.0150590595
         0.015135044
         0.015211027
         0.015287009
         0.015362994
         0.015438977
         0.01551496
         0.015590942
         0.015666924
         0.015742907
         0.01582537
         0.015913773
         0.016002176
         0.016090583
         0.016178984
         0.016267387
         0.016355792
         0.016444195
         0.0165326
         0.016621003
         0.016709408
         0.01679781
         0.016886214
         0.016974619
         0.017063022
         0.017151425
         0.017239828
         0.017328234
         0.017416636
         0.017505039
         0.017593443
         0.017681848
         0.01777025
         0.017858654
         0.01794706
         0.01803546
         0.018123865
         0.01821227
         0.018300675
         0.018389076
         0.01847748
         0.018565886
         0.018654289
         0.01874269
         0.018831097
         0.0189195
         0.019017663
         0.019117916
         0.019218173
         0.019318428
         0.019418683
         0.019518938
         0.019619195
         0.019719452
         0.019819705
         0.01991996
         0.020020217
         0.020120472
         0.020220729
         0.020320982
         0.020421239
         0.020521494
         0.020621749
         0.020722006
         0.02082226
         0.020922516
         0.02102277
         0.021123027
         0.021223282
         0.021323537
         0.021423792
         0.02152405
         0.021624304
         0.02172456
         0.021824816
         0.02192507
         0.022025326
         0.022129515
         0.022241166
         0.022352817
         0.022464465
         0.022576116
         0.022687767
         0.022799417
         0.022911068
         0.023022717
         0.023134368
         0.023246016
         0.023357667
         0.023469318
         0.023580968
         0.023692617
         0.023804268
         0.023915917
         0.024027567
         0.024139216
         0.024250867
         0.024362516
         0.024474168
         0.024585819
         0.024697468
         0.024809118
         0.024920769
         0.025032418
         0.025144069
         0.025256598
         0.025379263
         0.025501927
         0.025624592
         0.025747258
         0.025869925
         0.02599259
         0.026115252
         0.026237916
         0.026360584
         0.026483249
         0.026605913
         0.026728578
         0.026851242
         0.026973909
         0.027096575
         0.02721924
         0.027341904
         0.02746457
         0.027587235
         0.027709901
         0.027832566
         0.027955232
         0.028077897
         0.028200561
         0.028323228
         0.028449658
         0.028583016
         0.028716376
         0.028849727
         0.028983086
         0.02911644
         0.0292498
         0.029383158
         0.029516513
         0.029649869
         0.029783225
         0.029916583
         0.03004994
         0.030183297
         0.03031665
         0.030450007
         0.030583365
         0.030716723
         0.030850079
         0.030983437
         0.03111679
         0.03125015
         0.031383507
         0.03151686
         0.03165738
         0.031801146
         0.031944916
         0.032088682
         0.032232452
         0.032376222
         0.032519985
         0.032663755
         0.032807525
         0.03295129
         0.03309506
         0.033238832
         0.0333826
         0.03352637
         0.03367014
         0.033813905
         0.03395767
         0.03410144
         0.034245208
         0.034388978
         0.03453275
         0.03467651
         0.034827773
         0.0349817
         0.035135634
         0.035289563
         0.0354435
         0.035597432
         0.035751365
         0.035905294
         0.036059227
         0.03621316
         0.036367092
         0.03652102
         0.036674954
         0.036828887
         0.036982816
         0.037136752
         0.037290685
         0.037444618
         0.037598547
         0.03775248
         0.03790875
         0.038072627
         0.038236503
         0.03840038
         0.038564257
         0.038728133
         0.038892005
         0.039055888
         0.039219763
         0.03938356
         0.039547004
         0.039710045
         0.0398727
         0.040034972
         0.040196843
         0.040358335
         0.040519454
         0.040680178
         0.04084053
         0.041000515
         0.041169383
         0.041338064
         0.04150632
         0.041674174
         0.04184162
         0.04200866
         0.042175293
         0.04234153
         0.042507373
         0.04267282
         0.04283788
         0.043002546
         0.04316683
         0.04333073
         0.043494247
         0.043657377
         0.043820135
         0.04398252
         0.04415168
         0.0443222
         0.04449231
         0.04466202
         0.04483132
         0.045000225
         0.045168728
         0.045336843
         0.045504555
         0.04567188
         0.04583881
         0.04600536
         0.046171524
         0.046337314
         0.046502717
         0.046667747
         0.046832405
         0.04700151
         0.04717382
         0.04734572
         0.047517218
         0.047688313
         0.047859006
         0.04802931
         0.04819922
         0.048368737
         0.048537873
         0.048706606
         0.048874967
         0.049042955
         0.04921055
         0.04937777
         0.049544618
         0.049712606
         0.049886674
         0.050060354
         0.050233617
         0.050406493
         0.05057896
         0.050751045
         0.050922737
         0.051094033
         0.05126495
         0.051435485
         0.051605634
         0.051775403
         0.051944792
         0.052113816
         0.052282453
         0.052454926
         0.052630387
         0.052805454
         0.052980132
         0.05315441
         0.05332829
         0.053501785
         0.05367489
         0.053847603
         0.05401995
         0.05419191
         0.05436349
         0.054534696
         0.054705523
         0.054875985
         0.05505035
         0.05522728
         0.055403814
         0.055579953
         0.055755705
         0.05593107
         0.05610603
         0.05628062
         0.056454815
         0.056628644
         0.056802087
         0.056975156
         0.057147853
         0.057320163
         0.057493806
         0.0576723
         0.05785039
         0.058028094
         0.05820541
         0.058382325
         0.058558866
         0.05873502
         0.058910795
         0.059086196
         0.059261203
         0.059435852
         0.059610114
         0.059784018
         0.059960537
         0.060140304
         0.060319692
         0.060498685
         0.06067729
         0.060855515
         0.061033346
         0.061210804
         0.06138788
         0.061564587
         0.061740912
         0.061916873
         0.062092453
         0.06226872
         0.062449925
         0.06263073
         0.06281116
         0.06299119
         0.06317084
         0.06335012
         0.063529
         0.06370752
         0.06388567
         0.06406343
         0.06424082
         0.064417854
         0.06459663
         0.06477903
         0.06496105
         0.06514267
         0.06532393
         0.06550478
         0.06568527
         0.065865375
         0.06604511
         0.06622447
