ocio-configs/luts/shaper_substance_painter_log_to_linear.spi1d
Version 1
From -0.358400 1.468000
Length 1025
Components 1
{
         0.004296887
         0.004296887
         0.004296887
         0.004296887
         0.004296887
         0.004296887
         0.004296887
         0.004296887
         0.004296887
         0.004296887
         0.004296887
         0.004296887
         0.004296887
         0.004296887
         0.004296887
         0.004296887
         0.004296887
         0.004296887
         0.004296887
         0.004296887
         0.004296887
         0.004296887
         0.004296887
         0.004296887
         0.004296887
         0.004296887
         0.004296887
         0.004296887
         0.004296887
         0.004296887
         0.004296887
         0.004296887
         0.004296887
         0.004296887
         0.004296887
         0.004296887
         0.004296887
         0.004296887
         0.004296887
         0.004296887
         0.004296887
         0.004296887
         0.004296887
         0.004296887
         0.004296887
         0.004296887
         0.004296887
         0.004296887
         0.004296887
         0.004296887
         0.004296887
         0.004296887
         0.004296887
         0.004296887
         0.004296887
         0.004296887
         0.004296887
         0.004296887
         0.004296887
         0.004296887
         0.004296887
         0.004296887
         0.004296887
         0.004296887
         0.004296887
         0.004296887
         0.004296887
         0.004296887
         0.004296887
         0.004296887
         0.004296887
         0.004296887
         0.004296887
         0.004296887
         0.004296887
         0.004296887
         0.004296887
         0.004296887
         0.004296887
         0.004296887
         0.004296887
         0.004296887
         0.004296887
         0.004296887
         0.004296887
         0.004296887
         0.004296887
         0.004296887
         0.004296887
         0.004296887
         0.004296887
         0.004296887
         0.004296887
         0.004296887
         0.004296887
         0.004296887
         0.004296887
         0.004296887
         0.004296887
         0.004296887
         0.004296887
         0.004296887
         0.004296887
         0.004296887
         0.004296887
         0.004296887
         0.004296887
         0.004296887
         0.004296887
         0.004296887
         0.004296887
         0.004296887
         0.004296887
         0.004296887
         0.004296887
         0.004296887
         0.004296887
         0.004296887
         0.004296887
         0.004296887
         0.004296887
         0.004296887
         0.004296887
         0.004296887
         0.004296887
         0.004296887
         0.004296887
         0.004296887
         0.004296887
         0.004296887
         0.004296887
         0.004296887
         0.004296887
         0.004296887
         0.004296887
         0.004296887
         0.004296887
         0.004296887
         0.004296887
         0.004296887
         0.004296887
         0.004296887
         0.004296887
         0.004296887
         0.004296887
         0.004296887
         0.004296887
         0.004296887
         0.004296887
         0.004296887
         0.004296887
         0.004296887
         0.004296887
         0.004296887
         0.004296887
         0.004296887
         0.004296887
         0.004296887
         0.004296887
         0.004296887
         0.004296887
         0.004296887
         0.004296887
         0.004296887
         0.004296887
         0.004296887
         0.004296887
         0.004296887
         0.004296887
         0.004296887
         0.004296887
         0.004296887
         0.004296887
         0.004296887
         0.004296887
         0.004296887
         0.004296887
         0.004296887
         0.004296887
         0.004296887
         0.004296887
         0.004296887
         0.004296887
         0.004296887
         0.004296887
         0.004296887
         0.004296887
         0.004296887
         0.004296887
         0.004296887
         0.004296887
         0.004296887
         0.004296887
         0.004296887
         0.004296887
         0.004296887
         0.004296887
         0.004296887
         0.004296887
         0.004296887
         0.004296887
         0.0046568518
         0.006466837
         0.0077824406
         0.0090269195
         0.01026122
         0.011508554
         0.012780575
         0.014083989
         0.015423039
         0.016800532
         0.018218491
         0.019678328
         0.021181084
         0.02272756
         0.024318308
         0.025953777
         0.027634345
         0.02936026
         0.031131634
         0.03294864
         0.034811493
         0.036720008
         0.038674455
         0.04067474
         0.0427208
         0.044812635
         0.04695028
         0.049133677
         0.051362697
         0.053637214
         0.05595735
         0.058322996
         0.060734067
         0.063190274
         0.06569199
         0.068238564
         0.070830494
         0.0734672
         0.07614893
         0.07887572
         0.08164686
         0.08446286
         0.087323606
         0.09022887
         0.093178354
         0.09617237
         0.099210635
         0.102292664
         0.10541942
         0.1085902
         0.11180512
         0.115063936
         0.11836649
         0.12171352
         0.12510343
         0.12853846
         0.13201526
         0.13553716
         0.13910173
         0.14270993
         0.14636293
         0.15005709
         0.15379587
         0.15757853
         0.16140279
         0.16527134
         0.16918387
         0.17313737
         0.177135
         0.18117717
         0.18526012
         0.18938638
         0.19355668
         0.19777046
         0.2020244
         0.2063225
         0.21066414
         0.21504937
         0.2194748
         0.2239435
         0.22845547
         0.23301087
         0.23760906
         0.24224801
         0.24692985
         0.25165495
         0.256424
         0.26123682
         0.26609206
         0.27099067
         0.27593493
         0.28092483
         0.28595996
         0.29104108
         0.29616943
         0.3013445
         0.30656543
         0.31183392
         0.31715146
         0.32251763
         0.32793215
         0.33339697
         0.33891234
         0.3444775
         0.35009354
         0.3557607
         0.36148062
         0.36725098
         0.3730743
         0.3789511
         0.38488176
         0.3908668
         0.39690548
         0.40299994
         0.40915066
         0.41535652
         0.42161885
         0.42793918
         0.43431658
         0.44075263
         0.4472471
         0.45380035
         0.4604134
         0.46708792
         0.47382194
         0.4806171
         0.48747465
         0.49439475
         0.50137794
         0.50842476
         0.5155349
         0.52271056
         0.5299518
         0.5372592
         0.5446314
         0.55207163
         0.55958015
         0.56715703
         0.5748027
         0.5825171
         0.5903016
         0.5981576
         0.6060853
         0.61408484
         0.6221566
         0.630302
         0.6385224
         0.6468179
         0.65518826
         0.66363496
         0.67215854
         0.6807609
         0.68944114
         0.6982001
         0.70703816
         0.71595687
         0.72495776
         0.7340414
         0.7432078
         0.75245744
         0.7617908
         0.77121097
         0.7807147
         0.79030925
         0.799988
         0.8097563
         0.8196146
         0.8295633
         0.83960456
         0.84973526
         0.859961
         0.8702792
         0.8806928
         0.89120257
         0.9018087
         0.91251254
         0.9233142
         0.9342147
         0.945217
         0.9563218
         0.9675275
         0.9788361
         0.99025005
         1.00177
         1.0133964
         1.0251306
         1.0369734
         1.0489265
         1.0609902
         1.0731641
         1.0854555
         1.0978587
         1.1103772
         1.1230146
         1.1357651
         1.1486406
         1.1616337
         1.1747496
         1.1879886
         1.2013458
         1.2148387
         1.2284515
         1.2421945
         1.2560691
         1.2700683
         1.2842082
         1.2984747
         1.3128788
         1.3274225
         1.3420963
         1.3569198
         1.371877
         1.386979
         1.4022286
         1.4176131
         1.4331589
         1.4488454
         1.4646795
         1.4806768
         1.4968152
         1.5131193
         1.5295769
         1.5461828
         1.5629721
         1.5799061
         1.5970088
         1.614285
         1.6317134
         1.6493312
         1.6671104
         1.6850557
         1.7031988
         1.721502
         1.7399936
         1.7586712
         1.7775128
         1.7965658
         1.8157989
         1.8352077
         1.8548387
         1.8746424
         1.89465
         1.9148662
         1.9352623
         1.9558899
         1.9767164
         1.997729
         2.0189996
         2.040456
         2.0621245
         2.0840452
         2.1061568
         2.1285117
         2.1510992
         2.1738894
         2.1969514
         2.2202406
         2.243735
         2.267532
         2.2915452
         2.315788
         2.3403323
         2.365099
         2.3901248
         2.4154458
         2.4409914
         2.4668317
         2.4929585
         2.5193155
         2.546005
         2.5729673
         2.6001701
         2.6277406
         2.6555753
         2.6836622
         2.7121503
         2.7408972
         2.7699232
         2.799349
         2.829041
         2.85904
         2.8894432
         2.920123
         2.951145
         2.982571
         3.0142758
         3.0463579
         3.0788548
         3.1116407
         3.1448383
         3.1784444
         3.2123544
         3.246708
         3.2814722
         3.3165605
         3.3521214
         3.3880951
         3.4244006
         3.4612048
         3.4984415
         3.5360134
         3.5741115
         3.6126487
         3.6515439
         3.6909847
         3.7308757
         3.7711387
         3.8119717
         3.8532672
         3.8949642
         3.9372265
         3.979995
         4.023169
         4.0669303
         4.111222
         4.1559296
         4.20124
         4.2471123
         4.2934284
         4.3403416
         4.387866
         4.43584
         4.4844155
         4.5336494
         4.583357
         4.6336584
         4.6846733
         4.7361803
         4.7882667
         4.8411436
         4.8945136
         4.948459
         5.0032506
         5.058575
         5.114444
         5.1712365
         5.228585
         5.2864914
         5.3453155
         5.4047723
         5.4648113
         5.5257435
         5.587392
         5.6496463
         5.712753
         5.776686
         5.841243
         5.9066143
         5.972907
         6.0398555
         6.107563
         6.176331
         6.2457833
         6.3159323
         6.3872585
         6.459304
         6.5320764
         6.6059656
         6.6807165
         6.756224
         6.8327656
         6.910321
         6.9886737
         7.06797
         7.14845
         7.2297506
         7.3118987
         7.39543
         7.479807
         7.5650463
         7.6516113
         7.739197
         7.827682
         7.9173565
         8.00827
         8.1001215
         8.193037
         8.287423
         8.382774
         8.479122
         8.577031
         8.676048
         8.776079
         8.877534
         8.980329
         9.084205
         9.189332
         9.296081
         9.403945
         9.512947
         9.623722
         9.735736
         9.848963
         9.963742
         10.080087
         10.197669
         10.316608
         10.437459
         10.559587
         10.682987
         10.808358
         10.93523
         11.063445
         11.193326
         11.325121
         11.458301
         11.592909
         11.729782
         11.868158
         12.008011
         12.149848
         12.293621
         12.438913
         12.58589
         12.735227
         12.886198
         13.038788
         13.193673
         13.35052
         13.50909
         13.669543
         13.832541
         13.997282
         14.163814
         14.332896
         14.504092
         14.67714
         14.85231
         15.030208
         15.210015
         15.39181
         15.576375
         15.763217
         15.952087
         16.14333
         16.337488
         16.533766
         16.732203
         16.933622
         17.137583
         17.343792
         17.55246
         17.76439
         17.978642
         18.195284
         18.415024
         18.637665
         18.862747
         19.090424
         19.32174
         19.555626
         19.792084
         20.031769
         20.274761
         20.520428
         20.768854
         21.021173
         21.27642
         21.53451
         21.795874
         22.061022
         22.329159
         22.600288
         22.875343
         23.15384
         23.435446
         23.720352
         24.00964
         24.302137
         24.597937
         24.897602
         25.201416
         25.508635
         25.81929
         26.13449
         26.453535
         26.776125
         27.10254
         27.433804
         27.768785
         28.107525
         28.450735
         28.798515
         29.15016
         29.505867
         29.866547
         30.231636
         30.60082
         30.97427
         31.353188
         31.736404
         32.123924
         32.516266
         32.91396
         33.31608
         33.722797
         34.134888
         34.55215
         34.974102
         35.40087
         35.83361
         36.271305
         36.714005
         37.16186
         37.61588
         38.07499
         38.539295
         39.009365
         39.48543
         39.966938
         40.453888
         40.946987
         41.4461
         41.9509
         42.461407
         42.978634
         43.50182
         44.030964
         44.566074
         45.108284
         45.65661
         46.211105
         46.77203
         47.34008
         47.91452
         48.49542
         49.083225
         49.678158
         50.27984
         50.888203
         51.50399
         52.12689
         52.7569
         53.393963
         54.038647
         54.69075
         55.350216
         56.017036
         56.69182
         57.374195
         58.06425
         58.762142
         59.468025
         60.181988
         60.903877
         61.633858
         62.372177
         63.118755
         63.87368
         64.63695
         65.408905
         66.18929
         66.97855
         67.776505
         68.58333
         69.399025
         70.22386
         71.057846
         71.90088
         72.753235
         73.61512
         74.48662
         75.36824
         76.2603
         77.16301
         78.0762
         79.00031
         79.93546
         80.88158
         81.838776
         82.807526
         83.78774
         84.77922
         85.7829
         86.7981
         87.82544
         88.86494
         89.91662
         90.98099
         92.05784
         93.14742
         94.24979
         95.36545
         96.4942
         97.63616
         98.792046
         99.96134
         101.14435
         102.34161
         103.552925
         104.77844
         106.01873
         107.27357
         108.54324
         109.82796
         111.12788
         112.443184
         113.774055
         115.120674
         116.48324
         117.86192
         119.256935
         120.66846
         122.09668
         123.54182
         125.00388
         126.48359
         127.980644
         129.49557
         131.02812
         132.57896
         134.14816
         135.73593
         137.34268
         138.96843
         140.61307
         142.27736
         143.96155
         145.66527
         147.38916
         149.13405
         150.89899
         152.68481
         154.49219
         156.32097
         158.17096
         160.04286
         161.93733
         163.854
         165.7936
         167.7557
         169.74147
         171.75053
         173.78336
         175.84024
         177.92148
         180.02736
         182.15814
         184.3144
         186.4957
         188.7033
         190.93652
         193.19643
         195.48311
         197.79683
         200.13795
         202.50677
         204.90363
         207.32886
         209.7828
         212.26578
         214.77814
         217.32053
         219.89273
         222.49506
         225.12881
         227.79341
         230.48926
         233.21764
         235.9783
         238.771
         241.59741
         244.45662
         247.35
         250.27762
         253.23955
         256.2372
         259.27005
         262.33875
         265.44342
         268.5859
         271.76453
         274.98074
         278.23615
         281.52933
         284.8615
         288.2331
         291.64462
         295.0969
         298.58926
         302.12332
         305.69925
         309.31747
         312.97815
         316.68295
         320.4312
         324.22382
         328.0613
         331.9442
         335.87308
         339.84848
         343.8709
         347.94095
         352.05963
         356.22614
         360.44238
         364.70905
         369.02524
         373.3935
         377.81348
         382.28473
         386.80942
         391.3877
         396.01962
         400.70688
         405.44962
         410.24905
         415.1042
         420.01788
         424.98862
         430.0188
         435.10907
         440.25958
         445.46988
         450.743
         456.0774
         461.4755
         466.9381
         472.46417
         478.0562
         483.7151
         489.4403
         495.23334
         501.09488
         507.0258
         513.02625
         519.0991
         525.24316
         531.45917
         537.7502
         544.115
         550.55585
         557.0715
         563.6642
         570.3364
         577.0869
         583.9173
         590.8285
         597.8223
         604.89813
         612.0576
         619.30194
         626.63196
         634.04877
         641.5533
         649.1476
         656.8308
         664.6042
         672.4704
         680.42975
         688.48236
         696.63116
         704.87836
         713.22034
         721.6619
         730.2035
         738.8461
         747.59015
         756.44055
         765.3937
         774.45294
         783.6193
         792.89417
         802.2789
         811.77454
         821.3826
         831.1067
         840.94257
         850.8948
         860.96814
         871.1574
         881.4672
         891.9026
         902.4591
         913.14056
         923.9485
         934.8843
         945.95197
         957.14575
         968.47437
         979.9398
         991.53705
         1003.27155
         1015.14886
         1027.1627
         1039.3215
         1051.6229
         1064.0698
         1076.6642
         1089.4075
         1102.3016
         1115.3514
         1128.5511
         1141.9071
         1155.4258
         1169.0997
         1182.9357
         1196.94
         1211.1052
         1225.4414
         1239.9457
         1254.6217
         1269.4713
         1284.4967
         1299.7
         1315.0865
         1330.6501
         1346.3978
         1362.3374
         1378.4601
         1394.7737
         1411.2859
         1427.9879
         1444.8914
         1461.993
         1479.297
         1496.8059
         1514.5222
         1532.4459
         1550.59
         1568.9406
         1587.5084
         1606.2981
         1625.3124
}
