ocio-configs/luts/shaper_linearcv_to_gamma40.spi1d
Version 1
From 0.000000 1.000000
Length 4096
Components 1
{
         0.0
         0.12500763
         0.14865996
         0.1645193
         0.1767875
         0.18693002
         0.19564752
         0.20333448
         0.21023694
         0.21651956
         0.2222985
         0.22765893
         0.23266542
         0.2373681
         0.24180682
         0.24601373
         0.25001526
         0.25383338
         0.2574866
         0.26099065
         0.26435897
         0.26760322
         0.27073362
         0.27375904
         0.27668738
         0.27952555
         0.28227985
         0.28495577
         0.28755838
         0.29009217
         0.29256126
         0.29496938
         0.29731992
         0.299616
         0.30186048
         0.30405596
         0.30620492
         0.30830953
         0.31037194
         0.312394
         0.31437755
         0.31632426
         0.31823567
         0.32011324
         0.32195836
         0.32377228
         0.32555622
         0.3273113
         0.3290386
         0.3307391
         0.3324138
         0.33406353
         0.3356892
         0.33729157
         0.33887145
         0.3404295
         0.34196648
         0.343483
         0.34497967
         0.34645715
         0.34791595
         0.34935662
         0.35077968
         0.35218567
         0.353575
         0.3549481
         0.35630548
         0.35764754
         0.35897464
         0.36028716
         0.36158553
         0.36287004
         0.36414105
         0.3653989
         0.3666439
         0.36787632
         0.3690965
         0.37030467
         0.37150118
         0.37268618
         0.37386003
         0.3750229
         0.37617505
         0.3773167
         0.37844813
         0.37956947
         0.38068095
         0.38178277
         0.38287517
         0.38395828
         0.3850323
         0.3860974
         0.38715377
         0.38820153
         0.38924092
         0.39027202
         0.39129505
         0.39231008
         0.39331728
         0.39431685
         0.39530885
         0.39629343
         0.39727074
         0.39824086
         0.399204
         0.40016016
         0.40110955
         0.40205222
         0.4029883
         0.40391794
         0.40484118
         0.40575817
         0.40666896
         0.40757367
         0.40847242
         0.40936527
         0.4102523
         0.41113362
         0.4120093
         0.41287944
         0.41374412
         0.4146034
         0.4154574
         0.41630614
         0.41714972
         0.4179882
         0.4188217
         0.41965023
         0.42047387
         0.42129272
         0.42210683
         0.42291623
         0.42372102
         0.42452127
         0.425317
         0.42610827
         0.42689517
         0.42767775
         0.42845607
         0.42923015
         0.43000007
         0.4307659
         0.43152764
         0.43228537
         0.43303913
         0.43378899
         0.43453497
         0.43527713
         0.43601552
         0.43675017
         0.43748114
         0.43820846
         0.43893218
         0.43965232
         0.44036898
         0.44108212
         0.44179183
         0.44249812
         0.44320107
         0.44390067
         0.444597
         0.44529006
         0.4459799
         0.44666654
         0.44735005
         0.44803044
         0.44870773
         0.44938198
         0.4500532
         0.4507214
         0.4513867
         0.45204905
         0.45270848
         0.45336506
         0.4540188
         0.4546697
         0.45531785
         0.45596325
         0.4566059
         0.45724586
         0.45788315
         0.45851776
         0.45914978
         0.45977917
         0.460406
         0.46103027
         0.46165204
         0.4622713
         0.46288806
         0.46350238
         0.46411428
         0.46472374
         0.46533084
         0.46593556
         0.46653792
         0.467138
         0.46773574
         0.4683312
         0.4689244
         0.46951535
         0.4701041
         0.4706906
         0.47127497
         0.47185713
         0.47243717
         0.47301507
         0.47359088
         0.47416458
         0.4747362
         0.4753058
         0.47587332
         0.47643882
         0.47700232
         0.47756383
         0.47812337
         0.47868094
         0.47923657
         0.4797903
         0.4803421
         0.480892
         0.48144004
         0.4819862
         0.4825305
         0.48307297
         0.48361364
         0.48415247
         0.48468953
         0.4852248
         0.4857583
         0.48629007
         0.48682007
         0.48734838
         0.48787495
         0.48839983
         0.488923
         0.48944455
         0.4899644
         0.4904826
         0.49099916
         0.49151412
         0.49202746
         0.49253917
         0.49304932
         0.49355787
         0.49406487
         0.4945703
         0.4950742
         0.49557656
         0.4960774
         0.49657673
         0.49707454
         0.49757087
         0.49806574
         0.49855912
         0.49905103
         0.4995415
         0.5000305
         0.50051814
         0.5010043
         0.50148904
         0.50197244
         0.5024544
         0.502935
         0.5034142
         0.50389206
         0.50436854
         0.5048437
         0.5053175
         0.50579
         0.50626117
         0.506731
         0.5071995
         0.50766677
         0.50813276
         0.50859743
         0.50906086
         0.50952303
         0.5099839
         0.51044357
         0.510902
         0.51135916
         0.51181513
         0.51226985
         0.5127234
         0.5131757
         0.5136269
         0.5140768
         0.5145256
         0.5149732
         0.51541966
         0.51586497
         0.5163091
         0.51675206
         0.517194
         0.5176347
         0.5180743
         0.5185128
         0.51895016
         0.5193864
         0.5198216
         0.5202557
         0.5206887
         0.5211206
         0.5215515
         0.5219813
         0.52241004
         0.5228377
         0.52326435
         0.5236899
         0.5241145
         0.524538
         0.5249605
         0.525382
         0.52580243
         0.52622193
         0.5266404
         0.5270579
         0.52747434
         0.52788985
         0.52830434
         0.52871794
         0.52913046
         0.5295421
         0.52995276
         0.5303625
         0.5307712
         0.531179
         0.53158593
         0.53199184
         0.53239685
         0.532801
         0.53320414
         0.5336064
         0.5340078
         0.5344082
         0.5348078
         0.53520644
         0.53560424
         0.53600115
         0.53639716
         0.5367923
         0.53718656
         0.53757995
         0.53797245
         0.5383642
         0.538755
         0.53914493
         0.5395341
         0.5399224
         0.54030985
         0.5406965
         0.54108226
         0.54146725
         0.5418514
         0.5422347
         0.54261726
         0.54299897
         0.5433799
         0.54376006
         0.5441394
         0.5445179
         0.54489565
         0.5452726
         0.54564875
         0.5460242
         0.5463988
         0.54677266
         0.5471458
         0.5475181
         0.54788965
         0.5482605
         0.5486306
         0.5489999
         0.5493685
         0.5497363
         0.5501034
         0.5504698
         0.55083543
         0.55120033
         0.5515645
         0.551928
         0.55229074
         0.5526528
         0.5530141
         0.55337477
         0.55373466
         0.5540939
         0.5544524
         0.5548102
         0.5551674
         0.5555238
         0.5558796
         0.55623466
         0.55658907
         0.55694276
         0.55729586
         0.55764824
         0.55799997
         0.558351
         0.5587014
         0.5590511
         0.5594002
         0.55974865
         0.5600964
         0.5604435
         0.56079
         0.5611359
         0.56148106
         0.56182563
         0.5621696
         0.5625129
         0.5628556
         0.5631977
         0.5635391
         0.5638799
         0.5642201
         0.5645597
         0.56489867
         0.56523705
         0.56557477
         0.56591195
         0.5662485
         0.5665844
         0.5669198
         0.56725454
         0.56758875
         0.5679223
         0.5682553
         0.5685877
         0.56891954
         0.56925076
         0.56958145
         0.56991154
         0.5702411
         0.57057005
         0.5708984
         0.57122624
         0.57155347
         0.57188016
         0.5722063
         0.5725319
         0.5728569
         0.5731814
         0.57350534
         0.5738287
         0.5741515
         0.5744738
         0.57479554
         0.57511675
         0.5754374
         0.57575756
         0.57607716
         0.5763962
         0.57671475
         0.5770328
         0.57735026
         0.57766724
         0.5779837
         0.5782996
         0.578615
         0.5789299
         0.57924426
         0.57955813
         0.57987154
         0.58018434
         0.5804967
         0.5808086
         0.5811199
         0.58143073
         0.5817411
         0.5820509
         0.58236027
         0.58266914
         0.58297753
         0.5832854
         0.5835928
         0.58389974
         0.58420616
         0.5845121
         0.5848175
         0.5851225
         0.58542705
         0.5857311
         0.58603466
         0.58633775
         0.58664036
         0.58694255
         0.5872442
         0.58754545
         0.5878462
         0.5881465
         0.5884464
         0.5887458
         0.5890447
         0.5893432
         0.5896412
         0.58993876
         0.5902359
         0.5905326
         0.5908288
         0.5911246
         0.59141994
         0.5917148
         0.5920093
         0.59230334
         0.5925969
         0.59289
         0.59318274
         0.59347504
         0.59376687
         0.5940583
         0.59434927
         0.59463984
         0.59493
         0.59521973
         0.595509
         0.5957979
         0.5960863
         0.5963744
         0.596662
         0.59694916
         0.597236
         0.5975224
         0.5978083
         0.59809387
         0.598379
         0.59866375
         0.59894806
         0.599232
         0.59951556
         0.5997987
         0.6000814
         0.60036373
         0.60064566
         0.6009272
         0.6012083
         0.60148907
         0.6017694
         0.60204935
         0.60232896
         0.6026081
         0.6028869
         0.6031653
         0.6034433
         0.60372096
         0.60399824
         0.6042751
         0.60455155
         0.6048277
         0.60510343
         0.6053788
         0.60565376
         0.60592836
         0.6062026
         0.6064765
         0.60675
         0.6070231
         0.6072959
         0.60756826
         0.6078403
         0.6081119
         0.60838324
         0.6086542
         0.60892475
         0.609195
         0.6094648
         0.6097343
         0.6100035
         0.6102722
         0.6105407
         0.61080873
         0.6110765
         0.61134386
         0.61161083
         0.6118775
         0.6121439
         0.61240983
         0.6126754
         0.6129407
         0.6132057
         0.61347026
         0.61373454
         0.6139985
         0.61426204
         0.61452526
         0.6147882
         0.61505073
         0.61531293
         0.61557484
         0.6158364
         0.6160976
         0.6163585
         0.61661905
         0.6168793
         0.6171392
         0.6173988
         0.617658
         0.61791694
         0.61817557
         0.61843383
         0.6186918
         0.6189494
         0.6192067
         0.6194637
         0.61972034
         0.6199767
         0.62023276
         0.62048846
         0.6207439
         0.6209989
         0.62125367
         0.6215082
         0.6217623
         0.62201613
         0.62226963
         0.6225229
         0.6227758
         0.62302834
         0.62328064
         0.62353265
         0.6237843
         0.6240357
         0.6242868
         0.6245375
         0.624788
         0.62503815
         0.625288
         0.6255376
         0.62578684
         0.6260358
         0.6262845
         0.62653285
         0.626781
         0.62702876
         0.62727624
         0.6275234
         0.62777036
         0.628017
         0.6282633
         0.62850934
         0.6287551
         0.62900054
         0.62924576
         0.6294906
         0.62973523
         0.62997955
         0.6302236
         0.63046736
         0.63071084
         0.630954
         0.6311969
         0.63143957
         0.6316819
         0.631924
         0.63216573
         0.63240725
         0.6326485
         0.63288945
         0.63313013
         0.6333706
         0.6336107
         0.6338506
         0.6340902
         0.6343295
         0.6345686
         0.63480735
         0.6350458
         0.6352841
         0.63552207
         0.6357598
         0.63599724
         0.6362344
         0.63647133
         0.63670796
         0.63694435
         0.6371805
         0.63741636
         0.637652
         0.6378873
         0.6381224
         0.63835716
         0.63859177
         0.6388261
         0.6390601
         0.6392939
         0.63952744
         0.6397607
         0.6399937
         0.6402265
         0.640459
         0.6406913
         0.64092326
         0.641155
         0.6413865
         0.6416178
         0.6418488
         0.64207953
         0.6423101
         0.64254034
         0.64277035
         0.64300007
         0.6432296
         0.6434589
         0.6436879
         0.6439167
         0.64414525
         0.64437354
         0.6446016
         0.6448294
         0.64505696
         0.6452843
         0.6455114
         0.64573824
         0.64596486
         0.64619124
         0.6464174
         0.6466433
         0.64686894
         0.64709437
         0.6473196
         0.64754456
         0.6477693
         0.64799374
         0.64821804
         0.64844203
         0.64866585
         0.6488894
         0.64911276
         0.64933586
         0.6495587
         0.64978135
         0.6500038
         0.65022594
         0.6504479
         0.65066963
         0.6508911
         0.65111244
         0.65133345
         0.6515543
         0.6517749
         0.6519953
         0.6522154
         0.65243536
         0.65265507
         0.6528746
         0.6530939
         0.6533129
         0.65353173
         0.65375036
         0.65396875
         0.6541869
         0.6544049
         0.6546226
         0.6548401
         0.65505743
         0.6552745
         0.65549135
         0.655708
         0.65592444
         0.6561407
         0.6563567
         0.6565725
         0.6567881
         0.65700346
         0.65721864
         0.65743357
         0.6576483
         0.65786284
         0.6580772
         0.6582913
         0.6585052
         0.6587189
         0.6589324
         0.65914565
         0.65935874
         0.6595716
         0.65978426
         0.65999675
         0.660209
         0.660421
         0.66063285
         0.6608445
         0.6610559
         0.66126716
         0.6614782
         0.66168904
         0.6618997
         0.6621101
         0.6623203
         0.66253036
         0.6627402
         0.6629498
         0.66315925
         0.66336846
         0.6635775
         0.66378635
         0.66399497
         0.6642034
         0.66441166
         0.66461974
         0.6648276
         0.66503525
         0.6652427
         0.66545
         0.66565704
         0.66586393
         0.66607064
         0.6662771
         0.66648346
         0.6666896
         0.6668955
         0.6671012
         0.6673068
         0.6675121
         0.6677173
         0.66792226
         0.66812706
         0.6683317
         0.66853607
         0.66874033
         0.66894436
         0.6691482
         0.6693519
         0.66955537
         0.6697586
         0.66996175
         0.6701647
         0.6703674
         0.67056996
         0.6707724
         0.67097455
         0.67117655
         0.6713784
         0.67158
         0.6717815
         0.67198277
         0.6721839
         0.6723848
         0.67258555
         0.6727861
         0.6729865
         0.6731867
         0.6733867
         0.67358655
         0.6737862
         0.6739857
         0.67418504
         0.6743842
         0.67458314
         0.6747819
         0.6749805
         0.675179
         0.67537725
         0.6755753
         0.67577326
         0.675971
         0.67616856
         0.6763659
         0.67656314
         0.6767602
         0.6769571
         0.67715377
         0.67735034
         0.6775467
         0.6777429
         0.6779389
         0.67813474
         0.6783304
         0.6785259
         0.6787213
         0.67891645
         0.6791115
         0.6793063
         0.679501
         0.6796955
         0.6798898
         0.680084
         0.680278
         0.68047184
         0.6806655
         0.680859
         0.6810524
         0.68124557
         0.68143857
         0.6816314
         0.6818241
         0.6820166
         0.68220896
         0.6824012
         0.6825932
         0.6827851
         0.6829768
         0.68316835
         0.68335974
         0.68355095
         0.68374205
         0.68393296
         0.6841237
         0.6843143
         0.68450475
         0.684695
         0.6848851
         0.68507504
         0.6852649
         0.6854545
         0.685644
         0.68583333
         0.68602246
         0.68621147
         0.68640035
         0.68658906
         0.6867776
         0.686966
         0.68715423
         0.6873423
         0.6875302
         0.687718
         0.6879056
         0.68809307
         0.6882804
         0.68846756
         0.68865454
         0.6888414
         0.68902814
         0.68921465
         0.6894011
         0.68958735
         0.68977344
         0.68995935
         0.6901452
         0.6903308
         0.6905163
         0.69070166
         0.69088686
         0.6910719
         0.6912568
         0.6914416
         0.6916262
         0.6918106
         0.69199497
         0.6921791
         0.69236314
         0.692547
         0.6927307
         0.6929143
         0.6930977
         0.693281
         0.69346416
         0.69364715
         0.69383
         0.6940127
         0.6941953
         0.6943777
         0.69456
         0.6947421
         0.6949241
         0.6951059
         0.69528764
         0.6954692
         0.69565064
         0.6958319
         0.69601303
         0.69619405
         0.6963749
         0.6965556
         0.69673616
         0.6969166
         0.6970969
         0.697277
         0.6974571
         0.6976369
         0.69781667
         0.69799626
         0.6981757
         0.698355
         0.6985342
         0.69871324
         0.6988922
         0.69907093
         0.69924957
         0.699428
         0.6996064
         0.69978464
         0.69996274
         0.70014066
         0.70031846
         0.70049614
         0.7006737
         0.7008511
         0.70102835
         0.7012055
         0.7013825
         0.70155936
         0.70173615
         0.70191276
         0.7020892
         0.70226556
         0.70244175
         0.7026178
         0.7027938
         0.70296955
         0.70314527
         0.7033208
         0.7034962
         0.70367146
         0.70384663
         0.70402163
         0.7041966
         0.70437133
         0.7045459
         0.70472044
         0.7048948
         0.70506907
         0.7052432
         0.70541716
         0.705591
         0.7057647
         0.70593834
         0.7061118
         0.7062851
         0.70645833
         0.7066314
         0.7068044
         0.70697725
         0.70715
         0.70732254
         0.707495
         0.7076673
         0.70783955
         0.7080116
         0.7081835
         0.70835537
         0.7085271
         0.70869863
         0.7088701
         0.7090414
         0.70921266
         0.7093837
         0.7095547
         0.7097255
         0.7098962
         0.7100668
         0.71023726
         0.7104076
         0.71057785
         0.71074796
         0.7109179
         0.71108776
         0.71125746
         0.7114271
         0.7115966
         0.71176594
         0.7119352
         0.7121043
         0.7122733
         0.7124422
         0.71261096
         0.71277964
         0.71294814
         0.7131166
         0.71328485
         0.713453
         0.7136211
         0.713789
         0.71395683
         0.7141245
         0.71429205
         0.71445954
         0.71462685
         0.7147941
         0.7149612
         0.7151282
         0.7152951
         0.7154618
         0.71562845
         0.715795
         0.7159614
         0.7161277
         0.7162939
         0.71645993
         0.71662587
         0.7167917
         0.7169574
         0.717123
         0.7172885
         0.71745384
         0.7176191
         0.7177842
         0.7179493
         0.7181142
         0.71827894
         0.71844363
         0.71860826
         0.7187727
         0.71893704
         0.71910125
         0.7192654
         0.71942943
         0.7195933
         0.7197571
         0.71992075
         0.7200843
         0.7202478
         0.7204111
         0.7205743
         0.72073746
         0.7209005
         0.7210634
         0.72122616
         0.7213888
         0.7215514
         0.72171384
         0.7218762
         0.72203845
         0.7222006
         0.7223626
         0.7225245
         0.7226863
         0.722848
         0.7230096
         0.72317106
         0.7233324
         0.7234937
         0.7236548
         0.72381586
         0.7239768
         0.72413766
         0.72429836
         0.724459
         0.7246195
         0.7247799
         0.7249402
         0.7251004
         0.7252605
         0.7254205
         0.72558033
         0.7257401
         0.72589976
         0.7260593
         0.72621876
         0.7263781
         0.72653735
         0.7266965
         0.7268555
         0.7270144
         0.72717327
         0.727332
         0.7274906
         0.7276491
         0.7278075
         0.72796583
         0.728124
         0.7282821
         0.7284401
         0.728598
         0.7287558
         0.7289135
         0.7290711
         0.72922856
         0.7293859
         0.7295432
         0.7297004
         0.7298575
         0.73001444
         0.7301713
         0.7303281
         0.7304848
         0.73064137
         0.7307978
         0.7309542
         0.73111045
         0.7312666
         0.7314227
         0.73157865
         0.7317345
         0.7318903
         0.73204595
         0.7322016
         0.732357
         0.7325124
         0.7326677
         0.73282284
         0.7329779
         0.7331329
         0.7332878
         0.73344254
         0.7335973
         0.73375183
         0.7339063
         0.7340607
         0.734215
         0.7343692
         0.7345233
         0.7346773
         0.7348312
         0.73498505
         0.7351388
         0.7352924
         0.7354459
         0.73559934
         0.73575264
         0.7359059
         0.736059
         0.7362121
         0.736365
         0.73651785
         0.7366706
         0.7368233
         0.73697585
         0.7371283
         0.7372807
         0.737433
         0.7375852
         0.7377373
         0.7378893
         0.73804116
         0.738193
         0.7383447
         0.73849636
         0.7386479
         0.73879933
         0.73895067
         0.73910195
         0.7392531
         0.73940414
         0.7395551
         0.739706
         0.7398568
         0.7400075
         0.7401581
         0.74030864
         0.740459
         0.74060935
         0.7407596
