ocio-configs/luts/ts_acescct_108nits_to_linearcv.spi1d
Version 1
From 0.000000 1.000000
Length 4096
Components 1
{
         -6.737004e-14
         -6.737004e-14
         -6.737004e-14
         -6.737004e-14
         -6.737004e-14
         -6.737004e-14
         -6.737004e-14
         -6.737004e-14
         -6.737004e-14
         -6.737004e-14
         -6.737004e-14
         -6.737004e-14
         -6.737004e-14
         -6.737004e-14
         -6.737004e-14
         -6.737004e-14
         -6.737004e-14
         -6.737004e-14
         -6.737004e-14
         -6.737004e-14
         -6.737004e-14
         -6.737004e-14
         -6.737004e-14
         -6.737004e-14
         -6.737004e-14
         -6.737004e-14
         -6.737004e-14
         -6.737004e-14
         -6.737004e-14
         -6.737004e-14
         -6.737004e-14
         -6.737004e-14
         -6.737004e-14
         -6.737004e-14
         -6.737004e-14
         -6.737004e-14
         -6.737004e-14
         -6.737004e-14
         -6.737004e-14
         -6.737004e-14
         -6.737004e-14
         -6.737004e-14
         -6.737004e-14
         -6.737004e-14
         -6.737004e-14
         -6.737004e-14
         -6.737004e-14
         -6.737004e-14
         -6.737004e-14
         -6.737004e-14
         -6.737004e-14
         -6.737004e-14
         -6.737004e-14
         -6.737004e-14
         -6.737004e-14
         -6.737004e-14
         -6.737004e-14
         -6.737004e-14
         -6.737004e-14
         -6.737004e-14
         -6.737004e-14
         -6.737004e-14
         -6.737004e-14
         -6.737004e-14
         -6.737004e-14
         -6.737004e-14
         -6.737004e-14
         -6.737004e-14
         -6.737004e-14
         -6.737004e-14
         -6.737004e-14
         -6.737004e-14
         -6.737004e-14
         -6.737004e-14
         -6.737004e-14
         -6.737004e-14
         -6.737004e-14
         -6.737004e-14
         -6.737004e-14
         -6.737004e-14
         -6.737004e-14
         -6.737004e-14
         -6.737004e-14
         -6.737004e-14
         -6.737004e-14
         -6.737004e-14
         -6.737004e-14
         -6.737004e-14
         -6.737004e-14
         -6.737004e-14
         -6.737004e-14
         -6.737004e-14
         -6.737004e-14
         -6.737004e-14
         -6.737004e-14
         -6.737004e-14
         -6.737004e-14
         -6.737004e-14
         -6.737004e-14
         -6.737004e-14
         -6.737004e-14
         -6.737004e-14
         -6.737004e-14
         -6.737004e-14
         -6.737004e-14
         -6.737004e-14
         -6.737004e-14
         -6.737004e-14
         -6.737004e-14
         -6.737004e-14
         -6.737004e-14
         -6.737004e-14
         -6.737004e-14
         -6.737004e-14
         -6.737004e-14
         -6.737004e-14
         -6.737004e-14
         -6.737004e-14
         -6.737004e-14
         -6.737004e-14
         -6.737004e-14
         -6.737004e-14
         -6.737004e-14
         -6.737004e-14
         -6.737004e-14
         -6.737004e-14
         -6.737004e-14
         -6.737004e-14
         -6.737004e-14
         -6.737004e-14
         -6.737004e-14
         -6.737004e-14
         -6.737004e-14
         -6.737004e-14
         -6.737004e-14
         -6.737004e-14
         -6.737004e-14
         -6.737004e-14
         -6.737004e-14
         -6.737004e-14
         -6.737004e-14
         -6.737004e-14
         -6.737004e-14
         -6.737004e-14
         -6.737004e-14
         -6.737004e-14
         -6.737004e-14
         -6.737004e-14
         -6.737004e-14
         -6.737004e-14
         -6.737004e-14
         -6.737004e-14
         -6.737004e-14
         -6.737004e-14
         -6.737004e-14
         -6.737004e-14
         -6.737004e-14
         -6.737004e-14
         -6.737004e-14
         -6.737004e-14
         -6.737004e-14
         -6.737004e-14
         -6.737004e-14
         -6.737004e-14
         -6.737004e-14
         -6.737004e-14
         -6.737004e-14
         -6.737004e-14
         -6.737004e-14
         -6.737004e-14
         -6.737004e-14
         -6.737004e-14
         -6.737004e-14
         -6.737004e-14
         -6.737004e-14
         -6.737004e-14
         -6.737004e-14
         -6.737004e-14
         -6.737004e-14
         -6.737004e-14
         -6.737004e-14
         -6.737004e-14
         -6.737004e-14
         -6.737004e-14
         -6.737004e-14
         -6.737004e-14
         -6.737004e-14
         -6.737004e-14
         -6.737004e-14
         -6.737004e-14
         -6.737004e-14
         -6.737004e-14
         -6.737004e-14
         -6.737004e-14
         -6.737004e-14
         -6.737004e-14
         -6.737004e-14
         -6.737004e-14
         -6.737004e-14
         -6.737004e-14
         -6.737004e-14
         -6.737004e-14
         -6.737004e-14
         -6.737004e-14
         -6.737004e-14
         -6.737004e-14
         -6.737004e-14
         -6.737004e-14
         -6.737004e-14
         -6.737004e-14
         -6.737004e-14
         -6.737004e-14
         -6.737004e-14
         -6.737004e-14
         -6.737004e-14
         -6.737004e-14
         -6.737004e-14
         -6.737004e-14
         -6.737004e-14
         -6.737004e-14
         -6.737004e-14
         -6.737004e-14
         -6.737004e-14
         -6.737004e-14
         -6.737004e-14
         -6.737004e-14
         -6.737004e-14
         -6.737004e-14
         -6.737004e-14
         -6.737004e-14
         -6.737004e-14
         -6.737004e-14
         -6.737004e-14
         -6.737004e-14
         -6.737004e-14
         -6.737004e-14
         -6.737004e-14
         -6.737004e-14
         -6.737004e-14
         -6.737004e-14
         -6.737004e-14
         -6.737004e-14
         -6.737004e-14
         -6.737004e-14
         -6.737004e-14
         -6.737004e-14
         -6.737004e-14
         -6.737004e-14
         -6.737004e-14
         -6.737004e-14
         -6.737004e-14
         -6.737004e-14
         -6.737004e-14
         -6.737004e-14
         -6.737004e-14
         -6.737004e-14
         -6.737004e-14
         -6.737004e-14
         -6.737004e-14
         -6.737004e-14
         -6.737004e-14
         -6.737004e-14
         -6.737004e-14
         -6.737004e-14
         -6.737004e-14
         -6.737004e-14
         -6.737004e-14
         -6.737004e-14
         -6.737004e-14
         -6.737004e-14
         -6.737004e-14
         -6.737004e-14
         -6.737004e-14
         -6.737004e-14
         -6.737004e-14
         -6.737004e-14
         -6.737004e-14
         -6.737004e-14
         -6.737004e-14
         -6.737004e-14
         -6.737004e-14
         -6.737004e-14
         -6.737004e-14
         -6.737004e-14
         -6.737004e-14
         -6.737004e-14
         -6.737004e-14
         -6.737004e-14
         -6.737004e-14
         -6.737004e-14
         -6.737004e-14
         -6.737004e-14
         -6.737004e-14
         -6.737004e-14
         -6.737004e-14
         -6.737004e-14
         -6.737004e-14
         -6.737004e-14
         -6.737004e-14
         6.511503e-08
         3.8929247e-07
         6.783052e-07
         9.4461774e-07
         1.1968498e-06
         1.4394706e-06
         1.6782074e-06
         1.923124e-06
         2.1743901e-06
         2.431644e-06
         2.6947432e-06
         2.9635337e-06
         3.2380062e-06
         3.5180676e-06
         3.8037447e-06
         4.094973e-06
         4.391763e-06
         4.694145e-06
         5.002047e-06
         5.315534e-06
         5.634531e-06
         5.9591243e-06
         6.289235e-06
         6.6249304e-06
         6.9661414e-06
         7.312947e-06
         7.665274e-06
         8.0231985e-06
         8.386643e-06
         8.755702e-06
         9.130292e-06
         9.5104815e-06
         9.896203e-06
         1.028752e-05
         1.0684463e-05
         1.1086947e-05
         1.1495073e-05
         1.190875e-05
         1.2328087e-05
         1.2752975e-05
         1.3183535e-05
         1.361965e-05
         1.4061461e-05
         1.4508834e-05
         1.4961902e-05
         1.5420574e-05
         1.588495e-05
         1.635492e-05
         1.6830567e-05
         1.731193e-05
         1.7798931e-05
         1.829164e-05
         1.8790031e-05
         1.929417e-05
         1.980394e-05
         2.031947e-05
         2.084067e-05
         2.1367678e-05
         2.1900361e-05
         2.2438862e-05
         2.298302e-05
         2.3533043e-05
         2.4088773e-05
         2.4650275e-05
         2.5217623e-05
         2.5790701e-05
         2.6369653e-05
         2.6954356e-05
         2.7544931e-05
         2.8141281e-05
         2.8743554e-05
         2.9351619e-05
         2.9965579e-05
         3.0585332e-05
         3.1211064e-05
         3.184263e-05
         3.2480137e-05
         3.3123484e-05
         3.3772656e-05
         3.442795e-05
         3.508904e-05
         3.5756144e-05
         3.6429192e-05
         3.7108184e-05
         3.7793146e-05
         3.8484093e-05
         3.918102e-05
         3.988399e-05
         4.0592942e-05
         4.1307947e-05
         4.2028936e-05
         4.2756044e-05
         4.3489086e-05
         4.4228145e-05
         4.4973454e-05
         4.5724708e-05
         4.648215e-05
         4.7245645e-05
         4.8015252e-05
         4.8790964e-05
         4.9572853e-05
         5.0360857e-05
         5.115502e-05
         5.1955325e-05
         5.276184e-05
         5.3574546e-05
         5.4393433e-05
         5.521844e-05
         5.604977e-05
         5.6887235e-05
         5.7730973e-05
         5.8581e-05
         5.9437196e-05
         6.029978e-05
         6.116856e-05
         6.2043604e-05
         6.2925006e-05
         6.38127e-05
         6.470669e-05
         6.56071e-05
         6.651365e-05
         6.742685e-05
         6.834617e-05
         6.927197e-05
         7.020406e-05
         7.114266e-05
         7.208765e-05
         7.303897e-05
         7.399683e-05
         7.496096e-05
         7.593169e-05
         7.690885e-05
         7.789246e-05
         7.888257e-05
         7.987922e-05
         8.088226e-05
         8.189183e-05
         8.2907914e-05
         8.393066e-05
         8.495984e-05
         8.599552e-05
         8.7037944e-05
         8.808667e-05
         8.9142326e-05
         9.0204376e-05
         9.127318e-05
         9.234848e-05
         9.3430506e-05
         9.451899e-05
         9.561432e-05
         9.671626e-05
         9.782499e-05
         9.894021e-05
         0.0001000622
         0.000101190904
         0.00010232627
         0.00010346843
         0.00010461738
         0.00010577308
         0.00010693542
         0.000108104745
         0.000109280714
         0.000110463574
         0.000111653215
         0.00011284956
         0.00011405278
         0.000115262985
         0.000116479874
         0.00011770384
         0.00011893458
         0.00012017202
         0.000121416575
         0.00012266786
         0.00012392628
         0.00012519155
         0.00012646383
         0.00012774297
         0.00012902914
         0.00013032192
         0.00013162236
         0.00013292932
         0.00013424334
         0.00013556461
         0.0001368925
         0.00013822799
         0.00013956985
         0.00014091747
         0.00014227019
         0.00014362835
         0.00014499167
         0.00014636062
         0.00014773461
         0.00014911398
         0.00015049864
         0.00015188864
         0.00015328397
         0.0001546844
         0.00015609022
         0.00015750149
         0.00015891742
         0.00016033895
         0.00016176543
         0.0001631971
         0.0001646341
         0.00016607635
         0.00016752402
         0.00016897624
         0.00017043426
         0.00017189689
         0.00017336487
         0.00017483793
         0.00017631597
         0.00017779955
         0.00017928795
         0.00018078164
         0.00018228046
         0.00018378413
         0.00018529252
         0.00018680644
         0.00018832523
         0.00018984934
         0.00019137815
         0.00019291228
         0.00019445118
         0.0001959955
         0.00019754424
         0.00019909824
         0.00020065733
         0.00020222156
         0.00020379017
         0.0002053638
         0.0002069426
         0.00020852649
         0.0002101152
         0.00021170886
         0.00021330746
         0.00021491092
         0.00021651943
         0.00021813279
         0.00021975099
         0.0002213739
         0.00022300192
         0.00022463447
         0.00022627228
         0.00022791456
         0.00022956207
         0.000231214
         0.00023287155
         0.00023453344
         0.00023619972
         0.00023787154
         0.00023954766
         0.00024122903
         0.00024291471
         0.00024460515
         0.00024630065
         0.0002480008
         0.00024970612
         0.00025141556
         0.00025313022
         0.00025484952
         0.00025657314
         0.00025830223
         0.00026003545
         0.00026177353
         0.0002635161
         0.00026526372
         0.0002670161
         0.00026877277
         0.00027053436
         0.00027230018
         0.00027407164
         0.00027584666
         0.00027762738
         0.0002794119
         0.00028120124
         0.0002829959
         0.0002847943
         0.0002865976
         0.00028840537
         0.0002902183
         0.00029203526
         0.00029385742
         0.00029568322
         0.00029751414
         0.00029934966
         0.0003011901
         0.0003030349
         0.00030488372
         0.0003067378
         0.00030859615
         0.00031045882
         0.00031232656
         0.00031419794
         0.0003160744
         0.0003179553
         0.00031984068
         0.0003217308
         0.00032362543
         0.0003255242
         0.00032742778
         0.00032933606
         0.00033124804
         0.00033316496
         0.00033508596
         0.00033701208
         0.00033894248
         0.0003408773
         0.00034281643
         0.0003447595
         0.00034670826
         0.00034866013
         0.0003506172
         0.00035257786
         0.00035454368
         0.00035651398
         0.0003584887
         0.00036046794
         0.00036245096
         0.00036443793
         0.00036643015
         0.0003684267
         0.00037042735
         0.0003724328
         0.00037444185
         0.00037645543
         0.00037847363
         0.00038049577
         0.00038252308
         0.00038455415
         0.0003865897
         0.00038862907
         0.0003906732
         0.00039272165
         0.00039477448
         0.00039683128
         0.00039889239
         0.00040095983
         0.0004030338
         0.00040511985
         0.00040721538
         0.0004093202
         0.00041143864
         0.00041356368
         0.00041570366
         0.00041785068
         0.00042001216
         0.00042218278
         0.0004243625
         0.00042655697
         0.00042875882
         0.00043097476
         0.00043320068
         0.00043543722
         0.00043768686
         0.00043994415
         0.00044221786
         0.0004444992
         0.00044679383
         0.00044909946
         0.00045141543
         0.0004537463
         0.00045608432
         0.00045843865
         0.00046080304
         0.0004631785
         0.00046556816
         0.0004679658
         0.00047037986
         0.00047280354
         0.00047524017
         0.00047768978
         0.0004801497
         0.00048262457
         0.00048510844
         0.00048760904
         0.0004901194
         0.00049264304
         0.00049518014
         0.0004977264
         0.00050029106
         0.00050286524
         0.0005054531
         0.0005080545
         0.0005106668
         0.00051329524
         0.00051593385
         0.0005185888
         0.0005212541
         0.000523934
         0.00052662846
         0.0005293331
         0.000532056
         0.0005347897
         0.00053753844
         0.0005403009
         0.00054307515
         0.00054586626
         0.00054866675
         0.00055148685
         0.0005543177
         0.00055716455
         0.00056002545
         0.0005628971
         0.0005657893
         0.0005686902
         0.00057160977
         0.0005745415
         0.00057748804
         0.00058045186
         0.0005834262
         0.0005864206
         0.00058942655
         0.0005924486
         0.0005954861
         0.0005985358
         0.0006016065
         0.00060468697
         0.00060778594
         0.0006108998
         0.0006140273
         0.00061717397
         0.00062033196
         0.00062351103
         0.00062670256
         0.00062991196
         0.0006331363
         0.00063637487
         0.00063963427
         0.0006429045
         0.0006461955
         0.00064950227
         0.00065282284
         0.0006561634
         0.00065951527
         0.0006628912
         0.0006662784
         0.0006696854
         0.0006731085
         0.0006765458
         0.000680006
         0.00068347866
         0.0006869723
         0.00069048064
         0.00069400657
         0.0006975538
         0.0007011119
         0.0007046956
         0.00070829043
         0.00071190804
         0.00071554084
         0.0007191904
         0.0007228636
         0.0007265486
         0.0007302572
         0.00073398114
         0.0007377251
         0.00074148906
         0.0007452671
         0.00074906903
         0.0007528869
         0.0007567267
         0.00076058356
         0.00076445634
         0.00076835474
         0.00077226525
         0.0007762029
         0.0007801555
         0.000784129
         0.0007881245
         0.000792132
         0.00079616945
         0.0008002213
         0.00080429576
         0.00080838916
         0.0008125008
         0.0008166383
         0.00082078966
         0.0008249675
         0.00082916266
         0.0008333797
         0.00083761767
         0.0008418733
         0.0008461579
         0.00085045694
         0.0008547808
         0.0008591263
         0.00086349103
         0.00086787954
         0.0008722851
         0.00087672
         0.00088117167
         0.0008856468
         0.0008901456
         0.0008946603
         0.00089920725
         0.00090376823
         0.00090835895
         0.0009129691
         0.00091760047
         0.0009222565
         0.0009269314
         0.00093163864
         0.00093636266
         0.00094110874
         0.0009458848
         0.0009506766
         0.00095550023
         0.0009603396
         0.0009652111
         0.00097010116
         0.0009750142
         0.000979957
         0.0009849175
         0.0009899121
         0.0009949215
         0.0009999629
         0.0010050264
         0.001010112
         0.0010152287
         0.0010203643
         0.0010255303
         0.0010307215
         0.0010359342
         0.0010411784
         0.001046441
         0.0010517387
         0.001057055
         0.0010624037
         0.0010677743
         0.0010731696
         0.0010785992
         0.0010840468
         0.0010895287
         0.0010950329
         0.001100566
         0.0011061296
         0.0011117144
         0.0011173327
         0.0011229714
         0.0011286451
         0.0011343425
         0.0011400677
         0.0011458278
         0.0011516066
         0.0011574217
         0.001163261
         0.0011691304
         0.001175032
         0.0011809515
         0.0011869149
         0.0011928973
         0.0011989163
         0.0012049614
         0.001211033
         0.0012171409
         0.0012232708
         0.001229441
         0.0012356344
         0.0012418603
         0.0012481186
         0.0012543991
         0.0012607226
         0.0012670698
         0.0012734538
         0.0012798641
         0.0012863057
         0.0012927861
         0.0012992859
         0.0013058301
         0.0013123974
         0.0013190007
         0.0013256401
         0.001332303
         0.0013390078
         0.001345738
         0.0013525089
         0.0013593093
         0.0013661408
         0.00137301
         0.001379905
         0.0013868475
         0.0013938143
         0.0014008159
         0.0014078574
         0.0014149209
         0.0014220356
         0.0014291707
         0.001436351
         0.0014435631
         0.0014508078
         0.0014580928
         0.0014654049
         0.0014727651
         0.0014801531
         0.0014875794
         0.0014950444
         0.0015025394
         0.0015100796
         0.0015176482
         0.0015252624
         0.0015329097
         0.001540592
         0.0015483146
         0.0015560683
         0.0015638727
         0.0015717064
         0.0015795835
         0.0015874984
         0.0015954439
         0.0016034411
         0.0016114664
         0.0016195375
         0.0016276459
         0.0016357915
         0.0016439843
         0.0016522035
         0.0016604809
         0.0016687844
         0.0016771357
         0.0016855237
         0.0016939519
         0.0017024309
         0.0017109397
         0.0017194952
         0.0017280913
         0.0017367277
         0.0017454159
         0.0017541272
         0.001762903
         0.0017717088
         0.001780563
         0.0017894552
         0.0017983906
         0.0018073772
         0.0018163926
         0.0018254695
         0.0018345808
         0.0018437415
         0.0018529469
         0.0018621843
         0.0018714876
         0.0018808226
         0.0018902064
         0.0018996352
         0.0019091048
         0.0019186343
         0.0019281912
         0.0019378158
         0.0019474716
         0.0019571797
         0.0019669374
         0.0019767315
         0.001986593
         0.0019964832
         0.002006435
         0.0020164303
         0.0020264671
         0.0020365654
         0.0020466982
         0.0020568979
         0.0020671347
         0.0020774216
         0.0020877675
         0.0020981492
         0.002108595
         0.002119084
         0.0021296316
         0.0021402256
         0.0021508643
         0.0021615669
         0.0021723064
         0.0021831167
         0.0021939664
         0.0022048692
         0.0022158346
         0.002226837
         0.0022379118
         0.0022490213
         0.0022602035
         0.0022714275
         0.0022827059
         0.0022940487
         0.0023054266
         0.0023168833
         0.0023283823
         0.0023399398
         0.0023515602
         0.0023632166
         0.0023749562
         0.002386733
         0.002398577
         0.0024104712
         0.0024224264
         0.0024344425
         0.0024465006
         0.0024586436
         0.0024708284
         0.0024830794
         0.0024953862
         0.0025077423
         0.002520179
         0.0025326577
         0.0025452082
         0.002557815
         0.0025704836
         0.0025832164
         0.0025959963
         0.0026088634
         0.0026217708
         0.0026347481
         0.0026477885
         0.0026608843
         0.0026740609
         0.0026872798
         0.0027005805
         0.002713938
         0.002727361
         0.0027408518
         0.0027543926
         0.002768022
         0.002781698
         0.0027954513
         0.0028092624
         0.002823141
         0.0028371024
         0.002851107
         0.0028652032
         0.002879351
         0.002893571
         0.0029078643
         0.0029222101
         0.0029366487
         0.002951137
         0.0029657078
         0.0029803435
         0.0029950424
         0.0030098325
         0.0030246654
         0.0030395985
         0.0030545862
         0.0030696504
         0.0030847958
         0.0030999933
         0.003115289
         0.0031306362
         0.003146067
         0.0031615766
         0.0031771471
         0.0031928138
         0.0032085213
         0.0032243433
         0.003240216
         0.003256177
         0.0032722156
         0.0032883126
         0.0033045148
         0.0033207717
         0.0033371206
         0.0033535438
         0.0033700457
         0.0033866353
