ocio-configs/luts/ts_acescct_1000nits_to_hlg.spi1d
Version 1
From 0.000000 1.000000
Length 4096
Components 1
{
         0.0020984367
         0.0020984367
         0.0020984367
         0.0020984367
         0.0020984367
         0.0020984367
         0.0020984367
         0.0020984367
         0.0020984367
         0.0020984367
         0.0020984367
         0.0020984367
         0.0020984367
         0.0020984367
         0.0020984367
         0.0020984367
         0.0020984367
         0.0020984367
         0.0020984367
         0.0020984367
         0.0020984367
         0.0020984367
         0.0020984367
         0.0020984367
         0.0020984367
         0.0020984367
         0.0020984367
         0.0020984367
         0.0020984367
         0.0020984367
         0.0020984367
         0.0020984367
         0.0020984367
         0.0020984367
         0.0020984367
         0.0020984367
         0.0020984367
         0.0020984367
         0.0020984367
         0.0020984367
         0.0020984367
         0.0020984367
         0.0020984367
         0.0020984367
         0.0020984367
         0.0020984367
         0.0020984367
         0.0020984367
         0.0020984367
         0.0020984367
         0.0020984367
         0.0020984367
         0.0020984367
         0.0020984367
         0.0020984367
         0.0020984367
         0.0020984367
         0.0020984367
         0.0020984367
         0.0020984367
         0.0020984367
         0.0020984367
         0.0020984367
         0.0020984367
         0.0020984367
         0.0020984367
         0.0020984367
         0.0020984367
         0.0020984367
         0.0020984367
         0.0020984367
         0.0020984367
         0.0020984367
         0.0020984367
         0.0020984367
         0.0020984367
         0.0020984367
         0.0020984367
         0.0020984367
         0.0020984367
         0.0020984367
         0.0020984367
         0.0020984367
         0.0020984367
         0.0020984367
         0.0020984367
         0.0020984367
         0.0020984367
         0.0020984367
         0.0020984367
         0.0020984367
         0.0020984367
         0.0020984367
         0.0020984367
         0.0020984367
         0.0020984367
         0.0020984367
         0.0020984367
         0.0020984367
         0.0020984367
         0.0020984367
         0.0020984367
         0.0020984367
         0.0020984367
         0.0020984367
         0.0020984367
         0.0020984367
         0.0020984367
         0.0020984367
         0.0020984367
         0.0020984367
         0.0020984367
         0.0020984367
         0.0020984367
         0.0020984367
         0.0020984367
         0.0020984367
         0.0020984367
         0.0020984367
         0.0020984367
         0.0020984367
         0.0020984367
         0.0020984367
         0.0020984367
         0.0020984367
         0.0020984367
         0.0020984367
         0.0020984367
         0.0020984367
         0.0020984367
         0.0020984367
         0.0020984367
         0.0020984367
         0.0020984367
         0.0020984367
         0.0020984367
         0.0020984367
         0.0020984367
         0.0020984367
         0.0020984367
         0.0020984367
         0.0020984367
         0.0020984367
         0.0020984367
         0.0020984367
         0.0020984367
         0.0020984367
         0.0020984367
         0.0020984367
         0.0020984367
         0.0020984367
         0.0020984367
         0.0020984367
         0.0020984367
         0.0020984367
         0.0020984367
         0.0020984367
         0.0020984367
         0.0020984367
         0.0020984367
         0.0020984367
         0.0020984367
         0.0020984367
         0.0020984367
         0.0020984367
         0.0020984367
         0.0020984367
         0.0020984367
         0.0020984367
         0.0020984367
         0.0020984367
         0.0020984367
         0.0020984367
         0.0020984367
         0.0020984367
         0.0020984367
         0.0020984367
         0.0020984367
         0.0020984367
         0.0020984367
         0.0020984367
         0.0020984367
         0.0020984367
         0.0020984367
         0.0020984367
         0.0020984367
         0.0020984367
         0.0020984367
         0.0020984367
         0.0020984367
         0.0020984367
         0.0020984367
         0.0020984367
         0.0020984367
         0.0020984367
         0.0020984367
         0.0020984367
         0.0020984367
         0.0020984367
         0.0020984367
         0.0020984367
         0.0020984367
         0.0020984367
         0.0020984367
         0.0020984367
         0.0020984367
         0.0020984367
         0.0020984367
         0.0020984367
         0.0020984367
         0.0020984367
         0.0020984367
         0.0020984367
         0.0020984367
         0.0020984367
         0.0020984367
         0.0020984367
         0.0020984367
         0.0020984367
         0.0020984367
         0.0020984367
         0.0020984367
         0.0020984367
         0.0020984367
         0.0020984367
         0.0020984367
         0.0020984367
         0.0020984367
         0.0020984367
         0.0020984367
         0.0020984367
         0.0020984367
         0.0020984367
         0.0020984367
         0.0020984367
         0.0020984367
         0.0020984367
         0.0020984367
         0.0020984367
         0.0020984367
         0.0020984367
         0.0020984367
         0.0020984367
         0.0020984367
         0.0020984367
         0.0020984367
         0.0020984367
         0.0020984367
         0.0020984367
         0.0020984367
         0.0020984367
         0.0020984367
         0.0020984367
         0.0020984367
         0.0020984367
         0.0020984367
         0.0020984367
         0.0020984367
         0.0020984367
         0.0020984367
         0.0020984367
         0.0020984367
         0.0020984367
         0.0020984367
         0.0020984367
         0.0020984367
         0.0020984367
         0.0020984367
         0.0020984367
         0.0020984367
         0.0020984367
         0.0020984367
         0.0020984367
         0.0020984367
         0.0020984367
         0.0020984367
         0.0020984367
         0.0020984367
         0.0020984367
         0.0020984367
         0.0020984367
         0.0020984367
         0.0020984367
         0.0020984367
         0.0020984367
         0.0020984367
         0.0020984367
         0.0020984367
         0.0020984367
         0.0020984367
         0.0020984367
         0.0020984367
         0.0020984367
         0.0020984367
         0.0020984367
         0.0020984367
         0.0020984367
         0.0020984367
         0.0020984367
         0.0022475773
         0.002632492
         0.0029116513
         0.003140822
         0.003348178
         0.0035469544
         0.0037382194
         0.00392286
         0.0041018818
         0.0042759376
         0.004445781
         0.0046117906
         0.0047744475
         0.0049341037
         0.005091098
         0.0052455827
         0.0053978
         0.0055480595
         0.005696361
         0.0058430387
         0.005987972
         0.0061315573
         0.0062736887
         0.0064145587
         0.0065542315
         0.006692652
         0.006830114
         0.006966553
         0.007102089
         0.0072365655
         0.007370353
         0.0075032846
         0.00763545
         0.0077668387
         0.007897644
         0.008027755
         0.008157178
         0.0082860645
         0.008414341
         0.008541981
         0.008669214
         0.008795968
         0.008922171
         0.009047938
         0.009173142
         0.009298113
         0.009422511
         0.009546568
         0.009670231
         0.009793561
         0.009916501
         0.010039118
         0.010161366
         0.010283404
         0.010404903
         0.010526278
         0.010647346
         0.01076809
         0.010888706
         0.01100889
         0.011128828
         0.011248599
         0.011368122
         0.011487381
         0.011606398
         0.011725194
         0.0118438015
         0.0119622005
         0.012080411
         0.012198367
         0.01231623
         0.012433859
         0.012551335
         0.0126686795
         0.01278582
         0.0129027665
         0.013019351
         0.013136146
         0.013252656
         0.013368926
         0.0134851225
         0.013601233
         0.013717128
         0.013832887
         0.013948558
         0.01406414
         0.0141795315
         0.014294892
         0.014410009
         0.014525119
         0.014640153
         0.014754894
         0.014869678
         0.014984305
         0.015098804
         0.015213291
         0.015327682
         0.015441864
         0.015556121
         0.015670208
         0.015784245
         0.015898088
         0.01601197
         0.016125765
         0.016239498
         0.016353013
         0.016466616
         0.016580043
         0.016693383
         0.016806792
         0.01691998
         0.01703316
         0.017145997
         0.017258665
         0.017370824
         0.017482925
         0.017594583
         0.017706059
         0.017817168
         0.017928027
         0.018038621
         0.018148959
         0.018259006
         0.018368741
         0.018478291
         0.0185875
         0.01869652
         0.018805169
         0.018913599
         0.019021848
         0.019129876
         0.01923748
         0.019345073
         0.019452201
         0.019559175
         0.019665819
         0.019772377
         0.019878596
         0.01998456
         0.020090325
         0.02019608
         0.020301357
         0.020406296
         0.020511296
         0.020615807
         0.020720383
         0.020824598
         0.020928627
         0.02103238
         0.02113604
         0.02123938
         0.021342503
         0.02144541
         0.021548228
         0.021650674
         0.021753008
         0.02185524
         0.021957083
         0.02205881
         0.02216039
         0.022261716
         0.022362879
         0.022463752
         0.022564612
         0.02266517
         0.022765553
         0.02286576
         0.022965658
         0.023065645
         0.0231653
         0.023264762
         0.023364
         0.023463052
         0.023562023
         0.023660766
         0.023759296
         0.02385792
         0.023956098
         0.024054023
         0.024151884
         0.0242498
         0.024347138
         0.024444504
         0.02454177
         0.024638735
         0.024735747
         0.02483247
         0.024929073
         0.025025375
         0.025121678
         0.025217837
         0.025313713
         0.025409536
         0.025505066
         0.025600426
         0.02569576
         0.025790915
         0.02588596
         0.025980722
         0.026075523
         0.026170138
         0.026264373
         0.026358759
         0.026452897
         0.02654686
         0.0266406
         0.026734319
         0.026827991
         0.026921397
         0.027014626
         0.027107736
         0.027200654
         0.027293468
         0.02738605
         0.027478784
         0.02757106
         0.027663436
         0.027755532
         0.027847566
         0.02793951
         0.028031347
         0.028122922
         0.028214423
         0.028305812
         0.028396886
         0.028488072
         0.028578904
         0.028670108
         0.028760545
         0.028851286
         0.028941726
         0.029032022
         0.029122174
         0.02921244
         0.029302325
         0.029392088
         0.029481957
         0.029571643
         0.029660981
         0.029750433
         0.02983967
         0.029928803
         0.030017965
         0.030106738
         0.030195385
         0.030284278
         0.030372582
         0.03046137
         0.030549519
         0.030637722
         0.030725759
         0.030813871
         0.030901732
         0.030989408
         0.031077165
         0.031164687
         0.03125208
         0.031339414
         0.031426582
         0.031513788
         0.031600744
         0.031687535
         0.03177453
         0.03186109
         0.031947665
         0.032034058
         0.03212043
         0.03220675
         0.0322929
         0.03237886
         0.032464962
         0.032550875
         0.03263656
         0.032721985
         0.032807656
         0.032893065
         0.032978427
         0.03306358
         0.033148758
         0.033233866
         0.033318955
         0.03340355
         0.033488594
         0.033573132
         0.03365768
         0.03374215
         0.03382639
         0.0339108
         0.033994716
         0.03407909
         0.034162898
         0.034247003
         0.034330714
         0.034414213
         0.034497906
         0.034581255
         0.03466479
         0.034748126
         0.034831315
         0.03491456
         0.034997664
         0.035080504
         0.03516353
         0.03524622
         0.035329115
         0.03541167
         0.03549421
         0.035576668
         0.035659052
         0.035741407
         0.035823375
         0.035905603
         0.03598746
         0.036069527
         0.036151204
         0.036233097
         0.0363149
         0.03639634
         0.03647775
         0.03655932
         0.03664084
         0.036721952
         0.03680301
         0.036884006
         0.03696512
         0.037045863
         0.037126586
         0.037207477
         0.03728825
         0.03736887
         0.037449155
         0.03752996
         0.037610326
         0.03769035
         0.037770804
         0.03785113
         0.037930828
         0.03801096
         0.038090967
         0.03817159
         0.038251676
         0.038331952
         0.038412526
         0.03849354
         0.038574755
         0.03865589
         0.03873757
         0.038819104
         0.038900573
         0.038982477
         0.039064348
         0.039146714
         0.03922865
         0.03931139
         0.039394125
         0.03947659
         0.039559606
         0.039642632
         0.039725814
         0.039809797
         0.03989336
         0.039977167
         0.0400608
         0.04014507
         0.040229816
         0.04031412
         0.04039859
         0.040483322
         0.040568616
         0.040653724
         0.040738784
         0.040824313
         0.040910114
         0.040995825
         0.04108169
         0.04116778
         0.04125449
         0.041340966
         0.041427646
         0.041514646
         0.04160145
         0.04168853
         0.04177608
         0.041863922
         0.041950967
         0.042039234
         0.04212736
         0.042215385
         0.04230427
         0.042392787
         0.04248143
         0.042570665
         0.0426591
         0.042748414
         0.04283766
         0.042927098
         0.04301778
         0.043107655
         0.04319781
         0.04328814
         0.043378994
         0.043469433
         0.04356011
         0.043651685
         0.043742824
         0.04383408
         0.043925285
         0.044017777
         0.044109542
         0.044202067
         0.044293802
         0.04438615
         0.04447942
         0.04457223
         0.044665292
         0.04475847
         0.044852037
         0.04494573
         0.045039672
         0.045133088
         0.045227956
         0.045321383
         0.045416027
         0.045511488
         0.04560614
         0.04570133
         0.045796815
         0.045892123
         0.04598768
         0.04608347
         0.04617956
         0.046276595
         0.0463727
         0.046469096
         0.0465661
         0.046662915
         0.046759613
         0.04685735
         0.046954952
         0.047052752
         0.047150858
         0.047248717
         0.047346834
         0.0474453
         0.047544334
         0.04764361
         0.047743127
         0.047841366
         0.047941383
         0.048041288
         0.048141442
         0.048240926
         0.048341576
         0.04844161
         0.048542716
         0.04864331
         0.04874492
         0.04884647
         0.048947312
         0.049049307
         0.049151104
         0.049253225
         0.049355924
         0.0494581
         0.049560543
         0.04966318
         0.049766522
         0.049869727
         0.049973138
         0.05007732
         0.050180785
         0.050285496
         0.05038869
         0.050493393
         0.05059837
         0.050703734
         0.050808243
         0.05091366
         0.05101969
         0.051125575
         0.051231325
         0.051336806
         0.0514435
         0.05155038
         0.0516572
         0.051764216
         0.051872015
         0.051978577
         0.05208592
         0.052194074
         0.05230196
         0.05241059
         0.0525186
         0.05262778
         0.052735914
         0.052845575
         0.052955084
         0.053064447
         0.05317409
         0.053283587
         0.05339413
         0.0535046
         0.053614903
         0.053726293
         0.053837154
         0.053948678
         0.05406003
         0.05417166
         0.054283578
         0.054395765
         0.054507814
         0.0546205
         0.0547336
         0.05484649
         0.05495952
         0.05507347
         0.055187073
         0.055300567
         0.055414364
         0.05552874
         0.055643305
         0.05575774
         0.05587319
         0.055988338
         0.05610384
         0.05621964
         0.056335717
         0.0564509
         0.056567635
         0.05668453
         0.056801323
         0.056918252
         0.057036087
         0.057152625
         0.057271056
         0.057389162
         0.057506654
         0.057625424
         0.05774444
         0.057862867
         0.057981927
         0.058101352
         0.058221158
         0.05834016
         0.058460478
         0.058580082
         0.058701
         0.05882217
         0.05894307
         0.05906394
         0.05918561
         0.059306994
         0.059429206
         0.059551697
         0.059673384
         0.059796154
         0.0599195
         0.06004231
         0.060165796
         0.06028907
         0.060412593
         0.060536426
         0.06066078
         0.060785297
         0.060910124
         0.061035275
         0.06116066
         0.061285906
         0.061411936
         0.061537318
         0.06166403
         0.06178981
         0.06191775
         0.06204365
         0.062171124
         0.062298913
         0.06242635
         0.06255477
         0.062682256
         0.06281142
         0.06293953
         0.06306864
         0.06319748
         0.063327156
         0.06345665
         0.06358644
         0.063717104
         0.063847564
         0.06397849
         0.064108826
         0.064240195
         0.06437087
         0.06450404
         0.0646353
         0.06476688
         0.06489927
         0.065032676
         0.065165795
         0.065298
         0.06543194
         0.065565996
         0.06569933
         0.06583413
         0.06596934
         0.066103525
         0.06623861
         0.066374205
         0.066509485
         0.066645026
         0.06678105
         0.06691719
         0.067054
         0.067190886
         0.06732755
         0.067465216
         0.06760314
         0.0677414
         0.06787951
         0.0680179
         0.06815539
         0.068294466
         0.06843371
         0.06857481
         0.06871368
         0.06885422
         0.06899429
         0.06913562
         0.0692758
         0.06941691
         0.069558464
         0.06969977
         0.06984143
         0.069984734
         0.070126325
         0.07026913
         0.07041212
         0.07055556
         0.07069935
         0.07084333
         0.07098714
         0.07113141
         0.07127585
         0.07142083
         0.07156679
         0.07171224
         0.07185696
         0.07200394
         0.07215075
         0.072297014
         0.07244437
         0.07259084
         0.072738305
         0.07288533
         0.0730337
         0.0731831
         0.07333039
         0.07347988
         0.073629655
         0.07377824
         0.07392859
         0.07407738
         0.0742292
         0.07437937
         0.074530646
         0.0746815
         0.074832864
         0.07498446
         0.07513643
         0.07528887
         0.07544092
         0.07559486
         0.07574834
         0.07590165
         0.07605514
         0.076209195
         0.07636355
         0.076518275
         0.076673396
         0.076828815
         0.07698413
         0.07713964
         0.07729622
         0.07745328
         0.07760996
         0.077766426
         0.0779239
         0.07808106
         0.078239985
         0.07839725
         0.07855619
         0.078715906
         0.078874744
         0.07903357
         0.079192705
         0.07935364
         0.07951363
         0.07967538
         0.07983539
         0.07999631
         0.08015954
         0.08031986
         0.08048308
         0.08064479
         0.08080814
         0.08097066
         0.081134796
         0.08129905
         0.081462994
         0.081627354
         0.0817921
         0.081956625
         0.08212212
         0.08228738
         0.08245377
         0.0826207
         0.082786985
         0.082953155
         0.08312037
         0.083288096
         0.083456144
         0.083623864
         0.083792016
         0.08396218
         0.084130295
         0.08430044
         0.084470265
         0.084639646
         0.0848103
         0.08498129
         0.08515204
         0.08532388
         0.08549537
         0.08566719
         0.08583964
         0.0860123
         0.08618571
         0.08635925
         0.08653244
         0.08670694
         0.08688185
         0.087055765
         0.08723056
         0.087405816
         0.0875809
         0.08775812
         0.08793457
         0.08811005
         0.08828758
         0.08846567
         0.08864316
         0.0888203
         0.08899879
         0.08917845
         0.089355946
         0.08953579
         0.08971524
         0.089895844
         0.09007597
         0.09025678
         0.0904378
         0.09061939
         0.09080142
         0.090982966
         0.09116589
         0.09134762
         0.09153028
         0.09171386
         0.09189851
         0.09208278
         0.09226749
         0.092451826
         0.09263747
         0.0928216
         0.09300841
         0.093195334
         0.093381956
         0.09356808
         0.09375464
         0.09394353
         0.0941319
         0.094319
         0.0945082
         0.09469721
         0.09488658
         0.0950763
         0.09526661
         0.09545728
         0.095648535
         0.095838234
         0.09603057
         0.09622225
         0.0964144
         0.096607015
         0.09680011
         0.096993685
         0.09718775
         0.097381264
         0.09757628
         0.097770765
         0.09796478
         0.09816139
         0.09835718
         0.09855387
         0.09875062
         0.098947085
         0.099144034
         0.0993424
         0.09954031
         0.099739544
         0.09993846
         0.10013691
         0.10033788
         0.10053695
         0.100737944
         0.10093693
         0.101137996
         0.101341195
         0.10154205
         0.1017453
         0.101947136
         0.1021503
         0.10235412
         0.10255736
         0.102762155
         0.10296651
         0.103171244
         0.103376605
         0.1035825
         0.10378847
         0.103995256
         0.10420165
         0.10440823
         0.10461564
         0.10482445
         0.10503141
         0.10524141
         0.10545079
         0.10566068
         0.10586993
         0.1060806
         0.10629104
         0.106501736
         0.106714234
         0.10692599
         0.107137345
