ocio-configs/luts/ts_acescct_48nits_to_linearcv.spi1d
Version 1
From 0.000000 1.000000
Length 4096
Components 1
{
         -1.1646385e-10
         -1.1646385e-10
         -1.1646385e-10
         -1.1646385e-10
         -1.1646385e-10
         -1.1646385e-10
         -1.1646385e-10
         -1.1646385e-10
         -1.1646385e-10
         -1.1646385e-10
         -1.1646385e-10
         -1.1646385e-10
         -1.1646385e-10
         -1.1646385e-10
         -1.1646385e-10
         -1.1646385e-10
         -1.1646385e-10
         -1.1646385e-10
         -1.1646385e-10
         -1.1646385e-10
         -1.1646385e-10
         -1.1646385e-10
         -1.1646385e-10
         -1.1646385e-10
         -1.1646385e-10
         -1.1646385e-10
         -1.1646385e-10
         -1.1646385e-10
         -1.1646385e-10
         -1.1646385e-10
         -1.1646385e-10
         -1.1646385e-10
         -1.1646385e-10
         -1.1646385e-10
         -1.1646385e-10
         -1.1646385e-10
         -1.1646385e-10
         -1.1646385e-10
         -1.1646385e-10
         -1.1646385e-10
         -1.1646385e-10
         -1.1646385e-10
         -1.1646385e-10
         -1.1646385e-10
         -1.1646385e-10
         -1.1646385e-10
         -1.1646385e-10
         -1.1646385e-10
         -1.1646385e-10
         -1.1646385e-10
         -1.1646385e-10
         -1.1646385e-10
         -1.1646385e-10
         -1.1646385e-10
         -1.1646385e-10
         -1.1646385e-10
         -1.1646385e-10
         -1.1646385e-10
         -1.1646385e-10
         -1.1646385e-10
         -1.1646385e-10
         -1.1646385e-10
         -1.1646385e-10
         -1.1646385e-10
         -1.1646385e-10
         -1.1646385e-10
         -1.1646385e-10
         -1.1646385e-10
         -1.1646385e-10
         -1.1646385e-10
         -1.1646385e-10
         -1.1646385e-10
         -1.1646385e-10
         -1.1646385e-10
         -1.1646385e-10
         -1.1646385e-10
         -1.1646385e-10
         -1.1646385e-10
         -1.1646385e-10
         -1.1646385e-10
         -1.1646385e-10
         -1.1646385e-10
         -1.1646385e-10
         -1.1646385e-10
         -1.1646385e-10
         -1.1646385e-10
         -1.1646385e-10
         -1.1646385e-10
         -1.1646385e-10
         -1.1646385e-10
         -1.1646385e-10
         -1.1646385e-10
         -1.1646385e-10
         -1.1646385e-10
         -1.1646385e-10
         -1.1646385e-10
         -1.1646385e-10
         -1.1646385e-10
         -1.1646385e-10
         -1.1646385e-10
         -1.1646385e-10
         -1.1646385e-10
         -1.1646385e-10
         -1.1646385e-10
         -1.1646385e-10
         -1.1646385e-10
         -1.1646385e-10
         -1.1646385e-10
         -1.1646385e-10
         -1.1646385e-10
         -1.1646385e-10
         -1.1646385e-10
         -1.1646385e-10
         -1.1646385e-10
         -1.1646385e-10
         -1.1646385e-10
         -1.1646385e-10
         -1.1646385e-10
         -1.1646385e-10
         -1.1646385e-10
         -1.1646385e-10
         -1.1646385e-10
         -1.1646385e-10
         -1.1646385e-10
         -1.1646385e-10
         -1.1646385e-10
         -1.1646385e-10
         -1.1646385e-10
         -1.1646385e-10
         -1.1646385e-10
         -1.1646385e-10
         -1.1646385e-10
         -1.1646385e-10
         -1.1646385e-10
         -1.1646385e-10
         -1.1646385e-10
         -1.1646385e-10
         -1.1646385e-10
         -1.1646385e-10
         -1.1646385e-10
         -1.1646385e-10
         -1.1646385e-10
         -1.1646385e-10
         -1.1646385e-10
         -1.1646385e-10
         -1.1646385e-10
         -1.1646385e-10
         -1.1646385e-10
         -1.1646385e-10
         -1.1646385e-10
         -1.1646385e-10
         -1.1646385e-10
         -1.1646385e-10
         -1.1646385e-10
         -1.1646385e-10
         -1.1646385e-10
         -1.1646385e-10
         -1.1646385e-10
         -1.1646385e-10
         -1.1646385e-10
         -1.1646385e-10
         -1.1646385e-10
         -1.1646385e-10
         -1.1646385e-10
         -1.1646385e-10
         -1.1646385e-10
         -1.1646385e-10
         -1.1646385e-10
         -1.1646385e-10
         -1.1646385e-10
         -1.1646385e-10
         -1.1646385e-10
         -1.1646385e-10
         -1.1646385e-10
         -1.1646385e-10
         -1.1646385e-10
         -1.1646385e-10
         -1.1646385e-10
         -1.1646385e-10
         -1.1646385e-10
         -1.1646385e-10
         -1.1646385e-10
         -1.1646385e-10
         -1.1646385e-10
         -1.1646385e-10
         -1.1646385e-10
         -1.1646385e-10
         -1.1646385e-10
         -1.1646385e-10
         -1.1646385e-10
         -1.1646385e-10
         -1.1646385e-10
         -1.1646385e-10
         -1.1646385e-10
         -1.1646385e-10
         -1.1646385e-10
         -1.1646385e-10
         -1.1646385e-10
         -1.1646385e-10
         -1.1646385e-10
         -1.1646385e-10
         -1.1646385e-10
         -1.1646385e-10
         -1.1646385e-10
         -1.1646385e-10
         -1.1646385e-10
         -1.1646385e-10
         -1.1646385e-10
         -1.1646385e-10
         -1.1646385e-10
         -1.1646385e-10
         -1.1646385e-10
         -1.1646385e-10
         -1.1646385e-10
         -1.1646385e-10
         -1.1646385e-10
         -1.1646385e-10
         -1.1646385e-10
         -1.1646385e-10
         -1.1646385e-10
         -1.1646385e-10
         -1.1646385e-10
         -1.1646385e-10
         -1.1646385e-10
         -1.1646385e-10
         -1.1646385e-10
         -1.1646385e-10
         -1.1646385e-10
         -1.1646385e-10
         -1.1646385e-10
         -1.1646385e-10
         -1.1646385e-10
         -1.1646385e-10
         -1.1646385e-10
         -1.1646385e-10
         -1.1646385e-10
         -1.1646385e-10
         -1.1646385e-10
         -1.1646385e-10
         -1.1646385e-10
         -1.1646385e-10
         -1.1646385e-10
         -1.1646385e-10
         -1.1646385e-10
         -1.1646385e-10
         -1.1646385e-10
         -1.1646385e-10
         -1.1646385e-10
         -1.1646385e-10
         -1.1646385e-10
         -1.1646385e-10
         -1.1646385e-10
         -1.1646385e-10
         -1.1646385e-10
         -1.1646385e-10
         -1.1646385e-10
         -1.1646385e-10
         -1.1646385e-10
         -1.1646385e-10
         -1.1646385e-10
         -1.1646385e-10
         -1.1646385e-10
         -1.1646385e-10
         -1.1646385e-10
         -1.1646385e-10
         -1.1646385e-10
         -1.1646385e-10
         -1.1646385e-10
         -1.1646385e-10
         -1.1646385e-10
         -1.1646385e-10
         -1.1646385e-10
         -1.1646385e-10
         -1.1646385e-10
         -1.1646385e-10
         -1.1646385e-10
         -1.1646385e-10
         -1.1646385e-10
         -1.1646385e-10
         -1.1646385e-10
         -1.1646385e-10
         -1.1646385e-10
         -1.1646385e-10
         -1.1646385e-10
         -1.1646385e-10
         -1.1646385e-10
         -1.1646385e-10
         -1.1646385e-10
         -1.1646385e-10
         -1.1646385e-10
         -1.1646385e-10
         -1.1646385e-10
         -1.1646385e-10
         -1.1646385e-10
         -1.1646385e-10
         -1.1646385e-10
         -1.1646385e-10
         -1.1646385e-10
         -1.1646385e-10
         -1.1646385e-10
         -1.1646385e-10
         -1.1646385e-10
         -1.1646385e-10
         -1.1646385e-10
         -1.1646385e-10
         -1.1646385e-10
         -1.1646385e-10
         -1.1646385e-10
         -1.1646385e-10
         -1.1646385e-10
         -1.1646385e-10
         -1.1646385e-10
         -1.1646385e-10
         -1.1646385e-10
         -1.1646385e-10
         -1.1646385e-10
         -1.1646385e-10
         -1.1646385e-10
         -1.1646385e-10
         -1.1646385e-10
         -1.1646385e-10
         -1.1646385e-10
         -1.1646385e-10
         -1.1646385e-10
         -1.1646385e-10
         -1.1646385e-10
         -1.1646385e-10
         -1.1646385e-10
         -1.1646385e-10
         -1.1646385e-10
         -1.1646385e-10
         -1.1646385e-10
         -1.1646385e-10
         -1.1646385e-10
         -1.1646385e-10
         -1.1646385e-10
         -1.1646385e-10
         -1.1646385e-10
         -1.1646385e-10
         -1.1646385e-10
         -1.1646385e-10
         -1.1646385e-10
         -1.1646385e-10
         -1.1646385e-10
         -1.1646385e-10
         -1.1646385e-10
         -1.1646385e-10
         -1.1646385e-10
         -1.1646385e-10
         -1.1646385e-10
         -1.1646385e-10
         -1.1646385e-10
         -1.1646385e-10
         -1.1646385e-10
         -1.1646385e-10
         -1.1646385e-10
         -1.1646385e-10
         -1.1646385e-10
         -1.1646385e-10
         -1.1646385e-10
         -1.1646385e-10
         -1.1646385e-10
         -1.1646385e-10
         -1.1646385e-10
         -1.1646385e-10
         -1.1646385e-10
         -1.1646385e-10
         -1.1646385e-10
         -1.1646385e-10
         -1.1646385e-10
         -1.1646385e-10
         -1.1646385e-10
         -1.1646385e-10
         -1.1646385e-10
         -1.1646385e-10
         -1.1646385e-10
         -1.1646385e-10
         -1.1646385e-10
         -1.1646385e-10
         -1.1646385e-10
         -1.1646385e-10
         -1.1646385e-10
         -1.1646385e-10
         -1.1646385e-10
         -1.1646385e-10
         9.511214e-09
         6.537504e-08
         1.7003723e-07
         3.2260488e-07
         5.216804e-07
         7.663321e-07
         1.055279e-06
         1.3877055e-06
         1.7626803e-06
         2.1790386e-06
         2.6362757e-06
         3.1333045e-06
         3.6693489e-06
         4.2437096e-06
         4.8556494e-06
         5.504431e-06
         6.1894325e-06
         6.909839e-06
         7.665418e-06
         8.455276e-06
         9.279024e-06
         1.0135849e-05
         1.1025555e-05
         1.1947522e-05
         1.2901244e-05
         1.3886295e-05
         1.490221e-05
         1.594887e-05
         1.7025384e-05
         1.813179e-05
         1.9267274e-05
         2.043203e-05
         2.1625357e-05
         2.2847256e-05
         2.4096798e-05
         2.5374484e-05
         2.6679421e-05
         2.8011691e-05
         2.9370902e-05
         3.075659e-05
         3.2168944e-05
         3.360747e-05
         3.5072233e-05
         3.6562546e-05
         3.8078786e-05
         3.9620227e-05
         4.118713e-05
         4.2778996e-05
         4.4396096e-05
         4.60375e-05
         4.770371e-05
         4.939426e-05
         5.1109695e-05
         5.284881e-05
         5.4612152e-05
         5.6399793e-05
         5.8211e-05
         6.0046197e-05
         6.190481e-05
         6.378725e-05
         6.569338e-05
         6.762295e-05
         6.957566e-05
         7.155197e-05
         7.3550844e-05
         7.557359e-05
         7.761896e-05
         7.968783e-05
         8.177893e-05
         8.38938e-05
         8.603122e-05
         8.819171e-05
         9.037494e-05
         9.2580995e-05
         9.4810115e-05
         9.70619e-05
         9.933656e-05
         0.000101633384
         0.0001039535
         0.0001062957
         0.00010866143
         0.000111049485
         0.000113460635
         0.00011589384
         0.0001183506
         0.000120829456
         0.00012332096
         0.00012581586
         0.00012831358
         0.00013081467
         0.0001333178
         0.00013582461
         0.00013833397
         0.00014084672
         0.00014336246
         0.00014588083
         0.00014840254
         0.00015092705
         0.00015345494
         0.00015598578
         0.00015851957
         0.00016105619
         0.00016359639
         0.00016613914
         0.00016868605
         0.00017123493
         0.00017378721
         0.00017634261
         0.00017890129
         0.0001814633
         0.00018402825
         0.00018659652
         0.0001891683
         0.00019174228
         0.0001943197
         0.00019690015
         0.00019948401
         0.00020207107
         0.000204662
         0.00020725593
         0.0002098523
         0.00021245274
         0.00021505551
         0.00021766224
         0.000220272
         0.00022288467
         0.00022550073
         0.00022812089
         0.00023074354
         0.00023336972
         0.00023599956
         0.0002386314
         0.00024126776
         0.00024390667
         0.00024654937
         0.0002491949
         0.00025184415
         0.00025449664
         0.00025715295
         0.00025981214
         0.00026247412
         0.00026514035
         0.00026780972
         0.00027048186
         0.0002731578
         0.00027583685
         0.00027851982
         0.00028120654
         0.00028389515
         0.00028658795
         0.00028928425
         0.00029198418
         0.000294687
         0.000297394
         0.00030010397
         0.00030281759
         0.00030553382
         0.0003082532
         0.0003109737
         0.0003136949
         0.00031641728
         0.00031914114
         0.00032186438
         0.00032458815
         0.00032731434
         0.00033004046
         0.0003327685
         0.00033549572
         0.00033822475
         0.00034095443
         0.00034368387
         0.00034641605
         0.00034914768
         0.00035188076
         0.00035461533
         0.00035734952
         0.00036008487
         0.00036282092
         0.0003655582
         0.00036829564
         0.0003710345
         0.00037377464
         0.00037651483
         0.00037925676
         0.00038199825
         0.00038474175
         0.0003874855
         0.00039023007
         0.0003929752
         0.00039572132
         0.00039846933
         0.00040121772
         0.00040396635
         0.0004067156
         0.00040946656
         0.00041221813
         0.00041496987
         0.00041772344
         0.00042047745
         0.00042323236
         0.00042598802
         0.00042874506
         0.00043150244
         0.00043426055
         0.0004370198
         0.00043977945
         0.0004425408
         0.00044530185
         0.00044806476
         0.00045082805
         0.00045359167
         0.00045635737
         0.0004591234
         0.00046189097
         0.0004646583
         0.0004674271
         0.000470196
         0.0004729666
         0.0004757379
         0.00047850958
         0.00048128274
         0.00048405724
         0.0004868325
         0.00048960705
         0.0004923838
         0.0004951604
         0.00049793895
         0.0005007178
         0.0005034972
         0.00050627795
         0.0005090617
         0.0005118509
         0.000514647
         0.00051744765
         0.0005202563
         0.0005230689
         0.0005258895
         0.00052871474
         0.00053154636
         0.00053438294
         0.0005372273
         0.0005400762
         0.0005429319
         0.0005457937
         0.0005486609
         0.0005515343
         0.0005544135
         0.00055729906
         0.0005601898
         0.000563087
         0.00056599115
         0.00056890206
         0.0005718227
         0.00057476084
         0.0005777121
         0.0005806772
         0.0005836597
         0.00058665115
         0.0005896654
         0.0005926902
         0.00059573323
         0.0005987898
         0.0006018602
         0.00060494925
         0.0006080508
         0.0006111715
         0.00061430497
         0.0006174543
         0.0006206232
         0.00062380155
         0.0006270036
         0.0006302158
         0.0006334473
         0.0006366949
         0.0006399565
         0.0006432383
         0.00064653205
         0.0006498481
         0.0006531775
         0.00065652287
         0.0006598887
         0.000663267
         0.0006666674
         0.0006700809
         0.0006735132
         0.00067696447
         0.00068042945
         0.0006839165
         0.0006874172
         0.00069093995
         0.0006944781
         0.00069803477
         0.00070160895
         0.00070519914
         0.0007088129
         0.0007124413
         0.00071608945
         0.0007197565
         0.0007234384
         0.00072714663
         0.00073086534
         0.0007346114
         0.00073836977
         0.0007421501
         0.00074594974
         0.00074976514
         0.00075360807
         0.0007574649
         0.0007613425
         0.00076524133
         0.00076915685
         0.00077309745
         0.00077705085
         0.0007810312
         0.0007850284
         0.0007890488
         0.0007930884
         0.0007971456
         0.00080123125
         0.0008053303
         0.00080945564
         0.00081359915
         0.00081776397
         0.000821955
         0.00082615874
         0.00083039317
         0.0008346443
         0.00083892024
         0.0008432176
         0.0008475312
         0.00085187715
         0.0008562368
         0.0008606242
         0.00086503255
         0.0008694625
         0.00087391917
         0.00087839196
         0.0008828966
         0.0008874192
         0.0008919692
         0.0008965402
         0.0009011326
         0.00090575387
         0.00091039226
         0.00091506273
         0.000919753
         0.0009244668
         0.00092921
         0.00093396776
         0.00093876204
         0.0009435759
         0.0009484166
         0.0009532817
         0.0009581688
         0.0009630875
         0.000968026
         0.0009729982
         0.0009779899
         0.0009830067
         0.0009880564
         0.0009931234
         0.0009982277
         0.0010033493
         0.0010085043
         0.0010136842
         0.0010188877
         0.0010241249
         0.001029384
         0.0010346757
         0.0010399916
         0.0010453352
         0.0010507116
         0.001056109
         0.0010615434
         0.0010669995
         0.0010724904
         0.0010780072
         0.0010835476
         0.0010891263
         0.0010947281
         0.001100365
         0.001106029
         0.0011117236
         0.00111745
         0.0011231978
         0.00112899
         0.0011348028
         0.0011406515
         0.0011465305
         0.0011524364
         0.0011583812
         0.0011643493
         0.0011703585
         0.0011763929
         0.0011824619
         0.0011885603
         0.0011946915
         0.0012008637
         0.0012070598
         0.0012132924
         0.0012195598
         0.0012258565
         0.0012321941
         0.001238556
         0.0012449609
         0.0012513925
         0.0012578645
         0.0012643697
         0.001270906
         0.0012774864
         0.0012840912
         0.0012907415
         0.0012974248
         0.0013041408
         0.0013108975
         0.0013176826
         0.0013245151
         0.0013313774
         0.0013382771
         0.0013452196
         0.0013521903
         0.0013592105
         0.0013662545
         0.0013733523
         0.0013804786
         0.0013876435
         0.0013948549
         0.001402095
         0.0014093856
         0.0014167045
         0.001424073
         0.0014314802
         0.0014389196
         0.0014464087
         0.0014539316
         0.0014614998
         0.0014690968
         0.0014767296
         0.0014844029
         0.0014921032
         0.0014998479
         0.001507623
         0.0015154406
         0.0015232897
         0.0015311714
         0.0015390983
         0.0015470511
         0.0015550529
         0.0015630856
         0.0015711533
         0.0015792657
         0.0015874057
         0.0015955967
         0.0016038115
         0.001612079
         0.0016203756
         0.0016287107
         0.0016370929
         0.0016455003
         0.0016539596
         0.0016624541
         0.0016709866
         0.0016795668
         0.0016881699
         0.001696833
         0.001705523
         0.0017142612
         0.0017230376
         0.0017318525
         0.0017407113
         0.001749606
         0.0017585556
         0.001767538
         0.001776564
         0.0017856347
         0.0017947383
         0.0018038999
         0.0018130942
         0.0018223379
         0.0018316216
         0.001840944
         0.001850319
         0.0018597243
         0.0018691957
         0.0018786964
         0.0018882458
         0.001897843
         0.0019074747
         0.0019171668
         0.0019268928
         0.001936672
         0.0019464979
         0.0019563616
         0.0019662825
         0.0019762379
         0.0019862594
         0.001996311
         0.0020064164
         0.002016569
         0.0020267614
         0.0020370225
         0.0020473152
         0.0020576613
         0.0020680605
         0.0020785027
         0.0020890029
         0.002099539
         0.0021101437
         0.0021207822
         0.0021314782
         0.0021422282
         0.0021530204
         0.0021638763
         0.0021747707
         0.0021857298
         0.0021967362
         0.00220779
         0.0022189037
         0.0022300582
         0.0022412816
         0.0022525494
         0.0022638764
         0.0022752585
         0.002286682
         0.002298182
         0.0023097151
         0.0023213192
         0.0023329663
         0.0023446747
         0.0023564463
         0.002368255
         0.0023801432
         0.0023920753
         0.0024040707
         0.0024161225
         0.002428223
         0.0024404027
         0.0024526175
         0.0024649033
         0.0024772463
         0.0024896418
         0.0025021096
         0.0025146182
         0.0025272148
         0.00253985
         0.0025525633
         0.002565325
         0.0025781454
         0.0025910437
         0.00260398
         0.0026170032
         0.0026300764
         0.002643212
         0.0026564258
         0.0026696734
         0.002683018
         0.002696407
         0.0027098707
         0.0027233947
         0.0027369817
         0.0027506473
         0.0027643587
         0.0027781588
         0.0027920122
         0.0028059306
         0.002819931
         0.0028339738
         0.002848117
         0.0028623065
         0.0028765742
         0.0028909082
         0.0029053094
         0.0029197878
         0.0029343201
         0.0029489482
         0.0029636347
         0.0029783896
         0.002993223
         0.0030081149
         0.003023103
         0.0030381437
         0.003053274
         0.0030684744
         0.0030837313
         0.003099085
         0.0031144926
         0.0031300057
         0.003145569
         0.0031612155
         0.003176944
         0.0031927326
         0.0032086235
         0.003224572
         0.003240612
         0.0032567238
         0.0032729134
         0.003289194
         0.003305532
         0.0033219778
         0.0033384853
         0.0033550817
         0.0033717577
         0.0033885015
         0.0034053554
         0.0034222747
         0.0034392867
         0.0034563707
         0.003473546
         0.0034908145
         0.0035081396
         0.0035255859
         0.0035430964
         0.0035607037
         0.0035783935
         0.00359616
         0.0036140413
         0.0036319788
         0.0036500308
         0.003668152
         0.0036863785
         0.003704699
         0.003723076
         0.0037415891
         0.0037601686
         0.0037788476
         0.0037976205
         0.003816473
         0.003835446
         0.0038544743
         0.0038736355
         0.0038928709
         0.003912208
         0.0039316393
         0.003951151
         0.0039707976
         0.0039905063
         0.004010346
         0.0040302603
         0.0040502734
         0.0040704096
         0.0040906067
         0.0041109445
         0.0041313604
         0.0041518854
         0.0041725165
         0.004193228
         0.0042140754
         0.004234988
         0.0042560343
         0.00427716
         0.004298387
         0.004319741
         0.004341147
         0.004362708
         0.0043843556
         0.0044060987
         0.004427965
         0.0044499077
         0.0044719903
         0.0044941525
         0.004516439
         0.004538826
