ocio-configs/luts/ts_acescct_4000nits_to_linearcv.spi1d
Version 1
From 0.000000 1.000000
Length 4096
Components 1
{
         -1.8189895e-15
         -1.8189895e-15
         -1.8189895e-15
         -1.8189895e-15
         -1.8189895e-15
         -1.8189895e-15
         -1.8189895e-15
         -1.8189895e-15
         -1.8189895e-15
         -1.8189895e-15
         -1.8189895e-15
         -1.8189895e-15
         -1.8189895e-15
         -1.8189895e-15
         -1.8189895e-15
         -1.8189895e-15
         -1.8189895e-15
         -1.8189895e-15
         -1.8189895e-15
         -1.8189895e-15
         -1.8189895e-15
         -1.8189895e-15
         -1.8189895e-15
         -1.8189895e-15
         -1.8189895e-15
         -1.8189895e-15
         -1.8189895e-15
         -1.8189895e-15
         -1.8189895e-15
         -1.8189895e-15
         -1.8189895e-15
         -1.8189895e-15
         -1.8189895e-15
         -1.8189895e-15
         -1.8189895e-15
         -1.8189895e-15
         -1.8189895e-15
         -1.8189895e-15
         -1.8189895e-15
         -1.8189895e-15
         -1.8189895e-15
         -1.8189895e-15
         -1.8189895e-15
         -1.8189895e-15
         -1.8189895e-15
         -1.8189895e-15
         -1.8189895e-15
         -1.8189895e-15
         -1.8189895e-15
         -1.8189895e-15
         -1.8189895e-15
         -1.8189895e-15
         -1.8189895e-15
         -1.8189895e-15
         -1.8189895e-15
         -1.8189895e-15
         -1.8189895e-15
         -1.8189895e-15
         -1.8189895e-15
         -1.8189895e-15
         -1.8189895e-15
         -1.8189895e-15
         -1.8189895e-15
         -1.8189895e-15
         -1.8189895e-15
         -1.8189895e-15
         -1.8189895e-15
         -1.8189895e-15
         -1.8189895e-15
         -1.8189895e-15
         -1.8189895e-15
         -1.8189895e-15
         -1.8189895e-15
         -1.8189895e-15
         -1.8189895e-15
         -1.8189895e-15
         -1.8189895e-15
         -1.8189895e-15
         -1.8189895e-15
         -1.8189895e-15
         -1.8189895e-15
         -1.8189895e-15
         -1.8189895e-15
         -1.8189895e-15
         -1.8189895e-15
         -1.8189895e-15
         -1.8189895e-15
         -1.8189895e-15
         -1.8189895e-15
         -1.8189895e-15
         -1.8189895e-15
         -1.8189895e-15
         -1.8189895e-15
         -1.8189895e-15
         -1.8189895e-15
         -1.8189895e-15
         -1.8189895e-15
         -1.8189895e-15
         -1.8189895e-15
         -1.8189895e-15
         -1.8189895e-15
         -1.8189895e-15
         -1.8189895e-15
         -1.8189895e-15
         -1.8189895e-15
         -1.8189895e-15
         -1.8189895e-15
         -1.8189895e-15
         -1.8189895e-15
         -1.8189895e-15
         -1.8189895e-15
         -1.8189895e-15
         -1.8189895e-15
         -1.8189895e-15
         -1.8189895e-15
         -1.8189895e-15
         -1.8189895e-15
         -1.8189895e-15
         -1.8189895e-15
         -1.8189895e-15
         -1.8189895e-15
         -1.8189895e-15
         -1.8189895e-15
         -1.8189895e-15
         -1.8189895e-15
         -1.8189895e-15
         -1.8189895e-15
         -1.8189895e-15
         -1.8189895e-15
         -1.8189895e-15
         -1.8189895e-15
         -1.8189895e-15
         -1.8189895e-15
         -1.8189895e-15
         -1.8189895e-15
         -1.8189895e-15
         -1.8189895e-15
         -1.8189895e-15
         -1.8189895e-15
         -1.8189895e-15
         -1.8189895e-15
         -1.8189895e-15
         -1.8189895e-15
         -1.8189895e-15
         -1.8189895e-15
         -1.8189895e-15
         -1.8189895e-15
         -1.8189895e-15
         -1.8189895e-15
         -1.8189895e-15
         -1.8189895e-15
         -1.8189895e-15
         -1.8189895e-15
         -1.8189895e-15
         -1.8189895e-15
         -1.8189895e-15
         -1.8189895e-15
         -1.8189895e-15
         -1.8189895e-15
         -1.8189895e-15
         -1.8189895e-15
         -1.8189895e-15
         -1.8189895e-15
         -1.8189895e-15
         -1.8189895e-15
         -1.8189895e-15
         -1.8189895e-15
         -1.8189895e-15
         -1.8189895e-15
         -1.8189895e-15
         -1.8189895e-15
         -1.8189895e-15
         -1.8189895e-15
         -1.8189895e-15
         -1.8189895e-15
         -1.8189895e-15
         -1.8189895e-15
         -1.8189895e-15
         -1.8189895e-15
         -1.8189895e-15
         -1.8189895e-15
         -1.8189895e-15
         -1.8189895e-15
         -1.8189895e-15
         -1.8189895e-15
         -1.8189895e-15
         -1.8189895e-15
         -1.8189895e-15
         -1.8189895e-15
         -1.8189895e-15
         -1.8189895e-15
         -1.8189895e-15
         -1.8189895e-15
         -1.8189895e-15
         -1.8189895e-15
         -1.8189895e-15
         -1.8189895e-15
         -1.8189895e-15
         -1.8189895e-15
         -1.8189895e-15
         -1.8189895e-15
         -1.8189895e-15
         -1.8189895e-15
         -1.8189895e-15
         -1.8189895e-15
         -1.8189895e-15
         -1.8189895e-15
         -1.8189895e-15
         -1.8189895e-15
         -1.8189895e-15
         -1.8189895e-15
         -1.8189895e-15
         -1.8189895e-15
         -1.8189895e-15
         -1.8189895e-15
         -1.8189895e-15
         -1.8189895e-15
         -1.8189895e-15
         -1.8189895e-15
         -1.8189895e-15
         -1.8189895e-15
         -1.8189895e-15
         -1.8189895e-15
         -1.8189895e-15
         -1.8189895e-15
         -1.8189895e-15
         -1.8189895e-15
         -1.8189895e-15
         -1.8189895e-15
         -1.8189895e-15
         -1.8189895e-15
         -1.8189895e-15
         -1.8189895e-15
         -1.8189895e-15
         -1.8189895e-15
         -1.8189895e-15
         -1.8189895e-15
         -1.8189895e-15
         -1.8189895e-15
         -1.8189895e-15
         -1.8189895e-15
         -1.8189895e-15
         -1.8189895e-15
         -1.8189895e-15
         -1.8189895e-15
         -1.8189895e-15
         -1.8189895e-15
         -1.8189895e-15
         -1.8189895e-15
         -1.8189895e-15
         -1.8189895e-15
         -1.8189895e-15
         -1.8189895e-15
         -1.8189895e-15
         -1.8189895e-15
         -1.8189895e-15
         -1.8189895e-15
         -1.8189895e-15
         -1.8189895e-15
         -1.8189895e-15
         -1.8189895e-15
         -1.8189895e-15
         -1.8189895e-15
         -1.8189895e-15
         -1.8189895e-15
         -1.8189895e-15
         -1.8189895e-15
         -1.8189895e-15
         -1.8189895e-15
         -1.8189895e-15
         -1.8189895e-15
         -1.8189895e-15
         -1.8189895e-15
         -1.8189895e-15
         -1.8189895e-15
         -1.8189895e-15
         -1.8189895e-15
         -1.8189895e-15
         -1.8189895e-15
         -1.8189895e-15
         -1.8189895e-15
         -1.8189895e-15
         -1.8189895e-15
         -1.8189895e-15
         -1.8189895e-15
         -1.8189895e-15
         -1.8189895e-15
         -1.8189895e-15
         -1.8189895e-15
         -1.8189895e-15
         -1.8189895e-15
         -1.8189895e-15
         -1.8189895e-15
         -1.8189895e-15
         -1.8189895e-15
         -1.8189895e-15
         -1.8189895e-15
         -1.8189895e-15
         -1.8189895e-15
         4.393663e-09
         1.7853143e-08
         2.9522953e-08
         4.034953e-08
         5.1103118e-08
         6.2324496e-08
         7.397964e-08
         8.6051244e-08
         9.853556e-08
         1.1142729e-07
         1.247277e-07
         1.384333e-07
         1.5254663e-07
         1.670647e-07
         1.819904e-07
         1.9732119e-07
         2.1305871e-07
         2.2920476e-07
         2.4575652e-07
         2.6271763e-07
         2.8008517e-07
         2.978635e-07
         3.1604938e-07
         3.3464704e-07
         3.5365312e-07
         3.7307285e-07
         3.9290228e-07
         4.1314624e-07
         4.3380172e-07
         4.5487363e-07
         4.7635842e-07
         4.982616e-07
         5.2057777e-07
         5.4331286e-07
         5.6646894e-07
         5.900418e-07
         6.140378e-07
         6.3845283e-07
         6.632931e-07
         6.885538e-07
         7.142424e-07
         7.403531e-07
         7.6689344e-07
         7.938577e-07
         8.2125456e-07
         8.490781e-07
         8.773363e-07
         9.0602344e-07
         9.351441e-07
         9.647016e-07
         9.946925e-07
         1.0251204e-06
         1.0559871e-06
         1.0872942e-06
         1.1190377e-06
         1.1512266e-06
         1.1838529e-06
         1.2169282e-06
         1.2504438e-06
         1.2844116e-06
         1.3188227e-06
         1.3536851e-06
         1.3889954e-06
         1.4247556e-06
         1.460974e-06
         1.4976381e-06
         1.5347665e-06
         1.572344e-06
         1.6103829e-06
         1.648876e-06
         1.6878339e-06
         1.727249e-06
         1.7671318e-06
         1.8074725e-06
         1.8482841e-06
         1.8895611e-06
         1.9313043e-06
         1.9735185e-06
         2.0161956e-06
         2.0593538e-06
         2.1029769e-06
         2.1470833e-06
         2.1916574e-06
         2.2367142e-06
         2.282241e-06
         2.3282587e-06
         2.374749e-06
         2.421724e-06
         2.4691797e-06
         2.517128e-06
         2.565553e-06
         2.6144726e-06
         2.6638709e-06
         2.713767e-06
         2.764156e-06
         2.8150325e-06
         2.8664083e-06
         2.9182768e-06
         2.970647e-06
         3.0235074e-06
         3.0768713e-06
         3.1307334e-06
         3.1851032e-06
         3.239966e-06
         3.295344e-06
         3.351223e-06
         3.4076138e-06
         3.4645075e-06
         3.521919e-06
         3.5798334e-06
         3.638257e-06
         3.697212e-06
         3.7566597e-06
         3.8165635e-06
         3.876847e-06
         3.937523e-06
         3.9985844e-06
         4.0600435e-06
         4.1218773e-06
         4.184113e-06
         4.2467127e-06
         4.3097034e-06
         4.3730697e-06
         4.436826e-06
         4.500952e-06
         4.5654656e-06
         4.630348e-06
         4.6956106e-06
         4.761252e-06
         4.8272555e-06
         4.893648e-06
         4.9604e-06
         5.0275294e-06
         5.0950275e-06
         5.162903e-06
         5.23113e-06
         5.2997325e-06
         5.368691e-06
         5.438032e-06
         5.507714e-06
         5.5777773e-06
         5.6482045e-06
         5.7189723e-06
         5.790122e-06
         5.8616224e-06
         5.9334875e-06
         6.0056964e-06
         6.0782727e-06
         6.151194e-06
         6.224486e-06
         6.298116e-06
         6.3721113e-06
         6.4464475e-06
         6.5211466e-06
         6.596179e-06
         6.6715784e-06
         6.747316e-06
         6.8234076e-06
         6.899844e-06
         6.976617e-06
         7.0537526e-06
         7.131222e-06
         7.2090393e-06
         7.287201e-06
         7.365694e-06
         7.4445384e-06
         7.523712e-06
         7.6032456e-06
         7.6831075e-06
         7.763304e-06
         7.843842e-06
         7.924697e-06
         8.005906e-06
         8.087469e-06
         8.169344e-06
         8.251561e-06
         8.334092e-06
         8.416979e-06
         8.5001875e-06
         8.583718e-06
         8.667594e-06
         8.751791e-06
         8.836316e-06
         8.921171e-06
         9.006354e-06
         9.091872e-06
         9.177702e-06
         9.263857e-06
         9.350353e-06
         9.437135e-06
         9.5242785e-06
         9.611749e-06
         9.6995145e-06
         9.787606e-06
         9.876028e-06
         9.964769e-06
         1.0053822e-05
         1.0143202e-05
         1.0232898e-05
         1.0322897e-05
         1.04132305e-05
         1.0503866e-05
         1.0594815e-05
         1.06861025e-05
         1.07776805e-05
         1.0869596e-05
         1.0961809e-05
         1.1054337e-05
         1.1147162e-05
         1.1240317e-05
         1.1333773e-05
         1.1427559e-05
         1.1521627e-05
         1.1616032e-05
         1.1710735e-05
         1.1805739e-05
         1.190105e-05
         1.1996659e-05
         1.2092593e-05
         1.2188817e-05
         1.2285369e-05
         1.2382198e-05
         1.2479336e-05
         1.2576775e-05
         1.2674546e-05
         1.2772584e-05
         1.2870953e-05
         1.2969596e-05
         1.3068548e-05
         1.3167807e-05
         1.3267359e-05
         1.3367211e-05
         1.3467354e-05
         1.356782e-05
         1.36685685e-05
         1.3769613e-05
         1.387095e-05
         1.3972596e-05
         1.4074509e-05
         1.4176758e-05
         1.42792705e-05
         1.4382069e-05
         1.4485181e-05
         1.4588596e-05
         1.46922675e-05
         1.4796261e-05
         1.4900547e-05
         1.5005098e-05
         1.510996e-05
         1.5215098e-05
         1.5320564e-05
         1.542628e-05
         1.5532305e-05
         1.5638578e-05
         1.5745178e-05
         1.5852034e-05
         1.5959213e-05
         1.6066662e-05
         1.6174408e-05
         1.628239e-05
         1.6390735e-05
         1.6499325e-05
         1.66082e-05
         1.6717344e-05
         1.6826789e-05
         1.6936512e-05
         1.7046532e-05
         1.715681e-05
         1.726736e-05
         1.7378217e-05
         1.7489336e-05
         1.7600756e-05
         1.771244e-05
         1.7824412e-05
         1.7936669e-05
         1.804918e-05
         1.8161994e-05
         1.827508e-05
         1.8388426e-05
         1.8502049e-05
         1.861596e-05
         1.8730127e-05
         1.8844608e-05
         1.8959334e-05
         1.907437e-05
         1.9189647e-05
         1.93052e-05
         1.9421042e-05
         1.9537125e-05
         1.9653458e-05
         1.9770132e-05
         1.9887073e-05
         2.000425e-05
         2.0121684e-05
         2.023944e-05
         2.0357438e-05
         2.0475696e-05
         2.0594252e-05
         2.0713034e-05
         2.0832138e-05
         2.0951491e-05
         2.1071099e-05
         2.119098e-05
         2.1311103e-05
         2.1431528e-05
         2.1552227e-05
         2.167315e-05
         2.1794407e-05
         2.1915856e-05
         2.203759e-05
         2.215961e-05
         2.2281856e-05
         2.2404394e-05
         2.2527229e-05
         2.2650256e-05
         2.27736e-05
         2.2897175e-05
         2.302104e-05
         2.314514e-05
         2.32695e-05
         2.3394145e-05
         2.3519013e-05
         2.3644196e-05
         2.3769591e-05
         2.3895274e-05
         2.4021198e-05
         2.4147355e-05
         2.4273817e-05
         2.440051e-05
         2.4527504e-05
         2.4654697e-05
         2.4782174e-05
         2.4909925e-05
         2.5037918e-05
         2.516617e-05
         2.529467e-05
         2.5423446e-05
         2.555254e-05
         2.5682031e-05
         2.5812333e-05
         2.594314e-05
         2.6074591e-05
         2.6206806e-05
         2.6339454e-05
         2.6473019e-05
         2.6607087e-05
         2.674186e-05
         2.687738e-05
         2.701338e-05
         2.7150281e-05
         2.728762e-05
         2.7425844e-05
         2.7564622e-05
         2.7704134e-05
         2.7844373e-05
         2.7985106e-05
         2.8126848e-05
         2.8269103e-05
         2.8412132e-05
         2.8555827e-05
         2.8700155e-05
         2.8845396e-05
         2.899111e-05
         2.9137746e-05
         2.928503e-05
         2.9432998e-05
         2.9581775e-05
         2.9731122e-05
         2.9881496e-05
         3.0032315e-05
         3.0184057e-05
         3.033649e-05
         3.0489606e-05
         3.0643638e-05
         3.079831e-05
         3.0953826e-05
         3.1110063e-05
         3.1267067e-05
         3.1424894e-05
         3.1583317e-05
         3.1742795e-05
         3.1902826e-05
         3.206379e-05
         3.22255e-05
         3.238791e-05
         3.25513e-05
         3.2715318e-05
         3.288032e-05
         3.3046002e-05
         3.3212546e-05
         3.3379958e-05
         3.3547996e-05
         3.3717155e-05
         3.388695e-05
         3.405763e-05
         3.4229204e-05
         3.4401466e-05
         3.4574823e-05
         3.474869e-05
         3.4923756e-05
         3.5099434e-05
         3.5276174e-05
         3.5453686e-05
         3.5631867e-05
         3.581133e-05
         3.5991314e-05
         3.6172427e-05
         3.635435e-05
         3.65371e-05
         3.672096e-05
         3.6905305e-05
         3.709102e-05
         3.7277397e-05
         3.7464735e-05
         3.765299e-05
         3.7842005e-05
         3.8032333e-05
         3.8223203e-05
         3.8415295e-05
         3.8608163e-05
         3.880198e-05
         3.8996895e-05
         3.9192506e-05
         3.938939e-05
         3.9587034e-05
         3.9785748e-05
         3.9985443e-05
         4.0185834e-05
         4.03876e-05
         4.0590014e-05
         4.0793817e-05
         4.099834e-05
         4.1203857e-05
         4.1410487e-05
         4.161787e-05
         4.1826712e-05
         4.2036285e-05
         4.2246873e-05
         4.2458676e-05
         4.267123e-05
         4.2885167e-05
         4.3099863e-05
         4.3315897e-05
         4.353268e-05
         4.375061e-05
         4.3969776e-05
         4.4189637e-05
         4.441107e-05
         4.4633212e-05
         4.485664e-05
         4.5081084e-05
         4.5306497e-05
         4.5533325e-05
         4.5760888e-05
         4.5989877e-05
         4.6219793e-05
         4.6450903e-05
         4.6683203e-05
         4.6916364e-05
         4.7151138e-05
         4.7386657e-05
         4.762352e-05
         4.7861467e-05
         4.81004e-05
         4.8340862e-05
         4.858219e-05
         4.8824888e-05
         4.9068705e-05
         4.931371e-05
         4.9559963e-05
         4.9807157e-05
         5.005603e-05
         5.0305713e-05
         5.055682e-05
         5.080901e-05
         5.1062343e-05
         5.131728e-05
         5.1573097e-05
         5.1830357e-05
         5.2088828e-05
         5.2348616e-05
         5.2609517e-05
         5.2871626e-05
         5.313545e-05
         5.340003e-05
         5.3666194e-05
         5.3933596e-05
         5.4202133e-05
         5.447235e-05
         5.4743454e-05
         5.5016233e-05
         5.529004e-05
         5.5565466e-05
         5.5842083e-05
         5.61199e-05
         5.639946e-05
         5.6679834e-05
         5.6962104e-05
         5.724551e-05
         5.753022e-05
         5.781656e-05
         5.8103804e-05
         5.8393e-05
         5.8683283e-05
         5.8974958e-05
         5.926833e-05
         5.956277e-05
         5.9858965e-05
         6.0156184e-05
         6.045536e-05
         6.0755723e-05
         6.105738e-05
         6.136093e-05
         6.1665356e-05
         6.197183e-05
         6.2279374e-05
         6.258868e-05
         6.289948e-05
         6.321153e-05
         6.3525345e-05
         6.384043e-05
         6.415746e-05
         6.447569e-05
         6.4795444e-05
         6.511693e-05
         6.5439635e-05
         6.576441e-05
         6.6090426e-05
         6.641818e-05
         6.674753e-05
         6.707811e-05
         6.741073e-05
         6.7744615e-05
         6.808056e-05
         6.841768e-05
         6.8756606e-05
         6.909728e-05
         6.943919e-05
         6.978337e-05
         7.01287e-05
         7.047608e-05
         7.082487e-05
         7.1175346e-05
         7.1527786e-05
         7.188156e-05
         7.2237315e-05
         7.2594805e-05
         7.295372e-05
         7.331487e-05
         7.367695e-05
         7.4041694e-05
         7.440759e-05
         7.4775555e-05
         7.5145195e-05
         7.55165e-05
         7.5889824e-05
         7.6264645e-05
         7.664166e-05
         7.702032e-05
         7.740068e-05
         7.778308e-05
         7.816689e-05
         7.855333e-05
         7.894097e-05
         7.933079e-05
         7.972241e-05
         8.011567e-05
         8.051138e-05
         8.090824e-05
         8.1307764e-05
         8.170879e-05
         8.211196e-05
         8.2516955e-05
         8.292367e-05
         8.333293e-05
         8.3743435e-05
         8.415652e-05
         8.4571366e-05
         8.4987965e-05
         8.5407024e-05
         8.582751e-05
         8.6250875e-05
         8.667553e-05
         8.710261e-05
         8.753162e-05
         8.796232e-05
         8.839593e-05
         8.883079e-05
         8.926823e-05
         8.970764e-05
         9.014905e-05
         9.059291e-05
         9.103834e-05
         9.148661e-05
         9.193641e-05
         9.238877e-05
         9.284317e-05
         9.329949e-05
         9.375853e-05
         9.421921e-05
         9.4682655e-05
         9.514806e-05
         9.561555e-05
         9.608573e-05
         9.655731e-05
         9.703209e-05
         9.7508615e-05
         9.7987584e-05
         9.84691e-05
         9.8952274e-05
         9.943853e-05
         9.9926176e-05
         0.00010041713
         0.00010090988
         0.00010140514
         0.00010190303
         0.00010240234
         0.00010290532
         0.00010340997
         0.00010391718
         0.00010442696
         0.00010493878
         0.00010545375
         0.00010597028
         0.00010649004
         0.00010701186
         0.00010753617
         0.00010806344
         0.00010859218
         0.00010912478
         0.000109659166
         0.00011019645
         0.00011073623
         0.00011127818
         0.00011182333
         0.000112370195
         0.00011292088
         0.00011347341
         0.00011402856
         0.00011458687
         0.00011514686
         0.000115710835
         0.00011627651
         0.00011684524
         0.00011741666
         0.00011799064
         0.00011856782
         0.00011914699
         0.000119730066
         0.00012031509
         0.00012090271
         0.000121493824
         0.00012208693
         0.00012268398
         0.00012328292
         0.00012388507
         0.00012449005
         0.00012509778
         0.00012570867
         0.000126322
         0.00012693895
         0.00012755864
         0.000128181
         0.00012880641
         0.0001294345
         0.00013006644
         0.00013070052
         0.00013133812
         0.00013197877
         0.00013262178
         0.00013326888
         0.00013391802
         0.00013457127
         0.00013522676
         0.00013588593
         0.000136548
         0.00013721289
         0.00013788187
         0.00013855287
         0.00013922801
         0.00013990584
         0.00014058684
         0.00014127181
         0.00014195876
         0.0001426503
         0.00014334431
         0.00014404205
         0.0001447429
         0.00014544648
         0.00014615456
         0.00014686506
         0.00014757967
         0.00014829708
         0.0001490179
         0.00014974277
         0.00015046986
         0.00015120176
         0.00015193637
         0.00015267504
         0.00015341684
         0.0001541615
         0.00015491097
         0.00015566277
         0.00015641909
         0.00015717842
         0.0001579415
         0.00015870869
         0.00015947796
         0.0001602528
         0.0001610303
         0.00016181164
         0.00016259693
         0.00016338544
         0.0001641784
         0.000164974
         0.00016577446
         0.00016657803
         0.0001673856
         0.00016819731
         0.00016901162
         0.00016983162
         0.00017065418
         0.00017148149
         0.00017231223
         0.0001731467
         0.00017398586
         0.00017482773
         0.000175675
         0.00017652538
         0.00017737974
         0.00017823881
         0.00017910058
         0.00017996827
         0.00018083844
         0.00018171385
         0.00018259296
         0.00018347596
         0.00018436385
         0.00018525444
         0.00018615098
