ocio-configs/luts/ts_acescct_warmcurves_to_linearcv.spi1d
Version 1
From 0.000000 1.000000
Length 4096
Components 3
{
         0.0 0.0 0.0
         8.60584e-10 7.63673e-10 7.5891315e-10
         4.54219e-09 4.030691e-09 4.005568e-09
         1.2019441e-08 1.0665923e-08 1.0599445e-08
         2.3973824e-08 2.1274115e-08 2.1141515e-08
         4.0954212e-08 3.63424e-08 3.6115917e-08
         6.343163e-08 5.6288776e-08 5.5938088e-08
         9.1821704e-08 8.148215e-08 8.0974644e-08
         1.2649932e-07 1.1225526e-07 1.1155634e-07
         1.6780749e-07 1.4891256e-07 1.4798577e-07
         2.1606347e-07 1.9173572e-07 1.9054293e-07
         2.7156315e-07 2.4098742e-07 2.3948894e-07
         3.345841e-07 2.9691418e-07 2.9506893e-07
         4.0538828e-07 3.597486e-07 3.5751415e-07
         4.8422413e-07 4.297111e-07 4.2704377e-07
         5.7132723e-07 5.0701135e-07 5.038664e-07
         6.669229e-07 5.918494e-07 5.881807e-07
         7.7122615e-07 6.844162e-07 6.801769e-07
         8.844433e-07 7.848952e-07 7.800374e-07
         1.0067723e-06 8.934621e-07 8.87937e-07
         1.1384034e-06 1.0102863e-06 1.0040445e-06
         1.2795196e-06 1.1355306e-06 1.1285218e-06
         1.4302976e-06 1.2693525e-06 1.2615254e-06
         1.5909083e-06 1.4119032e-06 1.4032064e-06
         1.7615158e-06 1.5633299e-06 1.5537104e-06
         1.9422803e-06 1.7237733e-06 1.7131788e-06
         2.133354e-06 1.8933715e-06 1.8817484e-06
         2.334888e-06 2.0722568e-06 2.059552e-06
         2.547025e-06 2.2605589e-06 2.2467168e-06
         2.7699061e-06 2.4584008e-06 2.443367e-06
         3.0036665e-06 2.6659047e-06 2.6496245e-06
         3.248438e-06 2.883188e-06 2.8656061e-06
         3.5043481e-06 3.1103634e-06 3.0914248e-06
         3.7715197e-06 3.3475421e-06 3.32719e-06
         4.0500727e-06 3.5948317e-06 3.5730097e-06
         4.3401246e-06 3.8523344e-06 3.8289886e-06
         4.641787e-06 4.1201533e-06 4.095226e-06
         4.95517e-06 4.398385e-06 4.371821e-06
         5.2803807e-06 4.6871264e-06 4.658867e-06
         5.61752e-06 4.9864675e-06 4.956459e-06
         5.966691e-06 5.2964997e-06 5.264685e-06
         6.327988e-06 5.6173085e-06 5.583634e-06
         6.7015067e-06 5.94898e-06 5.9133868e-06
         7.087337e-06 6.291595e-06 6.254029e-06
         7.4855675e-06 6.6452326e-06 6.605638e-06
         7.896283e-06 7.0099704e-06 6.968292e-06
         8.319567e-06 7.3858805e-06 7.3420665e-06
         8.755499e-06 7.773039e-06 7.7270315e-06
         9.204159e-06 8.171514e-06 8.123259e-06
         9.665618e-06 8.581373e-06 8.5308175e-06
         1.013995e-05 9.002681e-06 8.949774e-06
         1.0627224e-05 9.4355e-06 9.3801855e-06
         1.1127506e-05 9.879893e-06 9.82212e-06
         1.1640866e-05 1.0335921e-05 1.0275637e-05
         1.2167362e-05 1.0803635e-05 1.074079e-05
         1.2707053e-05 1.1283095e-05 1.1217637e-05
         1.326e-05 1.17743475e-05 1.170623e-05
         1.3826259e-05 1.2277449e-05 1.2206621e-05
         1.44058795e-05 1.2792444e-05 1.2718862e-05
         1.4998911e-05 1.33193835e-05 1.3242993e-05
         1.560541e-05 1.3858314e-05 1.37790685e-05
         1.6225413e-05 1.4409264e-05 1.4327125e-05
         1.685897e-05 1.4972291e-05 1.48872095e-05
         1.7506121e-05 1.5547428e-05 1.5459356e-05
         1.816691e-05 1.6134707e-05 1.6043608e-05
         1.8841367e-05 1.673417e-05 1.6639999e-05
         1.9529534e-05 1.7345845e-05 1.7248563e-05
         2.023144e-05 1.7969767e-05 1.7869334e-05
         2.094712e-05 1.8605964e-05 1.8502345e-05
         2.16766e-05 1.9254467e-05 1.9147616e-05
         2.2419905e-05 1.9915295e-05 1.9805188e-05
         2.3177068e-05 2.0588483e-05 2.0475069e-05
         2.3948109e-05 2.1274042e-05 2.1157297e-05
         2.4733044e-05 2.1971999e-05 2.185189e-05
         2.5531897e-05 2.2682372e-05 2.2558866e-05
         2.6344682e-05 2.3405175e-05 2.3278248e-05
         2.7171418e-05 2.4140432e-05 2.4010049e-05
         2.8012115e-05 2.4888152e-05 2.4754285e-05
         2.8866783e-05 2.564834e-05 2.551097e-05
         2.9735435e-05 2.6421018e-05 2.6280122e-05
         3.0618077e-05 2.7206186e-05 2.7061738e-05
         3.1514715e-05 2.8003858e-05 2.7855838e-05
         3.242535e-05 2.8814035e-05 2.8662424e-05
         3.334998e-05 2.9636725e-05 2.9481502e-05
         3.4288612e-05 3.0471921e-05 3.0313073e-05
         3.5241243e-05 3.1319632e-05 3.1157146e-05
         3.6207868e-05 3.2179858e-05 3.201372e-05
         3.718848e-05 3.305259e-05 3.2882785e-05
         3.818307e-05 3.3937824e-05 3.3764354e-05
         3.9191622e-05 3.4835557e-05 3.465841e-05
         4.021414e-05 3.574578e-05 3.5564954e-05
         4.12506e-05 3.6668487e-05 3.648397e-05
         4.2300984e-05 3.760366e-05 3.7415462e-05
         4.3365282e-05 3.855129e-05 3.835941e-05
         4.4443474e-05 3.951137e-05 3.9315804e-05
         4.5535544e-05 4.0483876e-05 4.0284634e-05
         4.6641453e-05 4.1468797e-05 4.1265892e-05
         4.7761187e-05 4.2466098e-05 4.2259537e-05
         4.889474e-05 4.347578e-05 4.3265572e-05
         5.0042046e-05 4.4497818e-05 4.4283974e-05
         5.1203093e-05 4.553218e-05 4.531471e-05
         5.2377854e-05 4.6578843e-05 4.6357774e-05
         5.35663e-05 4.7637786e-05 4.7413152e-05
         5.4768385e-05 4.8708964e-05 4.8480768e-05
         5.598408e-05 4.9792376e-05 4.956065e-05
         5.721332e-05 5.088798e-05 5.065275e-05
         5.8456113e-05 5.1995736e-05 5.1757033e-05
         5.971238e-05 5.311561e-05 5.2873464e-05
         6.098211e-05 5.4247554e-05 5.400203e-05
         6.2265215e-05 5.539158e-05 5.5142667e-05
         6.3561674e-05 5.654761e-05 5.629536e-05
         6.4871434e-05 5.7715588e-05 5.7460085e-05
         6.619446e-05 5.8895523e-05 5.863677e-05
         6.753068e-05 6.0087346e-05 5.9825412e-05
         6.888005e-05 6.1291e-05 6.1025938e-05
         7.024249e-05 6.250646e-05 6.223831e-05
         7.161799e-05 6.373367e-05 6.3462496e-05
         7.300645e-05 6.4972584e-05 6.469844e-05
         7.4407835e-05 6.622317e-05 6.59461e-05
         7.582207e-05 6.748532e-05 6.720543e-05
         7.724909e-05 6.8759065e-05 6.8476365e-05
         7.868884e-05 7.0044276e-05 6.975889e-05
         8.014127e-05 7.134094e-05 7.1052906e-05
         8.160626e-05 7.264898e-05 7.235841e-05
         8.3083774e-05 7.396834e-05 7.36753e-05
         8.457373e-05 7.529897e-05 7.500354e-05
         8.60761e-05 7.664081e-05 7.634306e-05
         8.759075e-05 7.79938e-05 7.7693825e-05
         8.91176e-05 7.9357844e-05 7.905576e-05
         9.065663e-05 8.07329e-05 8.042878e-05
         9.22077e-05 8.2118924e-05 8.181286e-05
         9.3770796e-05 8.3515806e-05 8.320792e-05
         9.534578e-05 8.49235e-05 8.4613894e-05
         9.693259e-05 8.6341955e-05 8.603073e-05
         9.853111e-05 8.7771055e-05 8.745833e-05
         0.000100141326 8.921077e-05 8.889663e-05
         0.000101763064 9.0661e-05 9.0345566e-05
         0.00010339628 9.212168e-05 9.180509e-05
         0.00010504086 9.35927e-05 9.3275085e-05
         0.000106696745 9.5074036e-05 9.47555e-05
         0.00010836384 9.6565556e-05 9.624624e-05
         0.000110042005 9.806721e-05 9.774727e-05
         0.00011173117 9.957891e-05 9.925845e-05
         0.00011343126 0.00010110058 0.00010077975
         0.00011514211 0.00010263213 0.000102311074
         0.00011686369 0.00010417345 0.000103852326
         0.00011859581 0.00010572448 0.000105403466
         0.000120338475 0.000107285145 0.000106964326
         0.00012209149 0.00010885532 0.00010853491
         0.00012385481 0.00011043493 0.000110115056
         0.00012562828 0.00011202388 0.000111704765
         0.00012741183 0.000113622096 0.00011330385
         0.0001292053 0.00011522942 0.00011491225
         0.00013100861 0.000116845826 0.000116529875
         0.00013282162 0.00011847119 0.000118156684
         0.00013464426 0.00012010544 0.00011979253
         0.00013647636 0.00012174843 0.00012143729
         0.00013831783 0.00012340008 0.00012309093
         0.00014016854 0.0001250603 0.00012475334
         0.0001420284 0.00012672898 0.00012642439
         0.00014389728 0.00012840598 0.000128104
         0.00014577497 0.00013009127 0.00012979204
         0.0001476615 0.00013178468 0.00013148846
         0.0001495566 0.00013348612 0.0001331931
         0.00015146022 0.0001351955 0.0001349059
         0.00015337221 0.00013691265 0.00013662674
         0.00015529244 0.00013863757 0.00013835549
         0.00015722075 0.00014037006 0.0001400921
         0.00015915709 0.00014210999 0.00014183638
         0.00016110124 0.00014385734 0.0001435883
         0.0001630531 0.0001456119 0.00014534767
         0.00016501255 0.00014737359 0.00014711444
         0.00016697944 0.00014914232 0.0001488885
         0.00016895361 0.00015091794 0.00015066967
         0.00017093495 0.0001527003 0.00015245788
         0.00017292332 0.00015448939 0.00015425301
         0.00017491853 0.00015628495 0.00015605496
         0.00017692048 0.00015808694 0.00015786356
         0.00017892903 0.00015989524 0.00015967876
         0.00018094399 0.00016170969 0.00016150037
         0.00018296529 0.00016353017 0.00016332831
         0.0001849927 0.00016535656 0.00016516243
         0.0001870261 0.00016718876 0.00016700265
         0.00018906535 0.00016902658 0.0001688488
         0.00019111033 0.00017086994 0.00017070079
         0.00019316083 0.0001727187 0.00017255846
         0.00019521672 0.0001745727 0.00017442172
         0.00019727786 0.00017643187 0.0001762904
         0.00019934407 0.000178296 0.00017816442
         0.00020141521 0.00018016505 0.00018004357
         0.00020349112 0.0001820388 0.00018192781
         0.00020557163 0.00018391715 0.00018381697
         0.0002076566 0.00018579993 0.00018571089
         0.00020974585 0.00018768707 0.00018760949
         0.00021183926 0.00018957834 0.00018951262
         0.0002139366 0.0001914737 0.00019142008
         0.00021603773 0.00019337292 0.00019333183
         0.00021814257 0.00019527592 0.00019524769
         0.00022025082 0.00019718253 0.00019716748
         0.0002223624 0.00019909267 0.00019909114
         0.00022447715 0.00020100607 0.00020101851
         0.00022659494 0.00020292272 0.0002029495
         0.00022871561 0.00020484258 0.00020488398
         0.00023083918 0.0002067655 0.00020682192
         0.00023296553 0.0002086914 0.00020876325
         0.00023509446 0.0002106202 0.00021070785
         0.000237226 0.00021255185 0.0002126557
         0.00023935996 0.00021448625 0.00021460664
         0.00024149632 0.0002164233 0.00021656064
         0.00024363493 0.00021836293 0.0002185177
         0.00024577582 0.00022030511 0.00022047761
         0.0002479187 0.00022224971 0.0002224404
         0.00025006357 0.00022419667 0.00022440594
         0.00025221042 0.0002261459 0.00022637418
         0.0002543591 0.00022809731 0.00022834506
         0.00025650958 0.00023005086 0.00023031844
         0.00025866157 0.00023200645 0.0002322943
         0.00026081517 0.00023396406 0.00023427264
         0.00026297028 0.00023592354 0.00023625325
         0.0002651268 0.00023788486 0.00023823616
         0.0002672846 0.0002398479 0.00024022127
         0.0002694436 0.00024181262 0.0002422085
         0.00027160367 0.00024377898 0.0002441978
         0.00027376492 0.00024574687 0.00024618913
         0.00027592716 0.00024771626 0.0002481823
         0.00027809016 0.00024968697 0.00025017743
         0.00028025405 0.00025165908 0.00025217433
         0.0002824187 0.00025363243 0.00025417292
         0.0002845839 0.00025560695 0.00025617325
         0.00028674986 0.00025758258 0.00025817516
         0.00028891614 0.0002595593 0.00026017855
         0.00029108292 0.00026153703 0.00026218346
         0.00029324993 0.00026351563 0.0002641898
         0.00029541738 0.00026549515 0.00026619752
         0.0002975849 0.00026747538 0.0002682066
         0.00029975252 0.00026945648 0.0002702168
         0.00030192028 0.0002714381 0.00027222824
         0.000304088 0.00027342042 0.00027424077
         0.00030625556 0.00027540314 0.00027625434
         0.000308423 0.00027738643 0.000278269
         0.0003105901 0.0002793702 0.00028028456
         0.0003127569 0.0002813542 0.00028230099
         0.00031492338 0.00028333862 0.00028431832
         0.0003170895 0.00028532324 0.00028633635
         0.00031925488 0.00028730795 0.00028835516
         0.00032141982 0.0002892929 0.00029037456
         0.000323584 0.00029127774 0.0002923947
         0.0003257476 0.00029326277 0.0002944154
         0.0003279103 0.0002952477 0.00029643654
         0.00033007222 0.00029723253 0.0002984582
         0.0003322332 0.0002992171 0.00030048017
         0.00033439312 0.00030120148 0.00030250268
         0.0003365521 0.00030318575 0.0003045253
         0.00033870997 0.0003051695 0.00030654832
         0.00034086657 0.00030715298 0.0003085716
         0.0003430221 0.00030913594 0.00031059494
         0.000345176 0.00031111832 0.0003126181
         0.00034732482 0.00031309677 0.0003146384
         0.00034948022 0.00031508165 0.0003166653
         0.0003516262 0.00031705905 0.0003186856
         0.0003537787 0.00031904262 0.00032071234
         0.0003559216 0.00032101848 0.00032273246
         0.0003580709 0.00032300048 0.00032475888
         0.00036021046 0.00032497483 0.00032677865
         0.0003623563 0.0003269552 0.0003288048
         0.00036449233 0.0003289277 0.000330824
         0.00036663451 0.00033090616 0.0003328495
         0.00036876698 0.0003328768 0.00033486812
         0.0003709053 0.00033485307 0.00033689284
         0.0003730337 0.00033682154 0.00033891056
         0.000375168 0.0003387957 0.0003409343
         0.0003772923 0.00034076168 0.00034295107
         0.00037942236 0.00034273343 0.0003449737
         0.00038154237 0.00034469698 0.00034698928
         0.00038366794 0.00034666603 0.00034901078
         0.00038578338 0.00034862699 0.00035102505
         0.00038790438 0.0003505934 0.00035304506
         0.00039001505 0.00035255155 0.000355058
         0.0003921313 0.00035451492 0.00035707658
         0.00039423708 0.00035647003 0.00035908777
         0.00039634822 0.00035843046 0.00036110467
         0.00039844902 0.00036038252 0.00036311423
         0.0004005552 0.0003623397 0.00036512944
         0.00040265082 0.00036428843 0.00036713714
         0.0004047515 0.0003662422 0.00036915028
         0.00040684175 0.0003681876 0.00037115614
         0.00040893696 0.00037013795 0.00037316716
         0.00041102167 0.00037207967 0.00037517087
         0.00041311127 0.0003740263 0.00037717988
         0.00041519027 0.00037596453 0.0003791814
         0.00041727402 0.0003779074 0.00038118812
         0.0004193472 0.00037984166 0.00038318738
         0.00042142504 0.0003817807 0.00038519167
         0.0004234922 0.00038371113 0.00038718843
         0.00042556392 0.00038564604 0.0003891902
         0.00042762508 0.00038757236 0.0003911845
         0.00042969067 0.0003895032 0.0003931837
         0.00043174543 0.00039142545 0.00039517545
         0.00043380473 0.00039335195 0.00039717197
         0.0004358531 0.00039526992 0.00039916096
         0.00043790592 0.0003971922 0.0004011547
         0.00043994782 0.00039910557 0.00040314088
         0.00044199408 0.00040102343 0.00040513172
         0.00044402946 0.00040293238 0.00040711503
         0.00044606888 0.0004048456 0.00040910297
         0.00044809745 0.00040675 0.0004110834
         0.0004501302 0.0004086586 0.00041306825
         0.0004521519 0.0004105583 0.00041504556
         0.00045417767 0.00041246202 0.00041702733
         0.00045619265 0.00041435708 0.00041900156
         0.0004582113 0.00041625608 0.00042098013
         0.0004602192 0.00041814617 0.0004229512
         0.00046223076 0.0004200401 0.00042492652
         0.00046423142 0.0004219253 0.0004268944
         0.0004662358 0.00042381426 0.00042886645
         0.0004682293 0.0004256945 0.00043083087
         0.0004702264 0.00042757837 0.00043279954
         0.00047221268 0.00042945342 0.00043476073
         0.00047420227 0.00043133216 0.000436726
         0.0004761812 0.0004332021 0.00043868378
         0.00047816348 0.0004350756 0.0004406455
         0.0004801349 0.0004369403 0.00044259985
         0.00048210964 0.00043880846 0.00044455807
         0.00048407345 0.00044066788 0.0004465088
         0.0004860407 0.00044253067 0.00044846354
         0.00048799688 0.0004443848 0.0004504107
         0.0004899564 0.00044624216 0.00045236186
         0.000491905 0.0004480909 0.0004543055
         0.00049385685 0.00044994277 0.00045625298
         0.00049579784 0.00045178604 0.00045819304
         0.0004977418 0.00045363247 0.0004601369
         0.00049967493 0.00045547014 0.00046207316
         0.0005016112 0.00045731117 0.0004640134
         0.0005035366 0.00045914325 0.00046594613
         0.00050546497 0.00046097863 0.00046788255
         0.00050738244 0.00046280518 0.00046981155
         0.0005093029 0.00046463485 0.00047174408
         0.00051121245 0.00046645588 0.0004736695
         0.000513125 0.00046827985 0.00047559838
         0.00051502674 0.00047009517 0.00047752005
         0.0005169313 0.00047191346 0.0004794451
         0.00051882496 0.00047372308 0.00048136307
         0.00052072154 0.0004755356 0.00048328444
         0.0005226073 0.0004773397 0.0004851986
         0.00052449584 0.00047914643 0.00048711602
         0.0005263736 0.0004809447 0.00048902654
         0.00052825396 0.00048274573 0.0004909404
         0.0005301239 0.0004845382 0.000492847
         0.0005319961 0.0004863334 0.00049475714
         0.0005338579 0.00048812022 0.0004966601
         0.00053572224 0.0004899097 0.0004985663
         0.00053757586 0.00049169076 0.0005004655
         0.00053943205 0.0004934744 0.0005023681
         0.0005412778 0.0004952496 0.00050426356
         0.0005431258 0.0004970274 0.00050616235
         0.00054496346 0.0004987969 0.00050805416
         0.00054680347 0.00050056895 0.0005099492
         0.00054863305 0.0005023326 0.00051183737
         0.00055046496 0.00050409883 0.00051372865
         0.0005522864 0.00050585676 0.0005156131
         0.0005541102 0.0005076171 0.0005175008
         0.0005559236 0.00050936925 0.0005193817
         0.0005577394 0.0005111239 0.0005212655
         0.0005595448 0.0005128703 0.000523143
         0.00056135247 0.0005146191 0.00052502315
         0.00056315 0.00051635987 0.00052689697
         0.00056494947 0.00051810296 0.0005287736
         0.000566739 0.00051983783 0.0005306438
         0.0005685307 0.0005215751 0.00053251686
         0.00057031214 0.00052330445 0.00053438364
         0.0005720957 0.0005250359 0.0005362533
         0.0005738694 0.00052675954 0.0005381165
         0.0005756449 0.0005284854 0.00053998263
         0.0005774107 0.0005302033 0.0005418424
         0.0005791782 0.0005319234 0.00054370513
         0.0005809362 0.0005336358 0.0005455616
         0.0005826959 0.00053535023 0.0005474209
         0.0005844459 0.00053705706 0.0005492742
         0.00058619765 0.0005387659 0.00055113004
         0.0005879399 0.00054046704 0.0005529801
         0.0005896839 0.00054217037 0.0005548328
         0.0005914185 0.0005438661 0.00055667956
         0.00059315463 0.00054556364 0.00055852893
         0.00059488154 0.000547254 0.00056037266
         0.00059660996 0.00054894603 0.00056221907
         0.00059832906 0.00055063085 0.00056405953
         0.00060004985 0.00055231777 0.0005659027
         0.0006017615 0.00055399706 0.00056774035
         0.0006034748 0.0005556785 0.0005695805
         0.0006051788 0.00055735256 0.00057141524
         0.0006068845 0.0005590286 0.0005732525
         0.000608581 0.0005606974 0.00057508424
         0.00061027915 0.000562368 0.0005769186
         0.00061196845 0.0005640316 0.00057874765
         0.00061365915 0.0005656971 0.00058057916
         0.00061534095 0.00056735554 0.0005824056
         0.00061702414 0.00056901586 0.00058423437
         0.00061869883 0.0005706692 0.0005860581
         0.000620375 0.00057232426 0.0005878843
         0.0006220423 0.00057397265 0.0005897055
         0.00062371104 0.00057562266 0.00059152907
         0.00062537135 0.000577266 0.0005933478
         0.00062703306 0.00057891104 0.0005951691
         0.00062868634 0.00058054953 0.0005969854
         0.0006303409 0.00058218965 0.00059880427
         0.0006319872 0.0005838233 0.0006006184
         0.00063363486 0.0005854585 0.0006024349
         0.00063527416 0.0005870875 0.0006042469
         0.000636915 0.00058871805 0.0006060612
         0.0006385475 0.00059034233 0.00060787116
         0.0006401815 0.0005919682 0.00060968345
         0.00064180745 0.00059358776 0.0006114914
         0.00064343476 0.000595209 0.0006133015
         0.0006450541 0.0005968241 0.0006151077
         0.0006466746 0.00059844076 0.0006169162
         0.0006482874 0.00060005154 0.0006187206
         0.00064990163 0.0006016637 0.00062052725
         0.00065150805 0.0006032702 0.00062232994
         0.0006531158 0.00060487806 0.00062413496
         0.00065471587 0.0006064801 0.00062593614
         0.0006563173 0.00060808397 0.00062773965
         0.00065791124 0.0006096819 0.0006295395
         0.0006595064 0.0006112814 0.0006313415
         0.0006610944 0.0006128754 0.0006331399
         0.00066268333 0.0006144708 0.00063494075
         0.00066426524 0.0006160607 0.0006367381
         0.0006658484 0.0006176522 0.00063853775
         0.0006674244 0.00061923836 0.00064033386
         0.0006690016 0.00062082586 0.0006421324
         0.00067057187 0.0006224083 0.00064392784
         0.0006721434 0.0006239921 0.0006457254
         0.00067370804 0.00062557077 0.00064751995
         0.0006752739 0.00062715105 0.0006493167
         0.0006768331 0.0006287261 0.0006511106
         0.0006783934 0.00063030276 0.0006529067
         0.0006799473 0.00063187466 0.0006547002
         0.00068150216 0.00063344784 0.00065649586
         0.00068305066 0.00063501624 0.0006582888
         0.0006846003 0.00063658605 0.0006600839
         0.00068614376 0.0006381513 0.00066187663
         0.0006876882 0.000639718 0.0006636715
         0.00068922667 0.00064128014 0.0006654642
         0.00069076614 0.00064284384 0.00066725916
         0.0006922997 0.0006444029 0.0006690516
         0.00069383444 0.00064596365 0.00067084655
         0.0006953631 0.00064751995 0.00067263935
         0.0006968931 0.0006490777 0.0006744345
         0.00069841737 0.0006506313 0.0006762277
         0.0006999427 0.00065218634 0.00067802303
         0.0007014624 0.00065373746 0.0006798166
         0.0007029832 0.00065528974 0.00068161235
         0.0007044988 0.00065683847 0.0006834067
         0.0007060153 0.0006583883 0.00068520324
         0.00070752663 0.00065993454 0.00068699825
         0.00070903904 0.0006614823 0.00068879564
         0.0007105464 0.00066302635 0.00069059164
         0.0007120548 0.00066457165 0.0006923898
         0.0007135581 0.0006661137 0.000694187
         0.00071506266 0.000667657 0.0006959863
         0.0007165624 0.000669197 0.00069778477
         0.00071806327 0.00067073834 0.00069958536
         0.00071955926 0.0006722767 0.0007013851
         0.0007210566 0.00067381636 0.0007031872
         0.0007225494 0.0006753529 0.00070498866
         0.00072404323 0.00067689095 0.00070679246
         0.0007255328 0.000678426 0.0007085957
         0.00072702335 0.00067996257 0.00071040116
         0.0007285096 0.00068149617 0.0007122063
         0.0007299971 0.0006830313 0.00071401364
         0.0007314807 0.0006845637 0.00071582105
         0.00073296524 0.00068609766 0.00071763055
         0.0007344461 0.0006876291 0.0007194401
         0.0007359279 0.00068916206 0.0007212521
         0.000737406 0.0006906925 0.00072306406
         0.00073888525 0.0006922244 0.00072487845
         0.00074036093 0.00069375406 0.00072669337
         0.00074183784 0.0006952853 0.00072851044
         0.0007433112 0.0006968144 0.00073032797
         0.0007447858 0.000698345 0.00073214795
         0.00074625714 0.00069987366 0.0007339685
         0.0007477297 0.0007014037 0.0007357915
