ocio-configs/luts/ts_acescct_200nits_to_gamma26.spi1d
Version 1
From 0.000000 1.000000
Length 4096
Components 1
{
         0.0
         0.0
         0.0
         0.0
         0.0
         0.0
         0.0
         0.0
         0.0
         0.0
         0.0
         0.0
         0.0
         0.0
         0.0
         0.0
         0.0
         0.0
         0.0
         0.0
         0.0
         0.0
         0.0
         0.0
         0.0
         0.0
         0.0
         0.0
         0.0
         0.0
         0.0
         0.0
         0.0
         0.0
         0.0
         0.0
         0.0
         0.0
         0.0
         0.0
         0.0
         0.0
         0.0
         0.0
         0.0
         0.0
         0.0
         0.0
         0.0
         0.0
         0.0
         0.0
         0.0
         0.0
         0.0
         0.0
         0.0
         0.0
         0.0
         0.0
         0.0
         0.0
         0.0
         0.0
         0.0
         0.0
         0.0
         0.0
         0.0
         0.0
         0.0
         0.0
         0.0
         0.0
         0.0
         0.0
         0.0
         0.0
         0.0
         0.0
         0.0
         0.0
         0.0
         0.0
         0.0
         0.0
         0.0
         0.0
         0.0
         0.0
         0.0
         0.0
         0.0
         0.0
         0.0
         0.0
         0.0
         0.0
         0.0
         0.0
         0.0
         0.0
         0.0
         0.0
         0.0
         0.0
         0.0
         0.0
         0.0
         0.0
         0.0
         0.0
         0.0
         0.0
         0.0
         0.0
         0.0
         0.0
         0.0
         0.0
         0.0
         0.0
         0.0
         0.0
         0.0
         0.0
         0.0
         0.0
         0.0
         0.0
         0.0
         0.0
         0.0
         0.0
         0.0
         0.0
         0.0
         0.0
         0.0
         0.0
         0.0
         0.0
         0.0
         0.0
         0.0
         0.0
         0.0
         0.0
         0.0
         0.0
         0.0
         0.0
         0.0
         0.0
         0.0
         0.0
         0.0
         0.0
         0.0
         0.0
         0.0
         0.0
         0.0
         0.0
         0.0
         0.0
         0.0
         0.0
         0.0
         0.0
         0.0
         0.0
         0.0
         0.0
         0.0
         0.0
         0.0
         0.0
         0.0
         0.0
         0.0
         0.0
         0.0
         0.0
         0.0
         0.0
         0.0
         0.0
         0.0
         0.0
         0.0
         0.0
         0.0
         0.0
         0.0
         0.0
         0.0
         0.0
         0.0
         0.0
         0.0
         0.0
         0.0
         0.0
         0.0
         0.0
         0.0
         0.0
         0.0
         0.0
         0.0
         0.0
         0.0
         0.0
         0.0
         0.0
         0.0
         0.0
         0.0
         0.0
         0.0
         0.0
         0.0
         0.0
         0.0
         0.0
         0.0
         0.0
         0.0
         0.0
         0.0
         0.0
         0.0
         0.0
         0.0
         0.0
         0.0
         0.0
         0.0
         0.0
         0.0
         0.0
         0.0
         0.0
         0.0
         0.0
         0.0
         0.0
         0.0
         0.0
         0.0
         0.0
         0.0
         0.0
         0.0
         0.0
         0.0
         0.0
         0.0
         0.0
         0.0
         0.0
         0.0
         0.0
         0.0
         0.0
         0.0
         0.0
         0.0
         0.0
         0.0
         0.0
         0.0
         0.0
         0.0
         0.0
         0.0
         0.0
         0.0
         0.0
         0.0
         0.0
         0.0
         0.0
         0.0
         0.0
         0.0
         0.0
         0.0
         0.0
         0.0
         0.0
         0.0
         0.0
         0.0
         0.0
         0.0
         0.0
         0.0
         0.0011719669
         0.002673193
         0.0033536595
         0.0038248717
         0.0041957158
         0.0045065195
         0.004777039
         0.0050183767
         0.005240936
         0.0054532588
         0.0056566685
         0.005852155
         0.0060406607
         0.006222911
         0.0063995975
         0.006571243
         0.0067383437
         0.00690133
         0.007060528
         0.007216288
         0.007368843
         0.007518474
         0.0076653673
         0.0078097414
         0.007951737
         0.008091544
         0.008229263
         0.008365053
         0.008498997
         0.0086312285
         0.0087618185
         0.008890874
         0.009018444
         0.009144632
         0.0092695085
         0.009393105
         0.0095155155
         0.009636761
         0.009756923
         0.0098760165
         0.009994118
         0.010111233
         0.010227435
         0.010342732
         0.010457177
         0.010570786
         0.010683613
         0.01079565
         0.01090695
         0.011017544
         0.01112743
         0.0112366555
         0.011345227
         0.011453178
         0.011560512
         0.011667256
         0.0117734205
         0.011879044
         0.01198411
         0.012088665
         0.012192702
         0.012296255
         0.012399306
         0.012501889
         0.012604028
         0.012705707
         0.012806966
         0.012907787
         0.013008208
         0.013108214
         0.013207834
         0.013307062
         0.013405928
         0.013504416
         0.013602555
         0.013700334
         0.013797781
         0.013894881
         0.01399165
         0.014088117
         0.014184253
         0.01428009
         0.014375621
         0.014470859
         0.014565809
         0.014660484
         0.014754863
         0.014848984
         0.014942834
         0.0150364265
         0.015129749
         0.015222835
         0.015315657
         0.015408235
         0.01550059
         0.015592694
         0.015684588
         0.015776236
         0.015867671
         0.015958887
         0.016049886
         0.016140677
         0.016231256
         0.01632163
         0.016411806
         0.016501777
         0.016591568
         0.016681153
         0.016770558
         0.01685977
         0.016948799
         0.017037656
         0.017126326
         0.01721484
         0.017303172
         0.017391326
         0.01747932
         0.01756715
         0.01765482
         0.017742332
         0.017829679
         0.01791688
         0.018003918
         0.018090814
         0.018177554
         0.018264145
         0.018350605
         0.018436903
         0.018523077
         0.018609103
         0.018695006
         0.018780757
         0.01886638
         0.018951874
         0.019037247
         0.019122472
         0.01920758
         0.019292554
         0.019377422
         0.019462153
         0.019546764
         0.019631274
         0.019715644
         0.019799912
         0.019884057
         0.019968089
         0.020052012
         0.020135831
         0.020219529
         0.020303136
         0.020386612
         0.020470005
         0.020553276
         0.02063646
         0.020719519
         0.020802498
         0.020885369
         0.020968145
         0.02105082
         0.0211334
         0.021215891
         0.021298282
         0.021380587
         0.021462778
         0.021544894
         0.021626906
         0.021708848
         0.02179069
         0.021872457
         0.021954123
         0.02203572
         0.022117218
         0.022198627
         0.022279963
         0.022361217
         0.022442399
         0.022523478
         0.022604497
         0.022685416
         0.022766283
         0.02284706
         0.022927754
         0.023008373
         0.02308893
         0.023169398
         0.023249803
         0.023330128
         0.023410372
         0.023490567
         0.023570668
         0.02365073
         0.023730695
         0.023810599
         0.023890426
         0.023970198
         0.024049904
         0.024129542
         0.024209116
         0.024288636
         0.024368064
         0.024447436
         0.024526754
         0.024605986
         0.024685191
         0.024764322
         0.024843387
         0.024922382
         0.02500134
         0.025080213
         0.025159042
         0.025237817
         0.025316518
         0.025395157
         0.025473775
         0.025552306
         0.025630794
         0.02570923
         0.025787588
         0.025865914
         0.02594417
         0.026022384
         0.026100533
         0.026178636
         0.026256694
         0.026334701
         0.026412651
         0.026490537
         0.02656839
         0.026646193
         0.026723927
         0.026801622
         0.026879262
         0.02695687
         0.027034443
         0.027111925
         0.027189378
         0.027266786
         0.027344156
         0.027421469
         0.02749875
         0.027575979
         0.027653154
         0.027730284
         0.02780735
         0.027884308
         0.027961146
         0.02803787
         0.028114507
         0.028190978
         0.028267337
         0.028343616
         0.028419761
         0.02849582
         0.02857172
         0.028647536
         0.02872324
         0.02879881
         0.028874302
         0.028949656
         0.02902493
         0.029100094
         0.029175127
         0.02925006
         0.029324876
         0.029399602
         0.0294742
         0.029548703
         0.02962313
         0.029697422
         0.029771637
         0.029845715
         0.029919708
         0.0299936
         0.030067384
         0.030141057
         0.030214636
         0.030288136
         0.030361526
         0.030434808
         0.03050797
         0.030581074
         0.03065407
         0.030726936
         0.030799745
         0.030872442
         0.030945042
         0.031017542
         0.031089965
         0.03116228
         0.031234503
         0.03130663
         0.031378653
         0.031450607
         0.031522438
         0.03159421
         0.03166587
         0.031737424
         0.031808913
         0.03188031
         0.03195162
         0.032022826
         0.032093957
         0.032164976
         0.032235935
         0.032306787
         0.03237756
         0.032448232
         0.032518834
         0.032589342
         0.032659773
         0.032730103
         0.032800335
         0.032870512
         0.03294059
         0.033010572
         0.03308049
         0.033150326
         0.033220064
         0.033289727
         0.033359293
         0.033428818
         0.033498216
         0.033567566
         0.033636812
         0.033705987
         0.033775054
         0.033844084
         0.033913
         0.033981845
         0.034050636
         0.03411931
         0.034187924
         0.03425646
         0.034324925
         0.03439329
         0.034461584
         0.034529824
         0.034598015
         0.03466621
         0.03473461
         0.034803066
         0.03487165
         0.034940418
         0.03500917
         0.035078224
         0.035147306
         0.035216566
         0.03528593
         0.035355378
         0.03542503
         0.035494737
         0.03556465
         0.03563463
         0.03570474
         0.03577506
         0.03584537
         0.03591595
         0.035986558
         0.036057357
         0.036128275
         0.036199275
         0.036270488
         0.036341745
         0.03641321
         0.036484756
         0.036556434
         0.036628295
         0.036700193
         0.036772344
         0.03684452
         0.036916878
         0.036989387
         0.037061967
         0.03713476
         0.0372076
         0.037280668
         0.037353825
         0.03742711
         0.037500553
         0.037574034
         0.037647795
         0.0377216
         0.037795566
         0.037869684
         0.037943877
         0.038018316
         0.03809274
         0.038167465
         0.038242184
         0.038317125
         0.038392182
         0.038467314
         0.038542733
         0.038618177
         0.03869379
         0.03876956
         0.038845405
         0.038921494
         0.038997572
         0.039073937
         0.03915034
         0.039226945
         0.039303668
         0.039380472
         0.03945756
         0.03953464
         0.039611973
         0.039689384
         0.039766926
         0.039844707
         0.03992247
         0.04000054
         0.040078655
         0.04015696
         0.040235408
         0.04031389
         0.04039269
         0.04047148
         0.040550523
         0.040629648
         0.040708914
         0.040788397
         0.040867884
         0.04094768
         0.041027527
         0.041107584
         0.041187756
         0.04126802
         0.04134852
         0.041429073
         0.04150987
         0.041590754
         0.04167177
         0.041753013
         0.041834243
         0.041915823
         0.04199744
         0.042079248
         0.04216119
         0.04224323
         0.042325504
         0.04240785
         0.04249046
         0.042573135
         0.042655915
         0.042738974
         0.04282202
         0.04290541
         0.04298878
         0.043072417
         0.043156173
         0.043240026
         0.043324124
         0.04340829
         0.043492693
         0.043577187
         0.04366183
         0.043746736
         0.043831598
         0.043916803
         0.04400204
         0.044087533
         0.04417313
         0.044258803
         0.04434476
         0.04443078
         0.04451705
         0.044603426
         0.044689957
         0.044776678
         0.04486344
         0.04495054
         0.04503768
         0.045125004
         0.04521251
         0.04530009
         0.045387957
         0.045475844
         0.045564044
         0.045652304
         0.045740742
         0.045829315
         0.04591803
         0.046007052
         0.046096087
         0.046185337
         0.046274774
         0.0463643
         0.046454106
         0.04654393
         0.046634037
         0.04672421
         0.046814624
         0.046905175
         0.046995837
         0.04708679
         0.04717776
         0.04726902
         0.04736042
         0.047451932
         0.04754367
         0.047635466
         0.04772758
         0.04781976
         0.047912136
         0.048004694
         0.048097335
         0.04819029
         0.048283223
         0.048376538
         0.04846989
         0.048563395
         0.04865719
         0.048750997
         0.04884514
         0.048939317
         0.049033742
         0.049128342
         0.04922301
         0.049317967
         0.049413003
         0.04950833
         0.049603708
         0.049699288
         0.049795106
         0.04989098
         0.049987156
         0.05008342
         0.050179943
         0.050276585
         0.05037335
         0.050470397
         0.05056748
         0.050664898
         0.0507624
         0.05086006
         0.050957985
         0.051055953
         0.05115426
         0.051252577
         0.051351238
         0.051449962
         0.051548865
         0.051648036
         0.051747255
         0.05184678
         0.051946424
         0.052046232
         0.052146323
         0.052246377
         0.05234686
         0.052447353
         0.052548114
         0.05264903
         0.052750085
         0.05285142
         0.05295277
         0.0530545
         0.053156305
         0.053258315
         0.053360533
         0.053462822
         0.05356547
         0.053668186
         0.05377115
         0.05387426
         0.053977527
         0.054081053
         0.05418461
         0.05428859
         0.0543926
         0.054496836
         0.054601282
         0.0547058
         0.054810688
         0.05491562
         0.055020813
         0.055126213
         0.055231698
         0.0553375
         0.05544334
         0.055549584
         0.055655837
         0.055762343
         0.05586903
         0.05597585
         0.056082994
         0.056190234
         0.056297693
         0.05640538
         0.0565132
         0.056621287
         0.056729436
         0.05683796
         0.056946523
         0.05705534
         0.057164382
         0.057273533
         0.057382997
         0.057492528
         0.057602394
         0.057712384
         0.057822544
         0.05793296
         0.058043454
         0.058154326
         0.058265246
         0.05837646
         0.058487874
         0.05859935
         0.058711257
         0.05882314
         0.058935378
         0.0590477
         0.059160285
         0.059273127
         0.05938598
         0.059499253
         0.059612617
         0.05972624
         0.059840027
         0.059953988
         0.06006829
         0.060182586
         0.060297232
         0.060412046
         0.060527008
         0.060642287
         0.060757592
         0.060873356
         0.06098913
         0.061105274
         0.0612215
         0.061337925
         0.06145466
         0.061571416
         0.061688602
         0.061805863
         0.06192334
         0.06204115
         0.062158912
         0.062277175
         0.062395465
         0.06251405
         0.062632814
         0.06275176
         0.06287102
         0.062990315
         0.063110046
         0.06322984
         0.06334984
         0.06347017
         0.06359051
         0.06371132
         0.063832164
         0.06395331
         0.06407464
         0.064196154
         0.06431795
         0.064439826
         0.06456213
         0.06468453
         0.06480713
         0.06493002
         0.06505298
         0.065176375
         0.06529982
         0.06542361
         0.065547585
         0.06567164
         0.06579611
         0.065920606
         0.066045575
         0.06617056
         0.06629582
         0.06642135
         0.06654696
         0.06667301
         0.066799104
         0.06692553
         0.06705213
         0.06717894
         0.06730607
         0.067433245
         0.06756086
         0.06768857
         0.06781654
         0.06794473
         0.06807304
         0.068201795
         0.06833063
         0.06845977
         0.0685891
         0.06871863
         0.06884848
         0.068978354
         0.06910873
         0.06923917
         0.06936992
         0.069500856
         0.069631964
         0.069763474
         0.06989501
         0.070026964
         0.07015899
         0.07029136
         0.070424
         0.07055663
         0.07068983
         0.070823066
         0.07095658
         0.07109036
         0.07122428
         0.07135861
         0.071492925
         0.071627736
         0.07176263
         0.07189781
         0.07203322
         0.07216875
         0.07230479
         0.07244082
         0.072577305
         0.072713874
         0.07285069
         0.072987884
         0.07312509
         0.073262766
         0.07340055
         0.07353862
         0.073676966
         0.0738154
         0.073954314
         0.07409324
         0.07423264
         0.07437213
         0.07451186
         0.07465201
         0.07479208
         0.07493272
         0.07507347
         0.07521445
         0.07535578
         0.07549718
         0.075639024
         0.07578099
         0.07592329
         0.07606578
         0.07620846
         0.07635155
         0.076494694
         0.076638326
         0.076782085
         0.07692607
         0.07707042
         0.07721479
         0.077359684
         0.07750467
         0.07764997
         0.07779554
         0.07794127
         0.07808744
         0.07823359
         0.07838032
         0.07852706
         0.078674115
         0.07882152
         0.07896902
         0.07911699
         0.07926499
         0.079413444
         0.079562135
         0.07971095
         0.07986015
         0.080009446
         0.08015929
         0.08030917
         0.08045941
         0.08060989
         0.080760494
         0.08091162
         0.0810628
         0.08121441
         0.08136621
         0.081518255
         0.0816706
         0.08182305
         0.08197609
         0.082129136
         0.082282536
         0.08243625
         0.08259004
         0.08274442
         0.08289876
         0.08305364
         0.08320855
         0.08336381
         0.083519444
         0.08367515
         0.08383138
         0.083987705
         0.08414435
         0.08430131
         0.08445843
         0.08461598
         0.084773585
         0.08493171
         0.08508995
         0.08524852
         0.085407466
         0.08556641
         0.08572594
         0.085885584
         0.08604558
         0.086205825
         0.08636625
         0.08652718
         0.08668813
         0.086849585
         0.08701118
         0.08717313
         0.08733539
         0.0874977
         0.087660655
         0.08782362
         0.087987006
         0.08815062
         0.088314444
         0.088478774
         0.08864302
         0.08880796
         0.08897297
         0.08913832
         0.08930399
         0.08946977
         0.08963616
         0.08980252
         0.0899694
         0.090136416
         0.090303734
         0.09047143
         0.09063925
         0.09080766
         0.09097615
         0.091144934
         0.09131414
         0.09148341
         0.09165324
         0.091823116
         0.09199355
         0.09216413
         0.09233493
         0.092506215
         0.0926775
         0.09284946
         0.09302139
         0.09319383
         0.09336659
         0.09353942
         0.09371279
         0.09388627
         0.094060235
         0.094234414
         0.0944088
         0.094583675
         0.094758615
         0.09493419
         0.095109746
         0.09528578
         0.09546212
         0.09563854
         0.09581565
         0.09599276
         0.096170336
         0.096348174
         0.09652631
         0.0967048
         0.09688341
         0.097062625
         0.09724195
         0.097421646
         0.09760169
         0.0977818
         0.09796261
         0.09814339
         0.09832475
         0.09850626
         0.09868817
         0.09887035
         0.09905271
         0.09923573
         0.09941875
         0.099602245
         0.099786
         0.099970005
         0.10015455
         0.1003391
         0.10052424
         0.10070955
         0.10089527
         0.10108122
         0.101267435
         0.10145423
         0.10164109
         0.10182842
         0.102016024
         0.102203906
         0.1023923
         0.10258068
         0.10276968
         0.102958895
         0.10314842
         0.10333839
         0.103528425
         0.10371917
         0.103909895
         0.104101166
         0.104292646
         0.10448445
         0.10467668
         0.10486903
         0.10506203
         0.10525515
         0.10544866
         0.1056426
         0.10583659
         0.106031284
         0.10622595
         0.10642125
         0.10661674
         0.10681253
         0.10700878
         0.10720508
         0.10740215
         0.10759923
         0.10779682
         0.10799475
         0.1081929
         0.10839152
         0.108590305
         0.108789645
         0.108989224
         0.109189026
         0.1093894
         0.10958978
         0.10979096
         0.10999214
         0.110193826
         0.11039586
         0.11059804
         0.11080083
         0.111003734
         0.11120728
         0.11141095
         0.11161496
         0.11181949
         0.11202409
         0.112229384
         0.11243474
         0.11264055
         0.11284685
         0.11305321
         0.1132602
         0.11346733
         0.113674976
         0.113882974
         0.11409122
         0.11429998
         0.114508756
         0.114718355
         0.114927985
         0.115138076
         0.11534858
         0.1155592
         0.11577055
