ocio-configs/luts/ts_acescct_2000nits_to_linearcv.spi1d
Version 1
From 0.000000 1.000000
Length 4096
Components 1
{
         -3.637979e-15
         -3.637979e-15
         -3.637979e-15
         -3.637979e-15
         -3.637979e-15
         -3.637979e-15
         -3.637979e-15
         -3.637979e-15
         -3.637979e-15
         -3.637979e-15
         -3.637979e-15
         -3.637979e-15
         -3.637979e-15
         -3.637979e-15
         -3.637979e-15
         -3.637979e-15
         -3.637979e-15
         -3.637979e-15
         -3.637979e-15
         -3.637979e-15
         -3.637979e-15
         -3.637979e-15
         -3.637979e-15
         -3.637979e-15
         -3.637979e-15
         -3.637979e-15
         -3.637979e-15
         -3.637979e-15
         -3.637979e-15
         -3.637979e-15
         -3.637979e-15
         -3.637979e-15
         -3.637979e-15
         -3.637979e-15
         -3.637979e-15
         -3.637979e-15
         -3.637979e-15
         -3.637979e-15
         -3.637979e-15
         -3.637979e-15
         -3.637979e-15
         -3.637979e-15
         -3.637979e-15
         -3.637979e-15
         -3.637979e-15
         -3.637979e-15
         -3.637979e-15
         -3.637979e-15
         -3.637979e-15
         -3.637979e-15
         -3.637979e-15
         -3.637979e-15
         -3.637979e-15
         -3.637979e-15
         -3.637979e-15
         -3.637979e-15
         -3.637979e-15
         -3.637979e-15
         -3.637979e-15
         -3.637979e-15
         -3.637979e-15
         -3.637979e-15
         -3.637979e-15
         -3.637979e-15
         -3.637979e-15
         -3.637979e-15
         -3.637979e-15
         -3.637979e-15
         -3.637979e-15
         -3.637979e-15
         -3.637979e-15
         -3.637979e-15
         -3.637979e-15
         -3.637979e-15
         -3.637979e-15
         -3.637979e-15
         -3.637979e-15
         -3.637979e-15
         -3.637979e-15
         -3.637979e-15
         -3.637979e-15
         -3.637979e-15
         -3.637979e-15
         -3.637979e-15
         -3.637979e-15
         -3.637979e-15
         -3.637979e-15
         -3.637979e-15
         -3.637979e-15
         -3.637979e-15
         -3.637979e-15
         -3.637979e-15
         -3.637979e-15
         -3.637979e-15
         -3.637979e-15
         -3.637979e-15
         -3.637979e-15
         -3.637979e-15
         -3.637979e-15
         -3.637979e-15
         -3.637979e-15
         -3.637979e-15
         -3.637979e-15
         -3.637979e-15
         -3.637979e-15
         -3.637979e-15
         -3.637979e-15
         -3.637979e-15
         -3.637979e-15
         -3.637979e-15
         -3.637979e-15
         -3.637979e-15
         -3.637979e-15
         -3.637979e-15
         -3.637979e-15
         -3.637979e-15
         -3.637979e-15
         -3.637979e-15
         -3.637979e-15
         -3.637979e-15
         -3.637979e-15
         -3.637979e-15
         -3.637979e-15
         -3.637979e-15
         -3.637979e-15
         -3.637979e-15
         -3.637979e-15
         -3.637979e-15
         -3.637979e-15
         -3.637979e-15
         -3.637979e-15
         -3.637979e-15
         -3.637979e-15
         -3.637979e-15
         -3.637979e-15
         -3.637979e-15
         -3.637979e-15
         -3.637979e-15
         -3.637979e-15
         -3.637979e-15
         -3.637979e-15
         -3.637979e-15
         -3.637979e-15
         -3.637979e-15
         -3.637979e-15
         -3.637979e-15
         -3.637979e-15
         -3.637979e-15
         -3.637979e-15
         -3.637979e-15
         -3.637979e-15
         -3.637979e-15
         -3.637979e-15
         -3.637979e-15
         -3.637979e-15
         -3.637979e-15
         -3.637979e-15
         -3.637979e-15
         -3.637979e-15
         -3.637979e-15
         -3.637979e-15
         -3.637979e-15
         -3.637979e-15
         -3.637979e-15
         -3.637979e-15
         -3.637979e-15
         -3.637979e-15
         -3.637979e-15
         -3.637979e-15
         -3.637979e-15
         -3.637979e-15
         -3.637979e-15
         -3.637979e-15
         -3.637979e-15
         -3.637979e-15
         -3.637979e-15
         -3.637979e-15
         -3.637979e-15
         -3.637979e-15
         -3.637979e-15
         -3.637979e-15
         -3.637979e-15
         -3.637979e-15
         -3.637979e-15
         -3.637979e-15
         -3.637979e-15
         -3.637979e-15
         -3.637979e-15
         -3.637979e-15
         -3.637979e-15
         -3.637979e-15
         -3.637979e-15
         -3.637979e-15
         -3.637979e-15
         -3.637979e-15
         -3.637979e-15
         -3.637979e-15
         -3.637979e-15
         -3.637979e-15
         -3.637979e-15
         -3.637979e-15
         -3.637979e-15
         -3.637979e-15
         -3.637979e-15
         -3.637979e-15
         -3.637979e-15
         -3.637979e-15
         -3.637979e-15
         -3.637979e-15
         -3.637979e-15
         -3.637979e-15
         -3.637979e-15
         -3.637979e-15
         -3.637979e-15
         -3.637979e-15
         -3.637979e-15
         -3.637979e-15
         -3.637979e-15
         -3.637979e-15
         -3.637979e-15
         -3.637979e-15
         -3.637979e-15
         -3.637979e-15
         -3.637979e-15
         -3.637979e-15
         -3.637979e-15
         -3.637979e-15
         -3.637979e-15
         -3.637979e-15
         -3.637979e-15
         -3.637979e-15
         -3.637979e-15
         -3.637979e-15
         -3.637979e-15
         -3.637979e-15
         -3.637979e-15
         -3.637979e-15
         -3.637979e-15
         -3.637979e-15
         -3.637979e-15
         -3.637979e-15
         -3.637979e-15
         -3.637979e-15
         -3.637979e-15
         -3.637979e-15
         -3.637979e-15
         -3.637979e-15
         -3.637979e-15
         -3.637979e-15
         -3.637979e-15
         -3.637979e-15
         -3.637979e-15
         -3.637979e-15
         -3.637979e-15
         -3.637979e-15
         -3.637979e-15
         -3.637979e-15
         -3.637979e-15
         -3.637979e-15
         -3.637979e-15
         -3.637979e-15
         -3.637979e-15
         -3.637979e-15
         -3.637979e-15
         -3.637979e-15
         -3.637979e-15
         -3.637979e-15
         -3.637979e-15
         -3.637979e-15
         -3.637979e-15
         -3.637979e-15
         -3.637979e-15
         -3.637979e-15
         -3.637979e-15
         -3.637979e-15
         -3.637979e-15
         -3.637979e-15
         -3.637979e-15
         -3.637979e-15
         -3.637979e-15
         -3.637979e-15
         -3.637979e-15
         -3.637979e-15
         -3.637979e-15
         -3.637979e-15
         -3.637979e-15
         -3.637979e-15
         -3.637979e-15
         -3.637979e-15
         -3.637979e-15
         -3.637979e-15
         -3.637979e-15
         -3.637979e-15
         -3.637979e-15
         -3.637979e-15
         -3.637979e-15
         -3.637979e-15
         -3.637979e-15
         -3.637979e-15
         8.860367e-09
         3.590046e-08
         5.934301e-08
         8.1094406e-08
         1.0273814e-07
         1.2532686e-07
         1.4879124e-07
         1.7309695e-07
         1.9823645e-07
         2.242001e-07
         2.5098967e-07
         2.785981e-07
         3.070312e-07
         3.3628234e-07
         3.6635802e-07
         3.9725217e-07
         4.289688e-07
         4.615119e-07
         4.948748e-07
         5.2906614e-07
         5.640787e-07
         5.9992203e-07
         6.3658956e-07
         6.7408985e-07
         7.124159e-07
         7.515785e-07
         7.915686e-07
         8.323993e-07
         8.740602e-07
         9.1656324e-07
         9.599025e-07
         1.0040867e-06
         1.049108e-06
         1.0949758e-06
         1.1416957e-06
         1.1892567e-06
         1.2376748e-06
         1.2869392e-06
         1.337066e-06
         1.3880408e-06
         1.4398827e-06
         1.4925785e-06
         1.5461426e-06
         1.6005673e-06
         1.6558635e-06
         1.7120244e-06
         1.7690636e-06
         1.8269706e-06
         1.8857563e-06
         1.9454255e-06
         2.0059695e-06
         2.0674029e-06
         2.1297164e-06
         2.1929259e-06
         2.2570198e-06
         2.3220084e-06
         2.3878874e-06
         2.4546764e-06
         2.5223537e-06
         2.5909442e-06
         2.6604357e-06
         2.730839e-06
         2.8021466e-06
         2.8743646e-06
         2.9475093e-06
         3.0215633e-06
         3.0965466e-06
         3.1724446e-06
         3.2492749e-06
         3.3270285e-06
         3.4057182e-06
         3.4853392e-06
         3.5658948e-06
         3.6473866e-06
         3.7298316e-06
         3.8132125e-06
         3.8975477e-06
         3.9828224e-06
         4.069047e-06
         4.156234e-06
         4.2443744e-06
         4.3334794e-06
         4.423537e-06
         4.5145725e-06
         4.606565e-06
         4.699542e-06
         4.7934795e-06
         4.8884035e-06
         4.984297e-06
         5.0811836e-06
         5.17904e-06
         5.277891e-06
         5.377723e-06
         5.47855e-06
         5.580384e-06
         5.6832037e-06
         5.78703e-06
         5.891847e-06
         5.99769e-06
         6.1045234e-06
         6.2123836e-06
         6.32125e-06
         6.431128e-06
         6.5420268e-06
         6.6539606e-06
         6.7669075e-06
         6.8808877e-06
         6.995887e-06
         7.1119302e-06
         7.229e-06
         7.347104e-06
         7.466265e-06
         7.5863873e-06
         7.707316e-06
         7.829021e-06
         7.951534e-06
         8.0748005e-06
         8.198864e-06
         8.3237155e-06
         8.449348e-06
         8.575727e-06
         8.702911e-06
         8.830852e-06
         8.959554e-06
         9.089014e-06
         9.219243e-06
         9.350256e-06
         9.481996e-06
         9.614516e-06
         9.747765e-06
         9.881798e-06
         1.0016558e-05
         1.0152077e-05
         1.0288344e-05
         1.0425369e-05
         1.056309e-05
         1.07016e-05
         1.0840813e-05
         1.0980777e-05
         1.1121486e-05
         1.1262908e-05
         1.14050645e-05
         1.1547947e-05
         1.169158e-05
         1.1835899e-05
         1.1980978e-05
         1.2126764e-05
         1.2273258e-05
         1.2420483e-05
         1.2568438e-05
         1.2717059e-05
         1.2866453e-05
         1.3016518e-05
         1.3167309e-05
         1.3318777e-05
         1.3470986e-05
         1.3623874e-05
         1.3777477e-05
         1.3931777e-05
         1.4086779e-05
         1.4242466e-05
         1.43988755e-05
         1.45559625e-05
         1.4713716e-05
         1.4872166e-05
         1.5031302e-05
         1.5191146e-05
         1.5351676e-05
         1.5512916e-05
         1.5674797e-05
         1.583737e-05
         1.6000617e-05
         1.6164537e-05
         1.6329135e-05
         1.649443e-05
         1.6660393e-05
         1.682702e-05
         1.6994309e-05
         1.7162249e-05
         1.7330904e-05
         1.7500199e-05
         1.7670158e-05
         1.7840774e-05
         1.8012053e-05
         1.8184006e-05
         1.8356624e-05
         1.852988e-05
         1.8703786e-05
         1.8878356e-05
         1.9053585e-05
         1.9229485e-05
         1.9405992e-05
         1.9583178e-05
         1.9760964e-05
         1.9939444e-05
         2.011857e-05
         2.0298328e-05
         2.0478772e-05
         2.0659852e-05
         2.0841515e-05
         2.102382e-05
         2.1206768e-05
         2.139035e-05
         2.1574584e-05
         2.175949e-05
         2.1944992e-05
         2.2131087e-05
         2.2317921e-05
         2.2505257e-05
         2.2693284e-05
         2.2881948e-05
         2.3071194e-05
         2.3261098e-05
         2.3451648e-05
         2.364277e-05
         2.3834562e-05
         2.4026975e-05
         2.4219931e-05
         2.441356e-05
         2.4607789e-05
         2.4802628e-05
         2.4998088e-05
         2.519417e-05
         2.5390844e-05
         2.5588191e-05
         2.5786065e-05
         2.5984584e-05
         2.6183723e-05
         2.6383495e-05
         2.658379e-05
         2.6784735e-05
         2.6986234e-05
         2.7188396e-05
         2.7391172e-05
         2.7594484e-05
         2.7798433e-05
         2.8002976e-05
         2.8208131e-05
         2.8413864e-05
         2.8620208e-05
         2.8827151e-05
         2.9034672e-05
         2.9242743e-05
         2.9451436e-05
         2.966073e-05
         2.9870575e-05
         3.008107e-05
         3.0292176e-05
         3.050378e-05
         3.071594e-05
         3.0928797e-05
         3.1142165e-05
         3.1356216e-05
         3.157075e-05
         3.1785854e-05
         3.2001568e-05
         3.221785e-05
         3.243472e-05
         3.2652133e-05
         3.2870175e-05
         3.3088836e-05
         3.3307973e-05
         3.3527704e-05
         3.3748e-05
         3.396888e-05
         3.4190292e-05
         3.4412347e-05
         3.463496e-05
         3.4858138e-05
         3.5081863e-05
         3.5306104e-05
         3.5530986e-05
         3.5756395e-05
         3.5982426e-05
         3.620889e-05
         3.643596e-05
         3.6663696e-05
         3.689193e-05
         3.712071e-05
         3.734998e-05
         3.7579917e-05
         3.78104e-05
         3.8041384e-05
         3.827294e-05
         3.8505055e-05
         3.8737715e-05
         3.897092e-05
         3.9204722e-05
         3.943905e-05
         3.9673912e-05
         3.9909337e-05
         4.0145274e-05
         4.038184e-05
         4.0618826e-05
         4.08565e-05
         4.109463e-05
         4.133326e-05
         4.1572526e-05
         4.181231e-05
         4.2052696e-05
         4.2293515e-05
         4.2534957e-05
         4.2776835e-05
         4.3019343e-05
         4.326238e-05
         4.350591e-05
         4.3750017e-05
         4.399467e-05
         4.42399e-05
         4.448553e-05
         4.4731783e-05
         4.4978482e-05
         4.5225825e-05
         4.547363e-05
         4.572195e-05
         4.5970854e-05
         4.622031e-05
         4.6470297e-05
         4.6720746e-05
         4.6971643e-05
         4.7223282e-05
         4.7475292e-05
         4.7727928e-05
         4.7981e-05
         4.823464e-05
         4.8488688e-05
         4.8743426e-05
         4.8998594e-05
         4.9254282e-05
         4.951056e-05
         4.9767266e-05
         5.002455e-05
         5.0282335e-05
         5.054065e-05
         5.0799412e-05
         5.1058734e-05
         5.1318635e-05
         5.1579154e-05
         5.184055e-05
         5.2103445e-05
         5.2367493e-05
         5.2632782e-05
         5.2899613e-05
         5.3167303e-05
         5.3436917e-05
         5.3707347e-05
         5.397948e-05
         5.425282e-05
         5.452735e-05
         5.4803542e-05
         5.5080804e-05
         5.5359742e-05
         5.5639815e-05
         5.592129e-05
         5.620444e-05
         5.6488472e-05
         5.6774523e-05
         5.7061432e-05
         5.735008e-05
         5.7640143e-05
         5.793141e-05
         5.822444e-05
         5.8518486e-05
         5.8814498e-05
         5.911164e-05
         5.9410337e-05
         5.9710568e-05
         6.001196e-05
         6.0315346e-05
         6.0619786e-05
         6.0925922e-05
         6.1233644e-05
         6.154263e-05
         6.185357e-05
         6.216552e-05
         6.247953e-05
         6.2794716e-05
         6.3111576e-05
         6.342998e-05
         6.374969e-05
         6.407151e-05
         6.439456e-05
         6.4719294e-05
         6.504571e-05
         6.5373446e-05
         6.570328e-05
         6.603416e-05
         6.6367254e-05
         6.67015e-05
         6.7037596e-05
         6.7375324e-05
         6.771444e-05
         6.8055895e-05
         6.839855e-05
         6.874297e-05
         6.90892e-05
         6.9436835e-05
         6.978666e-05
         7.0137525e-05
         7.04907e-05
         7.0845315e-05
         7.120189e-05
         7.156019e-05
         7.1919756e-05
         7.228191e-05
         7.264511e-05
         7.301072e-05
         7.337762e-05
         7.37464e-05
         7.41174e-05
         7.448954e-05
         7.486419e-05
         7.5240285e-05
         7.561842e-05
         7.5998425e-05
         7.6379874e-05
         7.676389e-05
         7.7149e-05
         7.7536504e-05
         7.79258e-05
         7.83169e-05
         7.871024e-05
         7.9104866e-05
         7.950218e-05
         7.9900994e-05
         8.030213e-05
         8.070498e-05
         8.110957e-05
         8.151662e-05
         8.192507e-05
         8.2336206e-05
         8.2748906e-05
         8.316365e-05
         8.3580715e-05
         8.399917e-05
         8.442059e-05
         8.4843385e-05
         8.526857e-05
         8.569574e-05
         8.612475e-05
         8.655633e-05
         8.698958e-05
         8.742549e-05
         8.78631e-05
         8.830269e-05
         8.874519e-05
         8.9188725e-05
         8.963558e-05
         9.008373e-05
         9.053466e-05
         9.098756e-05
         9.144243e-05
         9.1900016e-05
         9.2359325e-05
         9.28214e-05
         9.3285365e-05
         9.3751696e-05
         9.422044e-05
         9.4690935e-05
         9.516453e-05
         9.5639916e-05
         9.611787e-05
         9.659804e-05
         9.7080134e-05
         9.756541e-05
         9.805218e-05
         9.854219e-05
         9.9034034e-05
         9.952838e-05
         0.00010002534
         0.00010052397
         0.00010102617
         0.000101529986
         0.00010203667
         0.0001025458
         0.00010305684
         0.000103571256
         0.0001040873
         0.00010460674
         0.00010512811
         0.000105652165
         0.00010617863
         0.00010670752
         0.00010723986
         0.00010777389
         0.00010831081
         0.00010885048
         0.00010939251
         0.0001099376
         0.00011048462
         0.000111035035
         0.00011158766
         0.000112143134
         0.00011270146
         0.00011326188
         0.00011382596
         0.00011439183
         0.000114961396
         0.00011553325
         0.00011610771
         0.00011668532
         0.00011726508
         0.00011784859
         0.000118434335
         0.00011902289
         0.000119614786
         0.000120208715
         0.00012080672
         0.00012140629
         0.00012200996
         0.00012261583
         0.00012322451
         0.000123837
         0.00012445141
         0.00012506983
         0.0001256902
         0.00012631445
         0.00012694155
         0.00012757118
         0.0001282044
         0.00012884014
         0.00012947964
         0.00013012192
         0.00013076692
         0.00013141579
         0.00013206687
         0.00013272221
         0.0001333798
         0.00013404133
         0.00013470565
         0.00013537284
         0.00013604401
         0.00013671747
         0.0001373953
         0.00013807567
         0.00013875938
         0.00013944707
         0.00014013682
         0.0001408312
         0.00014152778
         0.00014222889
         0.00014293264
         0.00014363977
         0.00014435095
         0.00014506449
         0.00014578251
         0.0001465036
         0.000147228
         0.00014795666
         0.0001486872
         0.00014942313
         0.0001501614
         0.00015090384
         0.00015164961
         0.00015239885
         0.00015315208
         0.00015390807
         0.00015466902
         0.00015543279
         0.00015620061
         0.00015697196
         0.0001577464
         0.00015852583
         0.00015930813
         0.00016009469
         0.00016088481
         0.00016167828
         0.00016247666
         0.00016327733
         0.0001640837
         0.0001648926
         0.00016570583
         0.00016652311
         0.0001673435
         0.00016816925
         0.0001689977
         0.00016983092
         0.00017066812
         0.00017150867
         0.00017235418
         0.0001732026
         0.00017405674
         0.00017491354
         0.00017577497
         0.00017664046
         0.00017750946
         0.00017838439
         0.00017926196
         0.0001801445
         0.00018103108
         0.00018192155
         0.00018281714
         0.00018371579
         0.00018462025
         0.00018552775
         0.00018644017
         0.00018735723
         0.00018827787
         0.0001892042
         0.00019013346
         0.00019106847
         0.00019200744
         0.00019295067
         0.00019389887
         0.00019485068
         0.00019580829
         0.00019676975
         0.00019773628
         0.00019870754
         0.00019968256
         0.00020066362
         0.0002016478
         0.00020263798
         0.00020363211
         0.00020463105
         0.0002056356
         0.00020664319
         0.0002076576
         0.00020867585
         0.00020969936
         0.00021072761
         0.00021176023
         0.00021279942
         0.0002138416
         0.00021488991
         0.00021594296
         0.00021700046
         0.0002180645
         0.00021913122
         0.00022020572
         0.00022128358
         0.00022236808
         0.00022345653
         0.00022454993
         0.00022565012
         0.00022675334
         0.00022786393
         0.00022897872
         0.00023009875
         0.00023122536
         0.00023235488
         0.00023349265
         0.0002346342
         0.00023578158
         0.00023693436
         0.00023809234
         0.00023925689
         0.00024042529
         0.00024160124
         0.00024278149
         0.00024396769
         0.0002451599
         0.00024635604
         0.00024756067
         0.00024876898
         0.00024998403
         0.0002512049
         0.00025243065
         0.00025366314
         0.0002549001
         0.00025614546
         0.00025739495
         0.00025865037
         0.00025991251
         0.00026117932
         0.00026245418
         0.00026373338
         0.00026502003
         0.00026631248
         0.00026760966
         0.00026891477
         0.0002702243
         0.0002715426
         0.00027286494
         0.00027419443
         0.00027553053
         0.0002768714
         0.000278221
         0.00027957503
         0.00028093674
         0.00028230445
         0.00028367838
         0.00028505988
         0.00028644607
         0.00028784107
         0.00028924126
         0.0002906484
         0.00029206267
         0.0002934816
         0.00029491054
         0.00029634376
         0.00029778507
         0.0002992323
         0.00030068686
         0.00030214922
         0.0003036159
         0.00030509254
         0.00030657445
         0.00030806425
         0.00030956068
         0.00031106337
         0.00031257523
         0.0003140922
         0.00031561765
         0.0003171494
         0.0003186889
         0.0003202365
         0.00032178836
         0.00032335153
         0.0003249199
         0.00032649658
         0.00032808023
         0.00032967064
         0.00033127062
         0.0003328751
         0.00033449032
         0.00033611132
         0.00033774052
         0.00033937796
         0.00034102102
         0.0003426749
         0.00034433368
         0.00034600313
         0.0003476785
         0.00034936186
         0.00035105512
         0.000352753
         0.00035446227
         0.00035617762
         0.00035790153
         0.00035963472
         0.00036137298
         0.00036312285
         0.00036487868
         0.0003666446
         0.00036841747
         0.0003701988
         0.00037199038
         0.0003737864
         0.00037559494
         0.00037741003
         0.0003792341
         0.00038106838
         0.00038290772
         0.0003847597
         0.00038661686
         0.00038848448
         0.0003903613
         0.00039224583
         0.0003941404
         0.00039604164
         0.00039795574
         0.0003998756
