ocio-configs/luts/ts_acescct_48nits-ssts_to_linearcv.spi1d
Version 1
From 0.000000 1.000000
Length 4096
Components 1
{
         -1.1646385e-10
         -1.1646385e-10
         -1.1646385e-10
         -1.1646385e-10
         -1.1646385e-10
         -1.1646385e-10
         -1.1646385e-10
         -1.1646385e-10
         -1.1646385e-10
         -1.1646385e-10
         -1.1646385e-10
         -1.1646385e-10
         -1.1646385e-10
         -1.1646385e-10
         -1.1646385e-10
         -1.1646385e-10
         -1.1646385e-10
         -1.1646385e-10
         -1.1646385e-10
         -1.1646385e-10
         -1.1646385e-10
         -1.1646385e-10
         -1.1646385e-10
         -1.1646385e-10
         -1.1646385e-10
         -1.1646385e-10
         -1.1646385e-10
         -1.1646385e-10
         -1.1646385e-10
         -1.1646385e-10
         -1.1646385e-10
         -1.1646385e-10
         -1.1646385e-10
         -1.1646385e-10
         -1.1646385e-10
         -1.1646385e-10
         -1.1646385e-10
         -1.1646385e-10
         -1.1646385e-10
         -1.1646385e-10
         -1.1646385e-10
         -1.1646385e-10
         -1.1646385e-10
         -1.1646385e-10
         -1.1646385e-10
         -1.1646385e-10
         -1.1646385e-10
         -1.1646385e-10
         -1.1646385e-10
         -1.1646385e-10
         -1.1646385e-10
         -1.1646385e-10
         -1.1646385e-10
         -1.1646385e-10
         -1.1646385e-10
         -1.1646385e-10
         -1.1646385e-10
         -1.1646385e-10
         -1.1646385e-10
         -1.1646385e-10
         -1.1646385e-10
         -1.1646385e-10
         -1.1646385e-10
         -1.1646385e-10
         -1.1646385e-10
         -1.1646385e-10
         -1.1646385e-10
         -1.1646385e-10
         -1.1646385e-10
         -1.1646385e-10
         -1.1646385e-10
         -1.1646385e-10
         -1.1646385e-10
         -1.1646385e-10
         -1.1646385e-10
         -1.1646385e-10
         -1.1646385e-10
         -1.1646385e-10
         -1.1646385e-10
         -1.1646385e-10
         -1.1646385e-10
         -1.1646385e-10
         -1.1646385e-10
         -1.1646385e-10
         -1.1646385e-10
         -1.1646385e-10
         -1.1646385e-10
         -1.1646385e-10
         -1.1646385e-10
         -1.1646385e-10
         -1.1646385e-10
         -1.1646385e-10
         -1.1646385e-10
         -1.1646385e-10
         -1.1646385e-10
         -1.1646385e-10
         -1.1646385e-10
         -1.1646385e-10
         -1.1646385e-10
         -1.1646385e-10
         -1.1646385e-10
         -1.1646385e-10
         -1.1646385e-10
         -1.1646385e-10
         -1.1646385e-10
         -1.1646385e-10
         -1.1646385e-10
         -1.1646385e-10
         -1.1646385e-10
         -1.1646385e-10
         -1.1646385e-10
         -1.1646385e-10
         -1.1646385e-10
         -1.1646385e-10
         -1.1646385e-10
         -1.1646385e-10
         -1.1646385e-10
         -1.1646385e-10
         -1.1646385e-10
         -1.1646385e-10
         -1.1646385e-10
         -1.1646385e-10
         -1.1646385e-10
         -1.1646385e-10
         -1.1646385e-10
         -1.1646385e-10
         -1.1646385e-10
         -1.1646385e-10
         -1.1646385e-10
         -1.1646385e-10
         -1.1646385e-10
         -1.1646385e-10
         -1.1646385e-10
         -1.1646385e-10
         -1.1646385e-10
         -1.1646385e-10
         -1.1646385e-10
         -1.1646385e-10
         -1.1646385e-10
         -1.1646385e-10
         -1.1646385e-10
         -1.1646385e-10
         -1.1646385e-10
         -1.1646385e-10
         -1.1646385e-10
         -1.1646385e-10
         -1.1646385e-10
         -1.1646385e-10
         -1.1646385e-10
         -1.1646385e-10
         -1.1646385e-10
         -1.1646385e-10
         -1.1646385e-10
         -1.1646385e-10
         -1.1646385e-10
         -1.1646385e-10
         -1.1646385e-10
         -1.1646385e-10
         -1.1646385e-10
         -1.1646385e-10
         -1.1646385e-10
         -1.1646385e-10
         -1.1646385e-10
         -1.1646385e-10
         -1.1646385e-10
         -1.1646385e-10
         -1.1646385e-10
         -1.1646385e-10
         -1.1646385e-10
         -1.1646385e-10
         -1.1646385e-10
         -1.1646385e-10
         -1.1646385e-10
         -1.1646385e-10
         -1.1646385e-10
         -1.1646385e-10
         -1.1646385e-10
         -1.1646385e-10
         -1.1646385e-10
         -1.1646385e-10
         -1.1646385e-10
         -1.1646385e-10
         -1.1646385e-10
         -1.1646385e-10
         -1.1646385e-10
         -1.1646385e-10
         -1.1646385e-10
         -1.1646385e-10
         -1.1646385e-10
         -1.1646385e-10
         -1.1646385e-10
         -1.1646385e-10
         -1.1646385e-10
         -1.1646385e-10
         -1.1646385e-10
         -1.1646385e-10
         -1.1646385e-10
         -1.1646385e-10
         -1.1646385e-10
         -1.1646385e-10
         -1.1646385e-10
         -1.1646385e-10
         -1.1646385e-10
         -1.1646385e-10
         -1.1646385e-10
         -1.1646385e-10
         -1.1646385e-10
         -1.1646385e-10
         -1.1646385e-10
         -1.1646385e-10
         -1.1646385e-10
         -1.1646385e-10
         -1.1646385e-10
         -1.1646385e-10
         -1.1646385e-10
         -1.1646385e-10
         -1.1646385e-10
         -1.1646385e-10
         -1.1646385e-10
         -1.1646385e-10
         -1.1646385e-10
         -1.1646385e-10
         -1.1646385e-10
         -1.1646385e-10
         -1.1646385e-10
         -1.1646385e-10
         -1.1646385e-10
         -1.1646385e-10
         -1.1646385e-10
         -1.1646385e-10
         -1.1646385e-10
         -1.1646385e-10
         -1.1646385e-10
         -1.1646385e-10
         -1.1646385e-10
         -1.1646385e-10
         -1.1646385e-10
         -1.1646385e-10
         -1.1646385e-10
         -1.1646385e-10
         -1.1646385e-10
         -1.1646385e-10
         -1.1646385e-10
         -1.1646385e-10
         -1.1646385e-10
         -1.1646385e-10
         -1.1646385e-10
         -1.1646385e-10
         -1.1646385e-10
         -1.1646385e-10
         -1.1646385e-10
         -1.1646385e-10
         -1.1646385e-10
         -1.1646385e-10
         -1.1646385e-10
         -1.1646385e-10
         -1.1646385e-10
         -1.1646385e-10
         -1.1646385e-10
         -1.1646385e-10
         -1.1646385e-10
         -1.1646385e-10
         -1.1646385e-10
         -1.1646385e-10
         -1.1646385e-10
         -1.1646385e-10
         -1.1646385e-10
         -1.1646385e-10
         -1.1646385e-10
         -1.1646385e-10
         -1.1646385e-10
         -1.1646385e-10
         -1.1646385e-10
         -1.1646385e-10
         -1.1646385e-10
         -1.1646385e-10
         -1.1646385e-10
         -1.1646385e-10
         -1.1646385e-10
         -1.1646385e-10
         -1.1646385e-10
         -1.1646385e-10
         -1.1646385e-10
         -1.1646385e-10
         -1.1646385e-10
         -1.1646385e-10
         -1.1646385e-10
         -1.1646385e-10
         -1.1646385e-10
         -1.1646385e-10
         -1.1646385e-10
         -1.1646385e-10
         -1.1646385e-10
         -1.1646385e-10
         -1.1646385e-10
         -1.1646385e-10
         -1.1646385e-10
         -1.1646385e-10
         -1.1646385e-10
         -1.1646385e-10
         -1.1646385e-10
         -1.1646385e-10
         -1.1646385e-10
         -1.1646385e-10
         -1.1646385e-10
         -1.1646385e-10
         -1.1646385e-10
         -1.1646385e-10
         -1.1646385e-10
         -1.1646385e-10
         -1.1646385e-10
         -1.1646385e-10
         -1.1646385e-10
         -1.1646385e-10
         -1.1646385e-10
         -1.1646385e-10
         -1.1646385e-10
         -1.1646385e-10
         -1.1646385e-10
         -1.1646385e-10
         -1.1646385e-10
         -1.1646385e-10
         -1.1646385e-10
         -1.1646385e-10
         -1.1646385e-10
         -1.1646385e-10
         -1.1646385e-10
         -1.1646385e-10
         -1.1646385e-10
         -1.1646385e-10
         -1.1646385e-10
         -1.1646385e-10
         -1.1646385e-10
         -1.1646385e-10
         -1.1646385e-10
         -1.1646385e-10
         -1.1646385e-10
         -1.1646385e-10
         -1.1646385e-10
         -1.1646385e-10
         -1.1646385e-10
         -1.1646385e-10
         -1.1646385e-10
         -1.1646385e-10
         -1.1646385e-10
         -1.1646385e-10
         -1.1646385e-10
         -1.1646385e-10
         -1.1646385e-10
         -1.1646385e-10
         -1.1646385e-10
         -1.1646385e-10
         -1.1646385e-10
         -1.1646385e-10
         -1.1646385e-10
         -1.1646385e-10
         -1.1646385e-10
         -1.1646385e-10
         -1.1646385e-10
         -1.1646385e-10
         -1.1646385e-10
         -1.1646385e-10
         -1.1646385e-10
         -1.1646385e-10
         -1.1646385e-10
         -1.1646385e-10
         -1.1646385e-10
         -1.1646385e-10
         -1.1646385e-10
         -1.1646385e-10
         -1.1646385e-10
         -1.1646385e-10
         -1.1646385e-10
         -1.1646385e-10
         -1.1646385e-10
         -1.1646385e-10
         -1.1646385e-10
         -1.1646385e-10
         -1.1646385e-10
         -1.1646385e-10
         -1.1646385e-10
         -1.1646385e-10
         -1.1646385e-10
         -1.1646385e-10
         -1.1646385e-10
         8.928895e-09
         6.141527e-08
         1.5932254e-07
         3.0140845e-07
         4.8604244e-07
         7.118659e-07
         9.774423e-07
         1.2818788e-06
         1.6239719e-06
         2.0022464e-06
         2.4158874e-06
         2.8637685e-06
         3.3451524e-06
         3.8587577e-06
         4.403964e-06
         4.9799164e-06
         5.5856062e-06
         6.2204895e-06
         6.8836734e-06
         7.5744206e-06
         8.292382e-06
         9.036275e-06
         9.80614e-06
         1.0600773e-05
         1.1420135e-05
         1.226341e-05
         1.3130018e-05
         1.4019608e-05
         1.4931636e-05
         1.5865637e-05
         1.6820952e-05
         1.7797462e-05
         1.8794548e-05
         1.9812054e-05
         2.084901e-05
         2.1905724e-05
         2.2981423e-05
         2.4076106e-05
         2.5189034e-05
         2.6320053e-05
         2.7468854e-05
         2.8635199e-05
         2.9818899e-05
         3.1019175e-05
         3.2236418e-05
         3.3469925e-05
         3.4719622e-05
         3.5985235e-05
         3.726649e-05
         3.856312e-05
         3.987497e-05
         4.120188e-05
         4.2543663e-05
         4.3899843e-05
         4.5270506e-05
         4.6655496e-05
         4.8054266e-05
         4.9467282e-05
         5.0893614e-05
         5.2333962e-05
         5.3787353e-05
         5.5254062e-05
         5.6733577e-05
         5.822641e-05
         5.973171e-05
         6.125009e-05
         6.2780615e-05
         6.4323605e-05
         6.587886e-05
         6.744639e-05
         6.9025715e-05
         7.0617156e-05
         7.222048e-05
         7.383513e-05
         7.546182e-05
         7.710004e-05
         7.874936e-05
         8.041014e-05
         8.208193e-05
         8.376484e-05
         8.5459076e-05
         8.716418e-05
         8.88804e-05
         9.0607165e-05
         9.234446e-05
         9.409258e-05
         9.5851225e-05
         9.762054e-05
         9.9400306e-05
         0.00010119043
         0.00010299061
         0.000104801235
         0.00010662169
         0.00010845277
         0.00011029348
         0.00011214444
         0.000114005335
         0.000115875824
         0.0001177566
         0.000119646924
         0.000121547186
         0.00012345696
         0.00012537652
         0.00012730523
         0.00012924404
         0.00013119214
         0.00013314978
         0.00013511682
         0.00013709324
         0.00013907914
         0.00014107428
         0.00014307871
         0.00014509265
         0.00014711526
         0.00014914734
         0.0001511884
         0.00015323839
         0.00015529798
         0.00015736642
         0.00015944421
         0.00016153051
         0.00016362616
         0.00016573035
         0.00016784374
         0.00016996574
         0.000172097
         0.00017423686
         0.0001763859
         0.00017854347
         0.00018070989
         0.000182885
         0.00018506867
         0.00018726125
         0.00018946241
         0.00019167233
         0.00019389088
         0.0001961181
         0.0001983539
         0.00020059885
         0.00020285157
         0.00020511338
         0.00020738345
         0.00020966257
         0.00021194958
         0.00021424518
         0.00021654951
         0.00021886225
         0.00022118403
         0.00022351353
         0.0002258517
         0.00022819838
         0.00023055382
         0.00023291721
         0.00023528944
         0.00023766964
         0.00024005855
         0.00024245537
         0.00024486112
         0.00024727464
         0.00024969724
         0.00025212776
         0.00025456707
         0.00025701412
         0.00025946958
         0.00026193404
         0.000264406
         0.00026688707
         0.00026937577
         0.00027187305
         0.0002743782
         0.00027689218
         0.0002794148
         0.00028194484
         0.00028448354
         0.00028703106
         0.00028958629
         0.00029214963
         0.00029472148
         0.00029730162
         0.00029988983
         0.00030248635
         0.00030509135
         0.00030770455
         0.00031032585
         0.0003129552
         0.00031559358
         0.00031823927
         0.00032089424
         0.00032355677
         0.00032622705
         0.00032890664
         0.00033159394
         0.0003342893
         0.00033699296
         0.0003397054
         0.0003424257
         0.0003451546
         0.0003478915
         0.00035063663
         0.00035338974
         0.0003561518
         0.00035892156
         0.00036169976
         0.0003644858
         0.00036728056
         0.00037008306
         0.00037289466
         0.00037571363
         0.00037854153
         0.0003813774
         0.00038422114
         0.00038707405
         0.00038993455
         0.00039280398
         0.00039568119
         0.00039856718
         0.00040146074
         0.00040436295
         0.00040727362
         0.00041019227
         0.00041311924
         0.0004160549
         0.00041899865
         0.00042195024
         0.00042491106
         0.00042787925
         0.00043085645
         0.00043384157
         0.00043683493
         0.00043983723
         0.00044284743
         0.00044586646
         0.0004488933
         0.00045192827
         0.00045497215
         0.00045802406
         0.0004610852
         0.00046415362
         0.00046723092
         0.00047031618
         0.00047340986
         0.00047651175
         0.00047962306
         0.0004827426
         0.00048586994
         0.00048900576
         0.00049215055
         0.0004953034
         0.0004984643
         0.00050163444
         0.0005048127
         0.0005080016
         0.0005112026
         0.00051442493
         0.0005176631
         0.00052091875
         0.0005241954
         0.0005274855
         0.0005308008
         0.00053412985
         0.0005374812
         0.00054085045
         0.00054423563
         0.0005476453
         0.0005510691
         0.0005545169
         0.0005579815
         0.00056146603
         0.0005649726
         0.0005684937
         0.0005720424
         0.00057560543
         0.00057919143
         0.00058279774
         0.000586422
         0.00059007155
         0.00059373607
         0.0005974275
         0.00060113653
         0.0006048669
         0.00060862076
         0.0006123908
         0.00061619
         0.000620005
         0.00062384503
         0.00062770693
         0.00063158787
         0.00063549593
         0.0006394217
         0.00064337434
         0.000647347
         0.00065134326
         0.00065536343
         0.0006594021
         0.00066347147
         0.0006675595
         0.0006716729
         0.0006758053
         0.00067995314
         0.0006841244
         0.00068830716
         0.0006925142
         0.0006967342
         0.00070097373
         0.00070523366
         0.0007095061
         0.00071380497
         0.0007181169
         0.00072245003
         0.00072680187
         0.00073116884
         0.0007355606
         0.0007399634
         0.000744393
         0.0007488365
         0.0007533032
         0.00075778825
         0.0007622867
         0.00076681445
         0.00077135337
         0.00077591825
         0.0007804992
         0.0007850995
         0.00078972435
         0.00079436146
         0.0007990275
         0.00080370804
         0.0008084109
         0.00081313483
         0.00081787375
         0.00082264334
         0.0008274242
         0.0008322307
         0.00083705696
         0.0008419025
         0.0008467745
         0.00085165905
         0.00085657556
         0.0008615056
         0.0008664606
         0.00087143655
         0.000876431
         0.0008814537
         0.0008864912
         0.00089155737
         0.00089664204
         0.0009017474
         0.0009068797
         0.0009120268
         0.0009172058
         0.00092240155
         0.0009276224
         0.00093286636
         0.0009381287
         0.00094342185
         0.00094873045
         0.0009540696
         0.00095942867
         0.000964809
         0.00097021786
         0.0009756423
         0.0009811022
         0.0009865771
         0.0009920807
         0.0009976072
         0.001003154
         0.0010087331
         0.0010143283
         0.0010199568
         0.0010256037
         0.0010312764
         0.0010369787
         0.0010426975
         0.0010484516
         0.0010542242
         0.0010600261
         0.0010658527
         0.001071701
         0.0010775831
         0.0010834815
         0.001089415
         0.0010953698
         0.0011013524
         0.0011073635
         0.0011133926
         0.0011194608
         0.0011255477
         0.0011316664
         0.0011378098
         0.0011439779
         0.0011501805
         0.0011564005
         0.0011626582
         0.0011689378
         0.0011752471
         0.0011815856
         0.0011879472
         0.0011943469
         0.0012007668
         0.001207219
         0.0012136998
         0.0012202044
         0.0012267472
         0.0012333071
         0.0012399103
         0.0012465334
         0.0012531898
         0.0012598763
         0.001266587
         0.0012733385
         0.0012801086
         0.0012869177
         0.0012937543
         0.001300619
         0.0013075197
         0.0013144424
         0.0013214088
         0.001328397
         0.0013354189
         0.0013424756
         0.001349556
         0.0013566805
         0.0013638231
         0.0013710102
         0.0013782242
         0.0013854674
         0.0013927505
         0.001400057
         0.0014074085
         0.0014147817
         0.0014221948
         0.0014296419
         0.0014371155
         0.0014446322
         0.0014521731
         0.0014597581
         0.0014673728
         0.0014750193
         0.0014827056
         0.0014904178
         0.0014981767
         0.0015059627
         0.0015137887
         0.0015216493
         0.0015295377
         0.0015374753
         0.0015454364
         0.0015534438
         0.0015614812
         0.001569555
         0.0015776715
         0.001585814
         0.0015940065
         0.001602226
         0.0016104904
         0.0016187892
         0.0016271208
         0.0016355015
         0.0016439068
         0.0016523628
         0.0016608512
         0.0016693783
         0.001677949
         0.001686545
         0.0016952009
         0.0017038813
         0.0017126099
         0.0017213752
         0.0017301742
         0.0017390245
         0.0017479016
         0.0017568357
         0.0017658013
         0.0017748093
         0.0017838622
         0.0017929432
         0.0018020867
         0.0018112564
         0.0018204753
         0.0018297337
         0.0018390322
         0.0018483838
         0.0018577602
         0.0018671997
         0.0018766705
         0.0018861867
         0.0018957529
         0.0019053501
         0.0019150098
         0.0019246956
         0.0019344403
         0.0019442233
         0.001954049
         0.0019639274
         0.0019738392
         0.0019838135
         0.0019938252
         0.0020038798
         0.0020139883
         0.0020241295
         0.0020343398
         0.0020445767
         0.0020548757
         0.0020652171
         0.0020755995
         0.0020860436
         0.002096518
         0.0021070624
         0.002117641
         0.0021282737
         0.0021389585
         0.002149682
         0.0021604686
         0.0021712945
         0.0021821808
         0.0021931122
         0.002204091
         0.0022151321
         0.0022262058
         0.0022373516
         0.0022485359
         0.0022597814
         0.0022710762
         0.0022824144
         0.002293822
         0.0023052678
         0.0023167806
         0.0023283383
         0.00233995
         0.002351625
         0.0023633344
         0.002375123
         0.0023869514
         0.0023988432
         0.0024107865
         0.002422779
         0.002434845
         0.00244695
         0.0024591247
         0.0024713494
         0.0024836329
         0.0024959801
         0.002508364
         0.0025208374
         0.0025333478
         0.0025459267
         0.0025585613
         0.00257125
         0.0025840139
         0.0025968137
         0.0026096983
         0.0026226323
         0.0026356287
         0.0026486872
         0.0026617956
         0.0026749899
         0.0026882258
         0.0027015342
         0.0027149047
         0.002728331
         0.002741835
         0.0027553819
         0.0027690162
         0.0027827008
         0.002796452
         0.0028102745
         0.002824147
         0.00283811
         0.0028521137
         0.0028662027
         0.0028803514
         0.0028945617
         0.0029088524
         0.0029231892
         0.0029376235
         0.0029521086
         0.0029666638
         0.0029812928
         0.0029959767
         0.0030107535
         0.0030255832
         0.0030404965
         0.0030554766
         0.0030705174
         0.0030856472
         0.0031008262
         0.003116106
         0.003131438
         0.0031468542
         0.0031623426
         0.0031778894
         0.0031935356
         0.0032092347
         0.0032250271
         0.0032408843
         0.0032568153
         0.0032728352
         0.0032889093
         0.0033050885
         0.0033213256
         0.0033376506
         0.0033540523
         0.0033705162
         0.0033870887
         0.0034037163
         0.0034204412
         0.0034372325
         0.0034541078
         0.0034710765
         0.0034880983
         0.0035052374
         0.0035224364
         0.0035397278
         0.0035571
         0.0035745474
         0.0035920998
         0.0036097113
         0.0036274272
         0.00364522
         0.0036630984
         0.0036810758
         0.0036991055
         0.0037172665
         0.0037354867
         0.003753806
         0.0037722148
         0.0037906992
         0.0038092998
         0.0038279544
         0.0038467331
         0.0038655868
         0.0038845325
         0.0039035748
         0.0039226864
         0.0039419313
         0.0039612404
         0.0039806543
         0.004000165
         0.004019753
         0.004039463
         0.0040592407
         0.004079145
         0.004099122
         0.004119204
         0.0041393926
         0.004159651
         0.0041800467
         0.004200513
         0.004221096
         0.004241772
         0.0042625414
         0.004283436
         0.004304401
         0.004325498
         0.00434668
         0.00436797
         0.0043893754
         0.0044108513
         0.0044324794
         0.0044541745
