ocio-configs/luts/ts_acescct_1000nits_to_linearcv.spi1d
Version 1
From 0.000000 1.000000
Length 4096
Components 1
{
         -7.275959e-15
         -7.275959e-15
         -7.275959e-15
         -7.275959e-15
         -7.275959e-15
         -7.275959e-15
         -7.275959e-15
         -7.275959e-15
         -7.275959e-15
         -7.275959e-15
         -7.275959e-15
         -7.275959e-15
         -7.275959e-15
         -7.275959e-15
         -7.275959e-15
         -7.275959e-15
         -7.275959e-15
         -7.275959e-15
         -7.275959e-15
         -7.275959e-15
         -7.275959e-15
         -7.275959e-15
         -7.275959e-15
         -7.275959e-15
         -7.275959e-15
         -7.275959e-15
         -7.275959e-15
         -7.275959e-15
         -7.275959e-15
         -7.275959e-15
         -7.275959e-15
         -7.275959e-15
         -7.275959e-15
         -7.275959e-15
         -7.275959e-15
         -7.275959e-15
         -7.275959e-15
         -7.275959e-15
         -7.275959e-15
         -7.275959e-15
         -7.275959e-15
         -7.275959e-15
         -7.275959e-15
         -7.275959e-15
         -7.275959e-15
         -7.275959e-15
         -7.275959e-15
         -7.275959e-15
         -7.275959e-15
         -7.275959e-15
         -7.275959e-15
         -7.275959e-15
         -7.275959e-15
         -7.275959e-15
         -7.275959e-15
         -7.275959e-15
         -7.275959e-15
         -7.275959e-15
         -7.275959e-15
         -7.275959e-15
         -7.275959e-15
         -7.275959e-15
         -7.275959e-15
         -7.275959e-15
         -7.275959e-15
         -7.275959e-15
         -7.275959e-15
         -7.275959e-15
         -7.275959e-15
         -7.275959e-15
         -7.275959e-15
         -7.275959e-15
         -7.275959e-15
         -7.275959e-15
         -7.275959e-15
         -7.275959e-15
         -7.275959e-15
         -7.275959e-15
         -7.275959e-15
         -7.275959e-15
         -7.275959e-15
         -7.275959e-15
         -7.275959e-15
         -7.275959e-15
         -7.275959e-15
         -7.275959e-15
         -7.275959e-15
         -7.275959e-15
         -7.275959e-15
         -7.275959e-15
         -7.275959e-15
         -7.275959e-15
         -7.275959e-15
         -7.275959e-15
         -7.275959e-15
         -7.275959e-15
         -7.275959e-15
         -7.275959e-15
         -7.275959e-15
         -7.275959e-15
         -7.275959e-15
         -7.275959e-15
         -7.275959e-15
         -7.275959e-15
         -7.275959e-15
         -7.275959e-15
         -7.275959e-15
         -7.275959e-15
         -7.275959e-15
         -7.275959e-15
         -7.275959e-15
         -7.275959e-15
         -7.275959e-15
         -7.275959e-15
         -7.275959e-15
         -7.275959e-15
         -7.275959e-15
         -7.275959e-15
         -7.275959e-15
         -7.275959e-15
         -7.275959e-15
         -7.275959e-15
         -7.275959e-15
         -7.275959e-15
         -7.275959e-15
         -7.275959e-15
         -7.275959e-15
         -7.275959e-15
         -7.275959e-15
         -7.275959e-15
         -7.275959e-15
         -7.275959e-15
         -7.275959e-15
         -7.275959e-15
         -7.275959e-15
         -7.275959e-15
         -7.275959e-15
         -7.275959e-15
         -7.275959e-15
         -7.275959e-15
         -7.275959e-15
         -7.275959e-15
         -7.275959e-15
         -7.275959e-15
         -7.275959e-15
         -7.275959e-15
         -7.275959e-15
         -7.275959e-15
         -7.275959e-15
         -7.275959e-15
         -7.275959e-15
         -7.275959e-15
         -7.275959e-15
         -7.275959e-15
         -7.275959e-15
         -7.275959e-15
         -7.275959e-15
         -7.275959e-15
         -7.275959e-15
         -7.275959e-15
         -7.275959e-15
         -7.275959e-15
         -7.275959e-15
         -7.275959e-15
         -7.275959e-15
         -7.275959e-15
         -7.275959e-15
         -7.275959e-15
         -7.275959e-15
         -7.275959e-15
         -7.275959e-15
         -7.275959e-15
         -7.275959e-15
         -7.275959e-15
         -7.275959e-15
         -7.275959e-15
         -7.275959e-15
         -7.275959e-15
         -7.275959e-15
         -7.275959e-15
         -7.275959e-15
         -7.275959e-15
         -7.275959e-15
         -7.275959e-15
         -7.275959e-15
         -7.275959e-15
         -7.275959e-15
         -7.275959e-15
         -7.275959e-15
         -7.275959e-15
         -7.275959e-15
         -7.275959e-15
         -7.275959e-15
         -7.275959e-15
         -7.275959e-15
         -7.275959e-15
         -7.275959e-15
         -7.275959e-15
         -7.275959e-15
         -7.275959e-15
         -7.275959e-15
         -7.275959e-15
         -7.275959e-15
         -7.275959e-15
         -7.275959e-15
         -7.275959e-15
         -7.275959e-15
         -7.275959e-15
         -7.275959e-15
         -7.275959e-15
         -7.275959e-15
         -7.275959e-15
         -7.275959e-15
         -7.275959e-15
         -7.275959e-15
         -7.275959e-15
         -7.275959e-15
         -7.275959e-15
         -7.275959e-15
         -7.275959e-15
         -7.275959e-15
         -7.275959e-15
         -7.275959e-15
         -7.275959e-15
         -7.275959e-15
         -7.275959e-15
         -7.275959e-15
         -7.275959e-15
         -7.275959e-15
         -7.275959e-15
         -7.275959e-15
         -7.275959e-15
         -7.275959e-15
         -7.275959e-15
         -7.275959e-15
         -7.275959e-15
         -7.275959e-15
         -7.275959e-15
         -7.275959e-15
         -7.275959e-15
         -7.275959e-15
         -7.275959e-15
         -7.275959e-15
         -7.275959e-15
         -7.275959e-15
         -7.275959e-15
         -7.275959e-15
         -7.275959e-15
         -7.275959e-15
         -7.275959e-15
         -7.275959e-15
         -7.275959e-15
         -7.275959e-15
         -7.275959e-15
         -7.275959e-15
         -7.275959e-15
         -7.275959e-15
         -7.275959e-15
         -7.275959e-15
         -7.275959e-15
         -7.275959e-15
         -7.275959e-15
         -7.275959e-15
         -7.275959e-15
         -7.275959e-15
         -7.275959e-15
         -7.275959e-15
         -7.275959e-15
         -7.275959e-15
         -7.275959e-15
         -7.275959e-15
         -7.275959e-15
         -7.275959e-15
         -7.275959e-15
         -7.275959e-15
         -7.275959e-15
         -7.275959e-15
         -7.275959e-15
         -7.275959e-15
         -7.275959e-15
         -7.275959e-15
         -7.275959e-15
         -7.275959e-15
         -7.275959e-15
         -7.275959e-15
         -7.275959e-15
         -7.275959e-15
         -7.275959e-15
         -7.275959e-15
         -7.275959e-15
         -7.275959e-15
         -7.275959e-15
         -7.275959e-15
         -7.275959e-15
         -7.275959e-15
         -7.275959e-15
         -7.275959e-15
         -7.275959e-15
         -7.275959e-15
         1.7915346e-08
         7.231781e-08
         1.1947725e-07
         1.6324186e-07
         2.068966e-07
         2.524637e-07
         2.9980396e-07
         3.4884985e-07
         3.9958672e-07
         4.519947e-07
         5.060785e-07
         5.6182375e-07
         6.192413e-07
         6.7832e-07
         7.390699e-07
         8.014822e-07
         8.6556275e-07
         9.3131996e-07
         9.987415e-07
         1.0678426e-06
         1.1386101e-06
         1.2110662e-06
         1.2851931e-06
         1.3610094e-06
         1.4385025e-06
         1.5176936e-06
         1.5985642e-06
         1.681138e-06
         1.7654011e-06
         1.8513732e-06
         1.93904e-06
         2.0284244e-06
         2.1195049e-06
         2.2123052e-06
         2.3068328e-06
         2.403074e-06
         2.501052e-06
         2.6007497e-06
         2.7021954e-06
         2.8053644e-06
         2.9102914e-06
         3.016955e-06
         3.125384e-06
         3.235553e-06
         3.3474955e-06
         3.4611937e-06
         3.5766814e-06
         3.6939255e-06
         3.8129522e-06
         3.9337706e-06
         4.056374e-06
         4.1807725e-06
         4.3069736e-06
         4.4349918e-06
         4.564793e-06
         4.696424e-06
         4.8298634e-06
         4.965142e-06
         5.102228e-06
         5.2411747e-06
         5.3819394e-06
         5.524572e-06
         5.6690355e-06
         5.8153473e-06
         5.963543e-06
         6.1135756e-06
         6.265511e-06
         6.4193055e-06
         6.574988e-06
         6.732532e-06
         6.8919994e-06
         7.05334e-06
         7.2166067e-06
         7.3817587e-06
         7.5488438e-06
         7.717834e-06
         7.888762e-06
         8.061607e-06
         8.236363e-06
         8.413106e-06
         8.59176e-06
         8.772387e-06
         8.954954e-06
         9.139492e-06
         9.325985e-06
         9.514476e-06
         9.704928e-06
         9.89736e-06
         1.0091784e-05
         1.0288221e-05
         1.0486631e-05
         1.0687077e-05
         1.0889489e-05
         1.1093944e-05
         1.1300429e-05
         1.1508924e-05
         1.1719469e-05
         1.1932041e-05
         1.2146685e-05
         1.2363351e-05
         1.2582072e-05
         1.2802859e-05
         1.30257185e-05
         1.3250632e-05
         1.3477638e-05
         1.3706727e-05
         1.3937921e-05
         1.4171168e-05
         1.4406576e-05
         1.4644017e-05
         1.4883588e-05
         1.5125251e-05
         1.5368501e-05
         1.56134e-05
         1.5859867e-05
         1.610796e-05
         1.63576e-05
         1.6608841e-05
         1.6861644e-05
         1.7116088e-05
         1.7372007e-05
         1.7629533e-05
         1.7888615e-05
         1.8149238e-05
         1.84114e-05
         1.8675139e-05
         1.8940409e-05
         1.9207177e-05
         1.9475528e-05
         1.9745354e-05
         2.001677e-05
         2.0289643e-05
         2.0564068e-05
         2.0839998e-05
         2.111747e-05
         2.1396374e-05
         2.1676806e-05
         2.1958738e-05
         2.2242151e-05
         2.2527036e-05
         2.2813403e-05
         2.3101293e-05
         2.339057e-05
         2.3681407e-05
         2.3973671e-05
         2.426744e-05
         2.4562625e-05
         2.485926e-05
         2.5157331e-05
         2.5456915e-05
         2.5757876e-05
         2.6060336e-05
         2.6364225e-05
         2.6669508e-05
         2.6976206e-05
         2.7284426e-05
         2.7594004e-05
         2.7904971e-05
         2.8217431e-05
         2.8531233e-05
         2.8846503e-05
         2.9163148e-05
         2.9481209e-05
         2.9800676e-05
         3.0121444e-05
         3.0443694e-05
         3.0767296e-05
         3.1092375e-05
         3.1418822e-05
         3.1746553e-05
         3.207571e-05
         3.2406228e-05
         3.2738128e-05
         3.307142e-05
         3.3406053e-05
         3.374208e-05
         3.4079432e-05
         3.441813e-05
         3.4758206e-05
         3.509963e-05
         3.5442383e-05
         3.578649e-05
         3.613192e-05
         3.647877e-05
         3.6826896e-05
         3.7176324e-05
         3.7527105e-05
         3.7879247e-05
         3.823269e-05
         3.8587394e-05
         3.8943526e-05
         3.9300943e-05
         3.9659597e-05
         4.001962e-05
         4.0380968e-05
         4.0743602e-05
         4.110754e-05
         4.14728e-05
         4.1839405e-05
         4.2207175e-05
         4.257634e-05
         4.2946725e-05
         4.331839e-05
         4.3691383e-05
         4.4065662e-05
         4.4441284e-05
         4.4818033e-05
         4.519621e-05
         4.5575543e-05
         4.5956207e-05
         4.6338097e-05
         4.6721278e-05
         4.7105743e-05
         4.7491445e-05
         4.7878435e-05
         4.82667e-05
         4.8656173e-05
         4.9046877e-05
         4.943881e-05
         4.9831993e-05
         5.0226517e-05
         5.0622202e-05
         5.101918e-05
         5.1417286e-05
         5.181685e-05
         5.2217365e-05
         5.2619296e-05
         5.3022406e-05
         5.3426782e-05
         5.3832362e-05
         5.4239164e-05
         5.4647073e-05
         5.5056258e-05
         5.5466753e-05
         5.587842e-05
         5.6291283e-05
         5.6705358e-05
         5.7120662e-05
         5.7537174e-05
         5.795489e-05
         5.8373713e-05
         5.879384e-05
         5.921504e-05
         5.963758e-05
         6.006118e-05
         6.0486083e-05
         6.0912167e-05
         6.1339444e-05
         6.176788e-05
         6.2197396e-05
         6.262829e-05
         6.306019e-05
         6.349342e-05
         6.3927706e-05
         6.4363136e-05
         6.4799824e-05
         6.523764e-05
         6.567674e-05
         6.611683e-05
         6.655812e-05
         6.7000765e-05
         6.744436e-05
         6.788927e-05
         6.83352e-05
         6.878231e-05
         6.923053e-05
         6.9680005e-05
         7.013065e-05
         7.05823e-05
         7.1035225e-05
         7.148911e-05
         7.194432e-05
         7.24006e-05
         7.285815e-05
         7.331667e-05
         7.3776326e-05
         7.423723e-05
         7.46992e-05
         7.51623e-05
         7.56265e-05
         7.6091965e-05
         7.655839e-05
         7.7026074e-05
         7.7494675e-05
         7.796463e-05
         7.843559e-05
         7.890764e-05
         7.9380894e-05
         7.985512e-05
         8.03305e-05
         8.080715e-05
         8.128474e-05
         8.1763574e-05
         8.22432e-05
         8.272427e-05
         8.320632e-05
         8.368943e-05
         8.4173764e-05
         8.465913e-05
         8.514555e-05
         8.563313e-05
         8.612188e-05
         8.661148e-05
         8.710231e-05
         8.759413e-05
         8.808719e-05
         8.858119e-05
         8.9076515e-05
         8.957277e-05
         9.006998e-05
         9.0568545e-05
         9.1067755e-05
         9.156836e-05
         9.207013e-05
         9.25727e-05
         9.307655e-05
         9.358148e-05
         9.4087496e-05
         9.459431e-05
         9.510229e-05
         9.561159e-05
         9.612166e-05
         9.6632924e-05
         9.714514e-05
         9.7658514e-05
         9.817288e-05
         9.8688375e-05
         9.920482e-05
         9.9722354e-05
         0.0001002411
         0.00010076081
         0.00010128142
         0.00010180321
         0.000102326056
         0.00010284994
         0.00010337481
         0.000103900864
         0.00010442818
         0.00010495724
         0.00010548936
         0.0001060238
         0.00010656059
         0.00010710066
         0.00010764264
         0.00010818819
         0.000108735694
         0.00010928634
         0.00010983973
         0.00011039525
         0.00011095442
         0.00011151543
         0.00011208
         0.000112647045
         0.000113216716
         0.000113789676
         0.00011436455
         0.00011494353
         0.00011552436
         0.000116108575
         0.000116695504
         0.00011728502
         0.00011787826
         0.00011847344
         0.00011907235
         0.00011967395
         0.00012027846
         0.00012088597
         0.00012149596
         0.00012211017
         0.0001227264
         0.00012334596
         0.00012396878
         0.00012459396
         0.00012522328
         0.0001258548
         0.00012649017
         0.0001271281
         0.00012776957
         0.000128414
         0.00012906105
         0.00012971241
         0.00013036624
         0.00013102347
         0.00013168392
         0.00013234744
         0.00013301478
         0.00013368468
         0.0001343586
         0.0001350351
         0.0001357153
         0.00013639903
         0.00013708537
         0.00013777622
         0.0001384697
         0.00013916698
         0.0001398675
         0.00014057128
         0.00014127909
         0.00014198918
         0.00014270416
         0.00014342187
         0.0001441435
         0.00014486868
         0.0001455964
         0.0001463293
         0.0001470642
         0.00014780408
         0.00014854685
         0.0001492932
         0.00015004406
         0.00015079697
         0.00015155542
         0.00015231657
         0.00015308167
         0.00015385073
         0.00015462264
         0.00015539992
         0.00015617948
         0.00015696371
         0.0001577514
         0.00015854285
         0.00015933893
         0.00016013773
         0.00016094185
         0.00016174896
         0.00016256052
         0.00016337607
         0.00016419461
         0.00016501841
         0.00016584522
         0.00016667733
         0.00016751277
         0.0001683518
         0.00016919595
         0.00017004272
         0.00017089564
         0.00017175118
         0.00017261149
         0.00017347619
         0.00017434417
         0.00017521788
         0.0001760946
         0.00017697683
         0.00017786238
         0.00017875205
         0.00017964728
         0.00018054516
         0.00018144942
         0.0001823563
         0.00018326861
         0.0001841852
         0.00018510575
         0.000186032
         0.00018696128
         0.00018789638
         0.00018883524
         0.00018977922
         0.00019072763
         0.00019168002
         0.00019263841
         0.0001936004
         0.00019456744
         0.00019553934
         0.00019651471
         0.00019749701
         0.00019848208
         0.00019947345
         0.00020046871
         0.0002014695
         0.00020247482
         0.00020348417
         0.00020450045
         0.00020552
         0.00020654534
         0.00020757537
         0.00020860982
         0.00020965084
         0.0002106954
         0.00021174602
         0.00021280107
         0.00021386186
         0.00021492717
         0.00021599742
         0.00021707469
         0.00021815504
         0.0002192419
         0.00022033368
         0.00022143056
         0.00022253368
         0.00022364048
         0.00022475437
         0.00022587267
         0.00022699703
         0.0002281268
         0.00022926093
         0.00023040234
         0.00023154746
         0.00023270005
         0.00023385693
         0.00023501946
         0.00023618857
         0.00023736138
         0.00023854226
         0.00023972742
         0.00024091841
         0.00024211656
         0.00024331879
         0.00024452814
         0.00024574168
         0.00024696323
         0.00024818932
         0.00024942096
         0.00025066032
         0.0002519033
         0.0002531547
         0.00025441038
         0.0002556736
         0.0002569422
         0.00025821663
         0.00025949752
         0.00026078438
         0.0002620784
         0.00026337802
         0.0002646832
         0.0002659962
         0.00026731376
         0.0002686397
         0.00026997036
         0.00027130896
         0.0002726533
         0.00027400293
         0.00027536106
         0.00027672414
         0.0002780957
         0.00027947247
         0.0002808558
         0.0002822471
         0.0002836431
         0.0002850482
         0.00028645815
         0.00028787597
         0.00028930002
         0.0002907308
         0.00029216975
         0.00029361405
         0.00029506691
         0.00029652606
         0.0002979918
         0.0002994658
         0.00030094403
         0.00030243312
         0.0003039273
         0.00030542913
         0.00030693866
         0.00030845415
         0.0003099786
         0.00031150845
         0.0003130481
         0.0003145935
         0.00031614673
         0.00031770754
         0.00031927446
         0.00032085206
         0.00032243496
         0.00032402604
         0.00032562471
         0.00032723058
         0.00032884616
         0.0003304662
         0.0003320973
         0.00033373397
         0.00033537977
         0.00033703313
         0.00033869356
         0.00034036417
         0.0003420402
         0.0003437265
         0.00034542
         0.00034712115
         0.0003488315
         0.000350548
         0.00035227629
         0.00035401035
         0.00035575332
         0.0003575051
         0.0003592629
         0.00036103305
         0.00036280818
         0.00036459428
         0.00036638766
         0.0003681895
         0.00037000148
         0.00037181968
         0.00037364973
         0.00037548586
         0.00037733247
         0.00037918784
         0.00038105057
         0.00038292445
         0.00038480497
         0.0003866969
         0.0003885962
         0.00039050457
         0.00039242365
         0.00039434875
         0.00039628692
         0.0003982321
         0.0004001878
         0.00040215277
         0.0004041256
         0.00040611002
         0.00040810104
         0.00041010467
         0.0004121166
         0.00041413752
         0.00041617005
         0.00041820869
         0.00042026176
         0.0004223211
         0.00042439203
         0.00042647246
         0.0004285616
         0.0004306635
         0.00043277213
         0.00043489374
         0.00043702367
         0.00043916368
         0.00044131646
         0.0004434748
         0.00044564874
         0.00044782937
         0.000450023
         0.0004522258
         0.0004544379
         0.00045666297
         0.0004588951
         0.0004611427
         0.000463398
         0.00046566484
         0.00046794297
         0.0004702287
         0.00047253064
         0.00047484017
         0.00047716088
         0.0004794938
         0.00048183606
         0.00048419266
         0.00048655586
         0.0004889357
         0.0004913235
         0.0004937227
         0.0004961347
         0.0004985553
         0.0005009924
         0.00050343684
         0.00050589454
         0.00050836446
         0.00051084405
         0.00051333825
         0.0005158417
         0.0005183597
         0.0005208883
         0.0005234283
         0.0005259811
         0.00052854454
         0.0005311237
         0.0005337117
         0.000536314
         0.00053892884
         0.0005415538
         0.0005441942
         0.0005468434
         0.0005495097
         0.0005521857
         0.00055487535
         0.0005575781
         0.00056029105
         0.0005630212
         0.00056575995
         0.0005685163
         0.0005712816
         0.0005740612
         0.0005768567
         0.0005796602
         0.00058248267
         0.0005853151
         0.00058816274
         0.0005910237
         0.00059389515
         0.00059678516
         0.00059968466
         0.00060260034
         0.0006055282
         0.0006084701
         0.0006114282
         0.00061439554
         0.00061738264
         0.00062038057
         0.00062339514
         0.00062642264
         0.0006294626
         0.0006325203
         0.00063558907
         0.0006386747
         0.0006417745
         0.00064488803
         0.0006480186
         0.00065115927
         0.00065432134
         0.0006574932
         0.0006606828
         0.0006638866
         0.0006671047
         0.00067034055
         0.00067358726
         0.0006768539
         0.00068013405
         0.0006834289
         0.000686742
         0.0006900654
         0.00069341186
         0.00069676834
         0.0007001435
         0.0007035339
         0.0007069392
         0.0007103634
         0.000713799
         0.0007172566
         0.0007207268
         0.0007242142
         0.00072772
         0.0007312356
         0.0007347756
         0.0007383283
         0.0007418998
         0.00074548693
         0.0007490902
         0.0007527136
         0.0007563478
         0.0007600073
         0.00076367904
         0.00076736795
         0.0007710763
         0.00077479787
         0.0007785435
         0.00078230235
         0.0007860812
         0.0007898777
         0.00079368794
         0.0007975215
         0.00080136745
         0.0008052392
         0.0008091228
         0.0008130266
         0.00081695005
