ocio-configs/luts/util_aces_roll_white_rev.spi1d
Version 1
From 0.000000 1.000000
Length 4096
Components 1
{
         0.0
         0.00025437528
         0.00050875056
         0.0007631258
         0.0010175011
         0.0012718764
         0.0015262516
         0.0017806268
         0.0020350022
         0.0022893774
         0.0025437528
         0.002798128
         0.003052503
         0.0033068785
         0.0035612537
         0.0038156288
         0.0040700044
         0.00432438
         0.004578755
         0.00483313
         0.0050875056
         0.0053418805
         0.005596256
         0.0058506313
         0.006105006
         0.0063593816
         0.006613757
         0.006868132
         0.0071225073
         0.0073768827
         0.0076312576
         0.007885633
         0.008140009
         0.008394384
         0.00864876
         0.008903135
         0.00915751
         0.009411885
         0.00966626
         0.009920635
         0.010175011
         0.010429386
         0.010683761
         0.010938137
         0.011192512
         0.011446887
         0.011701263
         0.0119556375
         0.012210012
         0.012464388
         0.012718763
         0.012973138
         0.013227514
         0.013481889
         0.013736264
         0.01399064
         0.014245015
         0.01449939
         0.014753765
         0.01500814
         0.015262515
         0.015516891
         0.015771266
         0.016025642
         0.016280018
         0.016534394
         0.016788768
         0.017043144
         0.01729752
         0.017551893
         0.01780627
         0.018060645
         0.01831502
         0.018569395
         0.01882377
         0.019078145
         0.01933252
         0.019586897
         0.01984127
         0.020095646
         0.020350022
         0.020604396
         0.020858772
         0.021113148
         0.021367522
         0.021621898
         0.021876274
         0.022130648
         0.022385024
         0.0226394
         0.022893773
         0.02314815
         0.023402525
         0.0236569
         0.023911275
         0.02416565
         0.024420025
         0.0246744
         0.024928777
         0.02518315
         0.025437526
         0.025691902
         0.025946276
         0.026200652
         0.026455028
         0.026709402
         0.026963778
         0.027218154
         0.027472528
         0.027726904
         0.02798128
         0.028235653
         0.02849003
         0.028744405
         0.02899878
         0.029253155
         0.02950753
         0.029761905
         0.03001628
         0.030270657
         0.03052503
         0.030779406
         0.031033782
         0.03128816
         0.031542532
         0.031796906
         0.032051284
         0.032305658
         0.032560036
         0.03281441
         0.033068787
         0.03332316
         0.033577535
         0.033831913
         0.034086287
         0.03434066
         0.03459504
         0.034849413
         0.035103787
         0.035358164
         0.03561254
         0.035866912
         0.03612129
         0.036375664
         0.03663004
         0.036884416
         0.03713879
         0.037393164
         0.03764754
         0.037901916
         0.03815629
         0.038410667
         0.03866504
         0.038919415
         0.039173793
         0.039428167
         0.03968254
         0.03993692
         0.040191293
         0.040445667
         0.040700044
         0.04095442
         0.041208792
         0.04146317
         0.041717544
         0.04197192
         0.042226296
         0.04248067
         0.042735044
         0.04298942
         0.043243796
         0.04349817
         0.043752547
         0.04400692
         0.044261295
         0.044515673
         0.044770047
         0.04502442
         0.0452788
         0.045533173
         0.045787547
         0.046041925
         0.0462963
         0.046550673
         0.04680505
         0.047059424
         0.0473138
         0.047568176
         0.04782255
         0.048076924
         0.0483313
         0.048585676
         0.04884005
         0.049094427
         0.0493488
         0.049603175
         0.049857553
         0.050111927
         0.0503663
         0.05062068
         0.050875053
         0.051129427
         0.051383805
         0.05163818
         0.051892553
         0.05214693
         0.052401304
         0.05265568
         0.052910056
         0.05316443
         0.053418804
         0.05367318
         0.053927556
         0.05418193
         0.054436307
         0.05469068
         0.054945055
         0.055199433
         0.055453807
         0.05570818
         0.05596256
         0.056216933
         0.056471307
         0.056725685
         0.05698006
         0.057234433
         0.05748881
         0.057743184
         0.05799756
         0.058251936
         0.05850631
         0.058760684
         0.05901506
         0.059269436
         0.05952381
         0.059778187
         0.06003256
         0.060286935
         0.060541313
         0.060795687
         0.06105006
         0.06130444
         0.061558813
         0.061813187
         0.062067565
         0.06232194
         0.06257632
         0.06283069
         0.063085064
         0.06333944
         0.06359381
         0.06384819
         0.06410257
         0.06435694
         0.064611316
         0.06486569
         0.06512007
         0.06537445
         0.06562882
         0.0658832
         0.066137575
         0.066391945
         0.06664632
         0.0669007
         0.06715507
         0.06740945
         0.067663826
         0.0679182
         0.068172574
         0.06842695
         0.06868132
         0.0689357
         0.06919008
         0.06944445
         0.069698825
         0.0699532
         0.07020757
         0.07046195
         0.07071633
         0.0709707
         0.07122508
         0.071479455
         0.071733825
         0.0719882
         0.07224258
         0.07249695
         0.07275133
         0.073005706
         0.07326008
         0.073514454
         0.07376883
         0.0740232
         0.07427758
         0.07453196
         0.07478633
         0.075040706
         0.07529508
         0.07554945
         0.07580383
         0.07605821
         0.07631258
         0.07656696
         0.076821335
         0.077075705
         0.07733008
         0.07758446
         0.07783883
         0.07809321
         0.078347586
         0.07860196
         0.078856334
         0.07911071
         0.07936508
         0.07961946
         0.07987384
         0.08012821
         0.080382586
         0.08063696
         0.08089133
         0.08114571
         0.08140009
         0.08165446
         0.08190884
         0.082163215
         0.082417585
         0.08267196
         0.08292634
         0.08318071
         0.08343509
         0.083689466
         0.08394384
         0.084198214
         0.08445259
         0.08470696
         0.08496134
         0.08521572
         0.08547009
         0.085724466
         0.08597884
         0.08623321
         0.08648759
         0.08674197
         0.08699634
         0.08725072
         0.087505095
         0.087759465
         0.08801384
         0.08826822
         0.08852259
         0.08877697
         0.089031346
         0.08928572
         0.089540094
         0.08979447
         0.09004884
         0.09030322
         0.0905576
         0.09081197
         0.091066346
         0.09132072
         0.09157509
         0.09182947
         0.09208385
         0.09233822
         0.0925926
         0.092846975
         0.093101345
         0.09335572
         0.0936101
         0.09386447
         0.09411885
         0.094373226
         0.0946276
         0.094881974
         0.09513635
         0.09539072
         0.0956451
         0.09589948
         0.09615385
         0.096408226
         0.0966626
         0.09691697
         0.09717135
         0.09742573
         0.0976801
         0.09793448
         0.098188855
         0.098443225
         0.0986976
         0.09895198
         0.09920635
         0.09946073
         0.099715106
         0.09996948
         0.100223854
         0.10047823
         0.1007326
         0.10098698
         0.10124136
         0.10149573
         0.101750106
         0.10200448
         0.10225885
         0.10251323
         0.10276761
         0.10302198
         0.10327636
         0.103530735
         0.103785105
         0.10403948
         0.10429386
         0.10454823
         0.10480261
         0.105056986
         0.10531136
         0.105565734
         0.10582011
         0.10607448
         0.10632886
         0.10658324
         0.10683761
         0.107091986
         0.10734636
         0.10760073
         0.10785511
         0.10810949
         0.10836386
         0.10861824
         0.108872615
         0.109126985
         0.10938136
         0.10963574
         0.10989011
         0.11014449
         0.110398866
         0.11065324
         0.110907614
         0.11116199
         0.11141636
         0.11167074
         0.11192512
         0.11217949
         0.112433866
         0.11268824
         0.11294261
         0.11319699
         0.11345137
         0.11370574
         0.11396012
         0.114214495
         0.114468865
         0.11472324
         0.11497762
         0.11523199
         0.11548637
         0.115740746
         0.11599512
         0.116249494
         0.11650387
         0.11675824
         0.11701262
         0.117267
         0.11752137
         0.117775746
         0.11803012
         0.11828449
         0.11853887
         0.11879325
         0.11904762
         0.119302
         0.119556375
         0.119810745
         0.12006512
         0.1203195
         0.12057387
         0.12082825
         0.12108263
         0.121337
         0.121591374
         0.12184575
         0.12210012
         0.1223545
         0.12260888
         0.12286325
         0.123117626
         0.123372
         0.12362637
         0.12388075
         0.12413513
         0.1243895
         0.12464388
         0.124898255
         0.12515263
         0.12540701
         0.12566137
         0.12591575
         0.12617013
         0.1264245
         0.12667888
         0.12693326
         0.12718762
         0.127442
         0.12769638
         0.12795076
         0.12820514
         0.12845951
         0.12871388
         0.12896825
         0.12922263
         0.12947701
         0.12973139
         0.12998576
         0.13024014
         0.13049452
         0.1307489
         0.13100326
         0.13125764
         0.13151202
         0.1317664
         0.13202077
         0.13227515
         0.13252951
         0.13278389
         0.13303827
         0.13329265
         0.13354702
         0.1338014
         0.13405576
         0.13431014
         0.13456452
         0.1348189
         0.13507327
         0.13532765
         0.13558201
         0.1358364
         0.13609077
         0.13634515
         0.13659953
         0.1368539
         0.13710827
         0.13736264
         0.13761702
         0.1378714
         0.13812578
         0.13838015
         0.13863452
         0.1388889
         0.13914327
         0.13939765
         0.13965203
         0.1399064
         0.14016077
         0.14041515
         0.14066952
         0.1409239
         0.14117828
         0.14143266
         0.14168702
         0.1419414
         0.14219578
         0.14245015
         0.14270453
         0.14295891
         0.14321327
         0.14346765
         0.14372203
         0.1439764
         0.14423078
         0.14448516
         0.14473952
         0.1449939
         0.14524828
         0.14550266
         0.14575703
         0.14601141
         0.14626577
         0.14652015
         0.14677453
         0.14702891
         0.14728329
         0.14753766
         0.14779203
         0.1480464
         0.14830078
         0.14855516
         0.14880954
         0.14906392
         0.14931828
         0.14957266
         0.14982703
         0.15008141
         0.15033579
         0.15059017
         0.15084453
         0.1510989
         0.15135328
         0.15160766
         0.15186204
         0.15211642
         0.15237078
         0.15262516
         0.15287954
         0.15313391
         0.15338829
         0.15364267
         0.15389703
         0.15415141
         0.15440579
         0.15466017
         0.15491454
         0.15516892
         0.15542328
         0.15567766
         0.15593204
         0.15618642
         0.1564408
         0.15669517
         0.15694954
         0.15720391
         0.15745829
         0.15771267
         0.15796705
         0.15822142
         0.15847579
         0.15873016
         0.15898454
         0.15923892
         0.1594933
         0.15974768
         0.16000204
         0.16025642
         0.1605108
         0.16076517
         0.16101955
         0.16127393
         0.16152829
         0.16178267
         0.16203704
         0.16229142
         0.1625458
         0.16280018
         0.16305454
         0.16330892
         0.1635633
         0.16381767
         0.16407205
         0.16432643
         0.16458079
         0.16483517
         0.16508955
         0.16534393
         0.1655983
         0.16585268
         0.16610704
         0.16636142
         0.1666158
         0.16687018
         0.16712455
         0.16737893
         0.1676333
         0.16788767
         0.16814205
         0.16839643
         0.1686508
         0.16890518
         0.16915955
         0.16941392
         0.1696683
         0.16992268
         0.17017706
         0.17043144
         0.1706858
         0.17094018
         0.17119455
         0.17144893
         0.17170331
         0.17195769
         0.17221205
         0.17246643
         0.1727208
         0.17297518
         0.17322956
         0.17348394
         0.1737383
         0.17399268
         0.17424706
         0.17450143
         0.17475581
         0.17501019
         0.17526455
         0.17551893
         0.17577331
         0.17602769
         0.17628206
         0.17653644
         0.1767908
         0.17704518
         0.17729956
         0.17755394
         0.17780831
         0.17806269
         0.17831706
         0.17857143
         0.17882581
         0.17908019
         0.17933457
         0.17958894
         0.1798433
         0.18009768
         0.18035206
         0.18060644
         0.18086082
         0.1811152
         0.18136956
         0.18162394
         0.18187831
         0.18213269
         0.18238707
         0.18264145
         0.18289581
         0.18315019
         0.18340456
         0.18365894
         0.18391332
         0.1841677
         0.18442206
         0.18467644
         0.18493082
         0.1851852
         0.18543957
         0.18569395
         0.18594831
         0.18620269
         0.18645707
         0.18671145
         0.18696582
         0.1872202
         0.18747456
         0.18772894
         0.18798332
         0.1882377
         0.18849207
         0.18874645
         0.18900082
         0.1892552
         0.18950957
         0.18976395
         0.19001833
         0.1902727
         0.19052707
         0.19078144
         0.19103582
         0.1912902
         0.19154458
         0.19179896
         0.19205332
         0.1923077
         0.19256207
         0.19281645
         0.19307083
         0.1933252
         0.19357957
         0.19383395
         0.19408832
         0.1943427
         0.19459708
         0.19485146
         0.19510584
         0.1953602
         0.19561458
         0.19586895
         0.19612333
         0.19637771
         0.19663209
         0.19688645
         0.19714083
         0.1973952
         0.19764958
         0.19790396
         0.19815834
         0.1984127
         0.19866708
         0.19892146
         0.19917583
         0.19943021
         0.19968459
         0.19993895
         0.20019333
         0.20044771
         0.20070209
         0.20095646
         0.20121084
         0.2014652
         0.20171958
         0.20197396
         0.20222834
         0.20248272
         0.2027371
         0.20299146
         0.20324583
         0.20350021
         0.20375459
         0.20400897
         0.20426334
         0.2045177
         0.20477208
         0.20502646
         0.20528084
         0.20553522
         0.2057896
         0.20604396
         0.20629834
         0.20655271
         0.20680709
         0.20706147
         0.20731585
         0.20757021
         0.20782459
         0.20807897
         0.20833334
         0.20858772
         0.2088421
         0.20909646
         0.20935084
         0.20960522
         0.2098596
         0.21011397
         0.21036835
         0.21062271
         0.21087709
         0.21113147
         0.21138585
         0.21164022
         0.2118946
         0.21214896
         0.21240334
         0.21265772
         0.2129121
         0.21316648
         0.21342085
         0.21367522
         0.2139296
         0.21418397
         0.21443835
         0.21469273
         0.2149471
         0.21520147
         0.21545584
         0.21571022
         0.2159646
         0.21621898
         0.21647336
         0.21672772
         0.2169821
         0.21723647
         0.21749085
         0.21774523
         0.2179996
         0.21825397
         0.21850835
         0.21876273
         0.2190171
         0.21927148
         0.21952586
         0.21978022
         0.2200346
         0.22028898
         0.22054335
         0.22079773
         0.22105211
         0.22130647
         0.22156085
         0.22181523
         0.2220696
         0.22232398
         0.22257836
         0.22283272
         0.2230871
         0.22334148
         0.22359586
         0.22385024
         0.22410461
         0.22435898
         0.22461335
         0.22486773
         0.22512211
         0.22537649
         0.22563086
         0.22588523
         0.2261396
         0.22639398
         0.22664836
         0.22690274
         0.22715712
         0.22741148
         0.22766586
         0.22792023
         0.22817461
         0.22842899
         0.22868337
         0.22893773
         0.22919211
         0.22944649
         0.22970086
         0.22995524
         0.23020962
         0.23046398
         0.23071836
         0.23097274
         0.23122711
         0.23148149
         0.23173587
         0.23199023
         0.23224461
         0.23249899
         0.23275337
         0.23300774
         0.23326212
         0.23351648
         0.23377086
         0.23402524
         0.23427962
         0.234534
         0.23478837
         0.23504274
         0.23529711
         0.23555149
         0.23580587
         0.23606025
         0.23631462
         0.23656899
         0.23682337
         0.23707774
         0.23733212
         0.2375865
         0.23784088
         0.23809524
         0.23834962
         0.238604
         0.23885837
         0.23911275
         0.23936713
         0.23962149
         0.23987587
         0.24013025
         0.24038462
         0.240639
         0.24089338
         0.24114774
         0.24140212
         0.2416565
         0.24191087
         0.24216525
         0.24241963
         0.242674
         0.24292837
         0.24318275
         0.24343713
         0.2436915
         0.24394588
         0.24420024
         0.24445462
         0.244709
         0.24496338
         0.24521776
         0.24547213
         0.2457265
         0.24598087
         0.24623525
         0.24648963
         0.246744
         0.24699838
         0.24725275
         0.24750713
         0.2477615
         0.24801588
         0.24827026
         0.24852464
         0.248779
         0.24903338
         0.24928775
         0.24954213
         0.24979651
         0.25005087
         0.25030527
         0.25055963
         0.25081402
         0.25106838
         0.25132275
         0.25157714
         0.2518315
         0.2520859
         0.25234026
         0.25259462
         0.252849
         0.25310338
         0.25335777
         0.25361213
         0.25386652
         0.2541209
         0.25437525
         0.25462964
         0.254884
         0.2551384
         0.25539276
         0.25564712
         0.25590152
         0.25615588
         0.25641027
         0.25666463
         0.25691903
         0.2571734
         0.25742775
         0.25768214
         0.2579365
         0.2581909
         0.25844526
         0.25869963
         0.25895402
         0.25920838
         0.25946277
         0.25971714
         0.25997153
         0.2602259
         0.26048028
         0.26073465
         0.26098904
         0.2612434
         0.2614978
         0.26175216
         0.26200652
         0.2622609
         0.26251528
         0.26276967
         0.26302403
         0.2632784
         0.2635328
         0.26378715
         0.26404154
         0.2642959
         0.2645503
         0.26480466
         0.26505902
         0.26531342
         0.26556778
         0.26582217
         0.26607653
         0.2663309
         0.2665853
         0.26683965
         0.26709405
         0.2673484
         0.2676028
         0.26785716
         0.26811153
         0.26836592
         0.26862028
         0.26887468
         0.26912904
         0.2693834
         0.2696378
         0.26989216
         0.27014655
         0.2704009
         0.2706553
         0.27090967
         0.27116403
         0.27141842
         0.2716728
         0.27192718
         0.27218154
         0.2724359
         0.2726903
         0.27294466
         0.27319905
         0.2734534
         0.2737078
         0.27396217
         0.27421653
         0.27447093
         0.2747253
         0.27497968
         0.27523404
         0.2754884
         0.2757428
         0.27599716
         0.27625155
         0.27650592
         0.2767603
         0.27701467
         0.27726904
         0.27752343
         0.2777778
         0.27803218
         0.27828655
         0.27854094
         0.2787953
         0.27904966
         0.27930406
         0.27955842
         0.2798128
         0.28006718
         0.28032154
         0.28057593
         0.2808303
         0.2810847
         0.28133905
         0.28159344
         0.2818478
         0.28210217
         0.28235656
         0.28261092
         0.28286532
         0.28311968
         0.28337404
         0.28362843
         0.2838828
         0.2841372
         0.28439155
         0.28464594
         0.2849003
         0.28515467
         0.28540906
         0.28566343
         0.28591782
         0.28617218
         0.28642654
         0.28668094
         0.2869353
         0.2871897
         0.28744406
         0.28769845
         0.2879528
         0.28820717
         0.28846157
         0.28871593
         0.28897032
         0.28922468
         0.28947905
         0.28973344
         0.2899878
         0.2902422
         0.29049656
         0.29075095
         0.2910053
         0.29125968
         0.29151407
         0.29176843
         0.29202282
         0.2922772
         0.29253155
         0.29278594
         0.2930403
         0.2932947
         0.29354906
         0.29380345
         0.29405782
         0.29431218
         0.29456657
         0.29482093
         0.29507533
         0.2953297
         0.29558405
         0.29583845
         0.2960928
         0.2963472
         0.29660156
         0.29685596
         0.29711032
         0.29736468
         0.29761907
         0.29787344
         0.29812783
         0.2983822
         0.29863656
         0.29889095
         0.2991453
         0.2993997
         0.29965407
         0.29990846
         0.30016282
         0.30041718
         0.30067158
         0.30092594
         0.30118033
         0.3014347
         0.30168906
         0.30194345
         0.3021978
         0.3024522
         0.30270657
         0.30296096
         0.30321532
         0.3034697
