ocio-configs/luts/util_aces_roll_white_fwd.spi1d
Version 1
From 0.000000 1.000000
Length 4096
Components 1
{
         0.0
         0.00023443224
         0.00046886448
         0.0007032967
         0.00093772897
         0.0011721612
         0.0014065934
         0.0016410257
         0.0018754579
         0.00210989
         0.0023443224
         0.0025787547
         0.0028131867
         0.003047619
         0.0032820513
         0.0035164834
         0.0037509159
         0.003985348
         0.00421978
         0.0044542127
         0.004688645
         0.004923077
         0.0051575094
         0.0053919414
         0.0056263735
         0.005860806
         0.006095238
         0.00632967
         0.0065641026
         0.0067985347
         0.0070329667
         0.007267399
         0.0075018317
         0.007736264
         0.007970696
         0.008205129
         0.00843956
         0.008673993
         0.008908425
         0.009142857
         0.00937729
         0.009611722
         0.009846154
         0.010080586
         0.010315019
         0.01054945
         0.010783883
         0.011018315
         0.011252747
         0.011487179
         0.011721612
         0.011956044
         0.012190476
         0.012424909
         0.01265934
         0.012893773
         0.013128205
         0.013362637
         0.013597069
         0.013831502
         0.014065933
         0.014300366
         0.014534798
         0.01476923
         0.0150036635
         0.015238096
         0.015472528
         0.01570696
         0.015941393
         0.016175825
         0.016410258
         0.016644688
         0.01687912
         0.017113553
         0.017347986
         0.017582418
         0.01781685
         0.018051282
         0.018285714
         0.018520147
         0.01875458
         0.018989012
         0.019223444
         0.019457875
         0.019692307
         0.01992674
         0.020161172
         0.020395605
         0.020630037
         0.020864468
         0.0210989
         0.021333333
         0.021567766
         0.021802198
         0.02203663
         0.022271061
         0.022505494
         0.022739926
         0.022974359
         0.023208791
         0.023443224
         0.023677656
         0.023912087
         0.02414652
         0.024380952
         0.024615385
         0.024849817
         0.02508425
         0.02531868
         0.025553113
         0.025787545
         0.026021978
         0.02625641
         0.026490843
         0.026725274
         0.026959706
         0.027194139
         0.027428571
         0.027663004
         0.027897436
         0.028131867
         0.0283663
         0.028600732
         0.028835164
         0.029069597
         0.02930403
         0.02953846
         0.029772893
         0.030007327
         0.03024176
         0.030476192
         0.030710625
         0.030945055
         0.031179488
         0.03141392
         0.031648353
         0.031882785
         0.032117218
         0.03235165
         0.032586083
         0.032820515
         0.033054944
         0.033289377
         0.03352381
         0.03375824
         0.033992674
         0.034227107
         0.03446154
         0.03469597
         0.034930404
         0.035164837
         0.03539927
         0.0356337
         0.035868134
         0.036102563
         0.036336996
         0.03657143
         0.03680586
         0.037040293
         0.037274726
         0.03750916
         0.03774359
         0.037978023
         0.038212456
         0.03844689
         0.03868132
         0.03891575
         0.039150182
         0.039384615
         0.039619047
         0.03985348
         0.040087912
         0.040322345
         0.040556777
         0.04079121
         0.041025642
         0.041260075
         0.041494507
         0.041728936
         0.04196337
         0.0421978
         0.042432234
         0.042666666
         0.0429011
         0.04313553
         0.043369964
         0.043604396
         0.04383883
         0.04407326
         0.044307694
         0.044542123
         0.044776555
         0.045010988
         0.04524542
         0.045479853
         0.045714285
         0.045948718
         0.04618315
         0.046417583
         0.046652015
         0.046886448
         0.04712088
         0.047355313
         0.04758974
         0.047824174
         0.048058607
         0.04829304
         0.04852747
         0.048761904
         0.048996337
         0.04923077
         0.0494652
         0.049699634
         0.049934067
         0.0501685
         0.05040293
         0.05063736
         0.050871793
         0.051106226
         0.05134066
         0.05157509
         0.051809523
         0.052043956
         0.05227839
         0.05251282
         0.052747253
         0.052981686
         0.053216115
         0.053450547
         0.05368498
         0.053919412
         0.054153845
         0.054388277
         0.05462271
         0.054857142
         0.055091575
         0.055326007
         0.05556044
         0.055794872
         0.056029305
         0.056263734
         0.056498166
         0.0567326
         0.05696703
         0.057201464
         0.057435896
         0.05767033
         0.05790476
         0.058139194
         0.058373626
         0.05860806
         0.05884249
         0.05907692
         0.059311353
         0.059545785
         0.059780218
         0.060014654
         0.060249086
         0.06048352
         0.06071795
         0.060952384
         0.061186817
         0.06142125
         0.06165568
         0.06189011
         0.062124543
         0.062358975
         0.06259341
         0.06282784
         0.06306227
         0.063296705
         0.06353114
         0.06376557
         0.064
         0.064234436
         0.06446887
         0.0647033
         0.06493773
         0.065172166
         0.0654066
         0.06564103
         0.06587546
         0.06610989
         0.06634432
         0.06657875
         0.066813186
         0.06704762
         0.06728205
         0.06751648
         0.067750916
         0.06798535
         0.06821978
         0.06845421
         0.068688646
         0.06892308
         0.06915751
         0.06939194
         0.069626376
         0.06986081
         0.07009524
         0.07032967
         0.070564106
         0.07079854
         0.07103297
         0.0712674
         0.071501836
         0.07173627
         0.071970694
         0.07220513
         0.07243956
         0.07267399
         0.072908424
         0.07314286
         0.07337729
         0.07361172
         0.073846154
         0.07408059
         0.07431502
         0.07454945
         0.074783884
         0.07501832
         0.07525275
         0.07548718
         0.075721614
         0.07595605
         0.07619048
         0.07642491
         0.076659344
         0.07689378
         0.07712821
         0.07736264
         0.07759707
         0.0778315
         0.07806593
         0.078300364
         0.0785348
         0.07876923
         0.07900366
         0.079238094
         0.07947253
         0.07970696
         0.07994139
         0.080175824
         0.08041026
         0.08064469
         0.08087912
         0.081113555
         0.08134799
         0.08158242
         0.08181685
         0.082051285
         0.08228572
         0.08252015
         0.08275458
         0.082989015
         0.08322345
         0.08345787
         0.083692305
         0.08392674
         0.08416117
         0.0843956
         0.084630035
         0.08486447
         0.0850989
         0.08533333
         0.085567765
         0.0858022
         0.08603663
         0.08627106
         0.086505495
         0.08673993
         0.08697436
         0.08720879
         0.087443225
         0.08767766
         0.08791209
         0.08814652
         0.088380955
         0.08861539
         0.08884982
         0.089084245
         0.08931868
         0.08955311
         0.08978754
         0.090021975
         0.09025641
         0.09049084
         0.09072527
         0.090959705
         0.09119414
         0.09142857
         0.091663
         0.091897435
         0.09213187
         0.0923663
         0.09260073
         0.092835166
         0.0930696
         0.09330403
         0.09353846
         0.093772896
         0.09400733
         0.09424176
         0.09447619
         0.094710626
         0.09494505
         0.09517948
         0.095413916
         0.09564835
         0.09588278
         0.09611721
         0.096351646
         0.09658608
         0.09682051
         0.09705494
         0.097289376
         0.09752381
         0.09775824
         0.09799267
         0.098227106
         0.09846154
         0.09869597
         0.0989304
         0.099164836
         0.09939927
         0.0996337
         0.09986813
         0.100102566
         0.100337
         0.100571424
         0.10080586
         0.10104029
         0.10127472
         0.101509154
         0.10174359
         0.10197802
         0.10221245
         0.102446884
         0.10268132
         0.10291575
         0.10315018
         0.103384614
         0.10361905
         0.10385348
         0.10408791
         0.104322344
         0.10455678
         0.10479121
         0.10502564
         0.105260074
         0.10549451
         0.10572894
         0.10596337
         0.106197804
         0.10643223
         0.10666666
         0.106901094
         0.10713553
         0.10736996
         0.10760439
         0.107838824
         0.10807326
         0.10830769
         0.10854212
         0.108776554
         0.10901099
         0.10924542
         0.10947985
         0.109714285
         0.10994872
         0.11018315
         0.11041758
         0.110652015
         0.11088645
         0.11112088
         0.11135531
         0.111589745
         0.11182418
         0.11205861
         0.112293035
         0.11252747
         0.1127619
         0.11299633
         0.113230765
         0.1134652
         0.11369963
         0.11393406
         0.114168495
         0.11440293
         0.11463736
         0.11487179
         0.115106225
         0.11534066
         0.11557509
         0.11580952
         0.116043955
         0.11627839
         0.11651282
         0.11674725
         0.116981685
         0.11721612
         0.11745055
         0.11768498
         0.11791941
         0.11815384
         0.11838827
         0.118622705
         0.11885714
         0.11909157
         0.119326
         0.119560435
         0.11979487
         0.12002931
         0.12026374
         0.12049817
         0.120732605
         0.12096704
         0.12120147
         0.1214359
         0.121670336
         0.12190477
         0.1221392
         0.12237363
         0.122608066
         0.1228425
         0.12307693
         0.12331136
         0.12354579
         0.12378022
         0.12401465
         0.124249086
         0.12448352
         0.12471795
         0.12495238
         0.12518682
         0.12542126
         0.12565568
         0.12589012
         0.12612455
         0.12635897
         0.12659341
         0.12682784
         0.12706228
         0.1272967
         0.12753114
         0.12776557
         0.128
         0.12823443
         0.12846887
         0.1287033
         0.12893774
         0.12917216
         0.1294066
         0.12964103
         0.12987547
         0.13010989
         0.13034433
         0.13057876
         0.1308132
         0.13104762
         0.13128206
         0.13151649
         0.13175093
         0.13198535
         0.13221978
         0.13245422
         0.13268864
         0.13292308
         0.1331575
         0.13339195
         0.13362637
         0.13386081
         0.13409524
         0.13432968
         0.1345641
         0.13479854
         0.13503297
         0.1352674
         0.13550183
         0.13573627
         0.1359707
         0.13620514
         0.13643956
         0.136674
         0.13690843
         0.13714287
         0.13737729
         0.13761173
         0.13784616
         0.13808058
         0.13831502
         0.13854945
         0.13878389
         0.13901831
         0.13925275
         0.13948718
         0.13972162
         0.13995604
         0.14019048
         0.1404249
         0.14065935
         0.14089377
         0.14112821
         0.14136264
         0.14159708
         0.1418315
         0.14206594
         0.14230037
         0.1425348
         0.14276923
         0.14300367
         0.1432381
         0.14347254
         0.14370696
         0.14394139
         0.14417583
         0.14441025
         0.14464469
         0.14487912
         0.14511356
         0.14534798
         0.14558242
         0.14581685
         0.14605129
         0.14628571
         0.14652015
         0.14675458
         0.14698902
         0.14722344
         0.14745788
         0.14769231
         0.14792675
         0.14816117
         0.14839561
         0.14863004
         0.14886448
         0.1490989
         0.14933333
         0.14956777
         0.1498022
         0.15003663
         0.15027106
         0.1505055
         0.15073992
         0.15097436
         0.15120879
         0.15144323
         0.15167765
         0.1519121
         0.15214652
         0.15238096
         0.15261538
         0.15284982
         0.15308425
         0.15331869
         0.15355311
         0.15378755
         0.15402198
         0.15425642
         0.15449084
         0.15472528
         0.15495971
         0.15519413
         0.15542857
         0.155663
         0.15589744
         0.15613186
         0.1563663
         0.15660073
         0.15683517
         0.1570696
         0.15730403
         0.15753846
         0.1577729
         0.15800732
         0.15824176
         0.15847619
         0.15871063
         0.15894505
         0.1591795
         0.15941392
         0.15964836
         0.15988278
         0.16011722
         0.16035165
         0.16058609
         0.16082051
         0.16105494
         0.16128938
         0.1615238
         0.16175824
         0.16199267
         0.16222711
         0.16246153
         0.16269597
         0.1629304
         0.16316484
         0.16339926
         0.1636337
         0.16386813
         0.16410257
         0.164337
         0.16457143
         0.16480586
         0.1650403
         0.16527472
         0.16550916
         0.16574359
         0.16597803
         0.16621245
         0.1664469
         0.16668132
         0.16691574
         0.16715018
         0.16738461
         0.16761905
         0.16785347
         0.16808791
         0.16832234
         0.16855678
         0.1687912
         0.16902564
         0.16926007
         0.16949451
         0.16972893
         0.16996337
         0.1701978
         0.17043224
         0.17066666
         0.1709011
         0.17113553
         0.17136997
         0.1716044
         0.17183883
         0.17207326
         0.1723077
         0.17254212
         0.17277655
         0.17301099
         0.17324542
         0.17347986
         0.17371428
         0.17394872
         0.17418315
         0.17441759
         0.17465201
         0.17488645
         0.17512088
         0.17535532
         0.17558974
         0.17582418
         0.1760586
         0.17629305
         0.17652747
         0.17676191
         0.17699634
         0.17723078
         0.1774652
         0.17769964
         0.17793407
         0.17816849
         0.17840293
         0.17863736
         0.1788718
         0.17910622
         0.17934066
         0.17957509
         0.17980953
         0.18004395
         0.18027839
         0.18051282
         0.18074726
         0.18098168
         0.18121612
         0.18145055
         0.18168499
         0.18191941
         0.18215385
         0.18238828
         0.18262272
         0.18285714
         0.18309158
         0.183326
         0.18356045
         0.18379487
         0.1840293
         0.18426374
         0.18449816
         0.1847326
         0.18496703
         0.18520147
         0.18543589
         0.18567033
         0.18590476
         0.1861392
         0.18637362
         0.18660806
         0.18684249
         0.18707693
         0.18731135
         0.18754579
         0.18778022
         0.18801466
         0.18824908
         0.18848352
         0.18871795
         0.18895239
         0.18918681
         0.18942125
         0.18965568
         0.1898901
         0.19012454
         0.19035897
         0.1905934
         0.19082783
         0.19106227
         0.1912967
         0.19153114
         0.19176556
         0.192
         0.19223443
         0.19246887
         0.19270329
         0.19293773
         0.19317216
         0.1934066
         0.19364102
         0.19387546
         0.19410989
         0.19434433
         0.19457875
         0.19481319
         0.19504762
         0.19528206
         0.19551648
         0.1957509
         0.19598535
         0.19621977
         0.19645421
         0.19668864
         0.19692308
         0.1971575
         0.19739194
         0.19762637
         0.1978608
         0.19809523
         0.19832967
         0.1985641
         0.19879854
         0.19903296
         0.1992674
         0.19950183
         0.19973627
         0.19997069
         0.20020513
         0.20043956
         0.200674
         0.20090842
         0.20114285
         0.20137729
         0.20161171
         0.20184615
         0.20208058
         0.20231502
         0.20254944
         0.20278388
         0.20301831
         0.20325275
         0.20348717
         0.20372161
         0.20395604
         0.20419048
         0.2044249
         0.20465934
         0.20489377
         0.20512821
         0.20536263
         0.20559707
         0.2058315
         0.20606594
         0.20630036
         0.2065348
         0.20676923
         0.20700365
         0.2072381
         0.20747252
         0.20770696
         0.20794138
         0.20817582
         0.20841025
         0.20864469
         0.20887911
         0.20911355
         0.20934798
         0.20958242
         0.20981684
         0.21005128
         0.21028571
         0.21052015
         0.21075457
         0.21098901
         0.21122344
         0.21145788
         0.2116923
         0.21192674
         0.21216117
         0.21239561
         0.21263003
         0.21286446
         0.2130989
         0.21333332
         0.21356776
         0.21380219
         0.21403663
         0.21427105
         0.2145055
         0.21473992
         0.21497436
         0.21520878
         0.21544322
         0.21567765
         0.21591209
         0.21614651
         0.21638095
         0.21661538
         0.21684982
         0.21708424
         0.21731868
         0.21755311
         0.21778755
         0.21802197
         0.21825641
         0.21849084
         0.21872526
         0.2189597
         0.21919413
         0.21942857
         0.219663
         0.21989743
         0.22013186
         0.2203663
         0.22060072
         0.22083516
         0.22106959
         0.22130403
         0.22153845
         0.2217729
         0.22200732
         0.22224176
         0.22247618
         0.22271062
         0.22294505
         0.22317949
         0.22341391
         0.22364835
         0.22388278
         0.22411722
         0.22435164
         0.22458607
         0.22482051
         0.22505493
         0.22528937
         0.2255238
         0.22575824
         0.22599266
         0.2262271
         0.22646153
         0.22669597
         0.2269304
         0.22716483
         0.22739926
         0.2276337
         0.22786812
         0.22810256
         0.22833699
         0.22857143
         0.22880585
         0.2290403
         0.22927472
         0.22950916
         0.22974358
         0.22997801
         0.23021245
         0.23044688
         0.23068132
         0.23091574
         0.23115018
         0.2313846
         0.23161905
         0.23185347
         0.23208791
         0.23232234
         0.23255678
         0.2327912
         0.23302564
         0.23326007
         0.2334945
         0.23372893
         0.23396337
         0.2341978
         0.23443224
         0.23466666
         0.2349011
         0.23513553
         0.23536997
         0.23560439
         0.23583882
         0.23607326
         0.23630768
         0.23654212
         0.23677655
         0.23701099
         0.23724541
         0.23747985
         0.23771428
         0.23794872
         0.23818314
         0.23841758
         0.238652
         0.23888645
         0.23912087
         0.23935531
         0.23958974
         0.23982418
         0.24005862
         0.24029306
         0.24052748
         0.24076192
         0.24099635
         0.24123077
         0.24146521
         0.24169964
         0.24193408
         0.2421685
         0.24240294
         0.24263737
         0.2428718
         0.24310623
         0.24334067
         0.2435751
         0.24380954
         0.24404396
         0.2442784
         0.24451283
         0.24474727
         0.24498169
         0.24521613
         0.24545056
         0.245685
         0.24591942
         0.24615386
         0.24638829
         0.24662273
         0.24685715
         0.24709158
         0.24732602
         0.24756044
         0.24779488
         0.2480293
         0.24826375
         0.24849817
         0.24873261
         0.24896704
         0.24920148
         0.2494359
         0.24967034
         0.24990477
         0.2501392
         0.25037363
         0.25060806
         0.2508425
         0.25107694
         0.25131136
         0.2515458
         0.25178024
         0.25201467
         0.2522491
         0.25248352
         0.25271794
         0.2529524
         0.25318682
         0.25342125
         0.25365567
         0.25389013
         0.25412455
         0.25435898
         0.2545934
         0.25482786
         0.25506228
         0.2552967
         0.25553113
         0.2557656
         0.256
         0.25623444
         0.25646886
         0.25670332
         0.25693774
         0.25717217
         0.2574066
         0.25764105
         0.25787547
         0.2581099
         0.25834432
         0.25857875
         0.2588132
         0.25904763
         0.25928205
         0.25951648
         0.25975093
         0.25998536
         0.26021978
         0.2604542
         0.26068866
         0.2609231
         0.2611575
         0.26139194
         0.2616264
         0.26186082
         0.26209524
         0.26232967
         0.26256412
         0.26279855
         0.26303297
         0.2632674
         0.26350185
         0.26373628
         0.2639707
         0.26420513
         0.26443955
         0.264674
         0.26490843
         0.26514286
         0.26537728
         0.26561174
         0.26584616
         0.2660806
         0.266315
         0.26654947
         0.2667839
         0.26701832
         0.26725274
         0.2674872
         0.26772162
         0.26795605
         0.26819047
         0.26842493
         0.26865935
         0.26889378
         0.2691282
         0.26936266
         0.26959708
         0.2698315
         0.27006593
         0.27030036
         0.2705348
         0.27076924
         0.27100366
         0.2712381
         0.27147254
         0.27170697
         0.2719414
         0.27217582
         0.27241027
         0.2726447
         0.27287912
         0.27311355
         0.273348
         0.27358243
         0.27381685
         0.27405128
         0.27428573
         0.27452016
         0.27475458
         0.274989
         0.27522346
         0.2754579
         0.2756923
         0.27592674
         0.27616116
         0.27639562
         0.27663004
         0.27686447
         0.2770989
         0.27733335
         0.27756777
         0.2778022
         0.27803662
         0.27827108
         0.2785055
         0.27873993
         0.27897435
         0.2792088
